matthias-mayr/cartesian_trajectory_generator/generated_logs/datapoints5.txt
time,position_x,position_y,position_z,orientation_x,orientation_y,orientation_z,orientation_w,position_d_x,position_d_y,position_d_z,orientation_d_x,orientation_d_y,orientation_d_z,orientation_d_w,translational_stiffness,rotational_stiffness,nullspace_stiffness,velocity,f_x,f_y,f_z,tau_x,tau_x,tau_z,joint1,joint2,joint3,joint4,joint5,joint6,joint7
0.000000,-0.500000,-0.500000,0.800000,0.999924,0.004776,-0.011320,0.001026,-0.500000,-0.500000,0.800000,0.999924,0.004776,-0.011320,0.001026,200.000000,100.000000,0.000000,0.000034,0.000000,0.000000,0.000000,0.000000,0.000000,0.000000,1.598589,0.373501,0.078589,-0.832052,0.233616,0.905940,0.743846
0.001000,-0.500000,-0.500000,0.800000,0.999924,0.004776,-0.011320,0.001026,-0.500000,-0.500000,0.800000,0.999924,0.004776,-0.011320,0.001026,200.000000,100.000000,0.000000,0.000034,0.000000,0.000000,0.000000,0.000000,0.000000,0.000000,1.598589,0.373501,0.078589,-0.832052,0.233616,0.905940,0.743846
0.001000,-0.500000,-0.500000,0.800000,0.999924,0.004776,-0.011320,0.001026,-0.500000,-0.500000,0.800000,0.999924,0.004776,-0.011320,0.001026,200.000000,100.000000,0.000000,0.000034,0.000000,0.000000,0.000000,0.000000,0.000000,0.000000,1.598589,0.373501,0.078589,-0.832052,0.233616,0.905940,0.743846
0.003000,-0.500000,-0.500000,0.800000,0.999924,0.004776,-0.011320,0.001026,-0.500000,-0.500000,0.800000,0.999924,0.004776,-0.011320,0.001026,200.000000,100.000000,0.000000,0.000034,0.000000,0.000000,0.000000,0.000000,0.000000,0.000000,1.598589,0.373501,0.078589,-0.832052,0.233616,0.905940,0.743846
0.004000,-0.500000,-0.500000,0.800000,0.999924,0.004776,-0.011320,0.001026,-0.500000,-0.500000,0.800000,0.999924,0.004776,-0.011320,0.001026,200.000000,100.000000,0.000000,0.000034,0.000000,0.000000,0.000000,0.000000,0.000000,0.000000,1.598589,0.373501,0.078589,-0.832052,0.233616,0.905940,0.743846
0.005000,-0.500000,-0.500000,0.800000,0.999924,0.004776,-0.011320,0.001026,-0.500000,-0.500000,0.800000,0.999924,0.004776,-0.011320,0.001026,200.000000,100.000000,0.000000,0.000034,0.000000,0.000000,0.000000,0.000000,0.000000,0.000000,1.598589,0.373501,0.078589,-0.832052,0.233616,0.905940,0.743846
0.006000,-0.500000,-0.500000,0.800000,0.999924,0.004776,-0.011320,0.001026,-0.500000,-0.500000,0.800000,0.999924,0.004776,-0.011320,0.001026,200.000000,100.000000,0.000000,0.000034,0.000000,0.000000,0.000000,0.000000,0.000000,0.000000,1.598589,0.373501,0.078589,-0.832052,0.233616,0.905940,0.743846
0.007000,-0.500000,-0.500000,0.800000,0.999924,0.004776,-0.011320,0.001026,-0.500000,-0.500000,0.800000,0.999924,0.004776,-0.011320,0.001026,200.000000,100.000000,0.000000,0.000034,0.000000,0.000000,0.000000,0.000000,0.000000,0.000000,1.598589,0.373501,0.078589,-0.832052,0.233616,0.905940,0.743846
0.008000,-0.500000,-0.500000,0.800000,0.999924,0.004776,-0.011320,0.001026,-0.500000,-0.500000,0.800000,0.999924,0.004776,-0.011320,0.001026,200.000000,100.000000,0.000000,0.000034,0.000000,0.000000,0.000000,0.000000,0.000000,0.000000,1.598589,0.373501,0.078589,-0.832052,0.233616,0.905940,0.743846
0.009000,-0.500000,-0.500000,0.800000,0.999924,0.004776,-0.011320,0.001026,-0.500000,-0.500000,0.800000,0.999924,0.004776,-0.011320,0.001026,200.000000,100.000000,0.000000,0.000034,0.000000,0.000000,0.000000,0.000000,0.000000,0.000000,1.598589,0.373501,0.078589,-0.832052,0.233616,0.905940,0.743846
0.010000,-0.500000,-0.500000,0.800000,0.999924,0.004776,-0.011320,0.001026,-0.500000,-0.500000,0.800000,0.999924,0.004776,-0.011320,0.001026,200.000000,100.000000,0.000000,0.000034,0.000000,0.000000,0.000000,0.000000,0.000000,0.000000,1.598589,0.373501,0.078589,-0.832052,0.233616,0.905940,0.743846
0.010000,-0.500000,-0.500000,0.800000,0.999924,0.004776,-0.011320,0.001026,-0.500000,-0.500000,0.800000,0.999924,0.004776,-0.011320,0.001026,200.000000,100.000000,0.000000,0.000035,0.000000,0.000000,0.000000,0.000000,0.000000,0.000000,1.598589,0.373501,0.078589,-0.832052,0.233616,0.905940,0.743846
0.012000,-0.500000,-0.500000,0.800000,0.999924,0.004776,-0.011320,0.001026,-0.500000,-0.500000,0.800000,0.999924,0.004776,-0.011320,0.001026,200.000000,100.000000,0.000000,0.000035,0.000000,0.000000,0.000000,0.000000,0.000000,0.000000,1.598589,0.373501,0.078589,-0.832052,0.233616,0.905940,0.743846
0.013000,-0.500000,-0.500000,0.800000,0.999924,0.004776,-0.011320,0.001026,-0.500000,-0.500000,0.800000,0.999924,0.004776,-0.011320,0.001026,200.000000,100.000000,0.000000,0.000034,0.000000,0.000000,0.000000,0.000000,0.000000,0.000000,1.598589,0.373501,0.078589,-0.832052,0.233616,0.905940,0.743846
0.014000,-0.500000,-0.500000,0.800000,0.999924,0.004776,-0.011320,0.001026,-0.500000,-0.500000,0.800000,0.999924,0.004776,-0.011320,0.001026,200.000000,100.000000,0.000000,0.000034,0.000000,0.000000,0.000000,0.000000,0.000000,0.000000,1.598589,0.373501,0.078589,-0.832052,0.233616,0.905940,0.743846
0.015000,-0.500000,-0.500000,0.800000,0.999924,0.004776,-0.011320,0.001026,-0.500000,-0.500000,0.800000,0.999924,0.004776,-0.011320,0.001026,200.000000,100.000000,0.000000,0.000034,0.000000,0.000000,0.000000,0.000000,0.000000,0.000000,1.598589,0.373501,0.078589,-0.832052,0.233616,0.905940,0.743846
0.016000,-0.500000,-0.500000,0.800000,0.999924,0.004776,-0.011320,0.001026,-0.500000,-0.500000,0.800000,0.999924,0.004776,-0.011320,0.001026,200.000000,100.000000,0.000000,0.000034,0.000000,0.000000,0.000000,0.000000,0.000000,0.000000,1.598589,0.373501,0.078589,-0.832052,0.233616,0.905940,0.743846
0.017000,-0.500000,-0.500000,0.800000,0.999924,0.004776,-0.011320,0.001026,-0.500000,-0.500000,0.800000,0.999924,0.004776,-0.011320,0.001026,200.000000,100.000000,0.000000,0.000034,0.000000,0.000000,0.000000,0.000000,0.000000,0.000000,1.598589,0.373501,0.078589,-0.832052,0.233616,0.905940,0.743846
0.018000,-0.500000,-0.500000,0.800000,0.999924,0.004776,-0.011320,0.001026,-0.500000,-0.500000,0.800000,0.999924,0.004776,-0.011320,0.001026,200.000000,100.000000,0.000000,0.000034,0.000000,0.000000,0.000000,0.000000,0.000000,0.000000,1.598589,0.373501,0.078589,-0.832052,0.233616,0.905940,0.743846
0.019000,-0.500000,-0.500000,0.800000,0.999924,0.004776,-0.011320,0.001026,-0.500000,-0.500000,0.800000,0.999924,0.004776,-0.011320,0.001026,200.000000,100.000000,0.000000,0.000034,0.000000,0.000000,0.000000,0.000000,0.000000,0.000000,1.598589,0.373501,0.078589,-0.832052,0.233616,0.905940,0.743846
0.020000,-0.500000,-0.500000,0.800000,0.999924,0.004776,-0.011320,0.001026,-0.500000,-0.500000,0.800000,0.999924,0.004776,-0.011320,0.001026,200.000000,100.000000,0.000000,0.000034,0.000000,0.000000,0.000000,0.000000,0.000000,0.000000,1.598589,0.373501,0.078589,-0.832052,0.233616,0.905940,0.743846
0.021000,-0.500000,-0.500000,0.800000,0.999924,0.004776,-0.011320,0.001026,-0.500000,-0.500000,0.800000,0.999924,0.004776,-0.011320,0.001026,200.000000,100.000000,0.000000,0.000034,0.000000,0.000000,0.000000,0.000000,0.000000,0.000000,1.598589,0.373501,0.078589,-0.832052,0.233616,0.905940,0.743846
0.022000,-0.500000,-0.500000,0.800000,0.999924,0.004776,-0.011320,0.001026,-0.500000,-0.500000,0.800000,0.999924,0.004776,-0.011320,0.001026,200.000000,100.000000,0.000000,0.000034,0.000000,0.000000,0.000000,0.000000,0.000000,0.000000,1.598589,0.373501,0.078589,-0.832052,0.233616,0.905940,0.743846
0.023000,-0.500000,-0.500000,0.800000,0.999924,0.004776,-0.011320,0.001026,-0.500000,-0.500000,0.800000,0.999924,0.004776,-0.011320,0.001026,200.000000,100.000000,0.000000,0.000034,0.000000,0.000000,0.000000,0.000000,0.000000,0.000000,1.598589,0.373501,0.078589,-0.832052,0.233616,0.905940,0.743846
0.024000,-0.500000,-0.500000,0.800000,0.999924,0.004776,-0.011320,0.001026,-0.500000,-0.500000,0.800000,0.999924,0.004776,-0.011320,0.001026,200.000000,100.000000,0.000000,0.000034,0.000000,0.000000,0.000000,0.000000,0.000000,0.000000,1.598589,0.373501,0.078589,-0.832052,0.233616,0.905940,0.743846
0.025000,-0.500000,-0.500000,0.800000,0.999924,0.004776,-0.011320,0.001026,-0.500000,-0.500000,0.800000,0.999924,0.004776,-0.011320,0.001026,200.000000,100.000000,0.000000,0.000035,0.000000,0.000000,0.000000,0.000000,0.000000,0.000000,1.598589,0.373501,0.078589,-0.832052,0.233616,0.905940,0.743846
0.026000,-0.500000,-0.500000,0.800000,0.999924,0.004776,-0.011320,0.001026,-0.500000,-0.500000,0.800000,0.999924,0.004776,-0.011320,0.001026,200.000000,100.000000,0.000000,0.000035,0.000000,0.000000,0.000000,0.000000,0.000000,0.000000,1.598589,0.373501,0.078589,-0.832052,0.233616,0.905940,0.743846
0.027000,-0.500000,-0.500000,0.800000,0.999924,0.004776,-0.011320,0.001026,-0.500000,-0.500000,0.800000,0.999924,0.004776,-0.011320,0.001026,200.000000,100.000000,0.000000,0.000034,0.000000,0.000000,0.000000,0.000000,0.000000,0.000000,1.598589,0.373501,0.078589,-0.832052,0.233616,0.905940,0.743846
0.028000,-0.500000,-0.500000,0.800000,0.999924,0.004776,-0.011320,0.001026,-0.500000,-0.500000,0.800000,0.999924,0.004776,-0.011320,0.001026,200.000000,100.000000,0.000000,0.000034,0.000000,0.000000,0.000000,0.000000,0.000000,0.000000,1.598589,0.373501,0.078589,-0.832052,0.233616,0.905940,0.743846
0.029000,-0.500000,-0.500000,0.800000,0.999924,0.004776,-0.011320,0.001026,-0.500000,-0.500000,0.800000,0.999924,0.004776,-0.011320,0.001026,200.000000,100.000000,0.000000,0.000034,0.000000,0.000000,0.000000,0.000000,0.000000,0.000000,1.598589,0.373501,0.078589,-0.832052,0.233616,0.905940,0.743846
0.030000,-0.500000,-0.500000,0.800000,0.999924,0.004776,-0.011320,0.001026,-0.500000,-0.500000,0.800000,0.999924,0.004776,-0.011320,0.001026,200.000000,100.000000,0.000000,0.000034,0.000000,0.000000,0.000000,0.000000,0.000000,0.000000,1.598589,0.373501,0.078589,-0.832052,0.233616,0.905940,0.743846
0.031000,-0.500000,-0.500000,0.800000,0.999924,0.004776,-0.011320,0.001026,-0.500000,-0.500000,0.800000,0.999924,0.004776,-0.011320,0.001026,200.000000,100.000000,0.000000,0.000034,0.000000,0.000000,0.000000,0.000000,0.000000,0.000000,1.598589,0.373501,0.078589,-0.832052,0.233616,0.905940,0.743846
0.032000,-0.500000,-0.500000,0.800000,0.999924,0.004776,-0.011320,0.001026,-0.500000,-0.500000,0.800000,0.999924,0.004776,-0.011320,0.001026,200.000000,100.000000,0.000000,0.000034,0.000000,0.000000,0.000000,0.000000,0.000000,0.000000,1.598589,0.373501,0.078589,-0.832052,0.233616,0.905940,0.743846
0.033000,-0.500000,-0.500000,0.800000,0.999924,0.004776,-0.011320,0.001026,-0.500000,-0.500000,0.800000,0.999924,0.004776,-0.011320,0.001026,200.000000,100.000000,0.000000,0.000034,0.000000,0.000000,0.000000,0.000000,0.000000,0.000000,1.598589,0.373501,0.078589,-0.832052,0.233616,0.905940,0.743846
0.034000,-0.500000,-0.500000,0.800000,0.999924,0.004776,-0.011320,0.001026,-0.500000,-0.500000,0.800000,0.999924,0.004776,-0.011320,0.001026,200.000000,100.000000,0.000000,0.000034,0.000000,0.000000,0.000000,0.000000,0.000000,0.000000,1.598589,0.373501,0.078589,-0.832052,0.233616,0.905940,0.743846
0.035000,-0.500000,-0.500000,0.800000,0.999924,0.004776,-0.011320,0.001026,-0.500000,-0.500000,0.800000,0.999924,0.004776,-0.011320,0.001026,200.000000,100.000000,0.000000,0.000034,0.000000,0.000000,0.000000,0.000000,0.000000,0.000000,1.598589,0.373501,0.078589,-0.832052,0.233616,0.905940,0.743846
0.036000,-0.500000,-0.500000,0.800000,0.999924,0.004776,-0.011320,0.001026,-0.500000,-0.500000,0.800000,0.999924,0.004776,-0.011320,0.001026,200.000000,100.000000,0.000000,0.000034,0.000000,0.000000,0.000000,0.000000,0.000000,0.000000,1.598589,0.373501,0.078589,-0.832052,0.233616,0.905940,0.743846
0.037000,-0.500000,-0.500000,0.800000,0.999924,0.004776,-0.011320,0.001026,-0.500000,-0.500000,0.800000,0.999924,0.004776,-0.011320,0.001026,200.000000,100.000000,0.000000,0.000034,0.000000,0.000000,0.000000,0.000000,0.000000,0.000000,1.598589,0.373501,0.078589,-0.832052,0.233616,0.905940,0.743846
0.038000,-0.500000,-0.500000,0.800000,0.999924,0.004776,-0.011320,0.001026,-0.500000,-0.500000,0.800000,0.999924,0.004776,-0.011320,0.001026,200.000000,100.000000,0.000000,0.000034,0.000000,0.000000,0.000000,0.000000,0.000000,0.000000,1.598589,0.373501,0.078589,-0.832052,0.233616,0.905940,0.743846
0.039000,-0.500000,-0.500000,0.800000,0.999924,0.004776,-0.011320,0.001026,-0.500000,-0.500000,0.800000,0.999924,0.004776,-0.011320,0.001026,200.000000,100.000000,0.000000,0.000034,0.000000,0.000000,0.000000,0.000000,0.000000,0.000000,1.598589,0.373501,0.078589,-0.832052,0.233616,0.905940,0.743846
0.040000,-0.500000,-0.500000,0.800000,0.999924,0.004776,-0.011320,0.001026,-0.500000,-0.500000,0.800000,0.999924,0.004776,-0.011320,0.001026,200.000000,100.000000,0.000000,0.000034,0.000000,0.000000,0.000000,0.000000,0.000000,0.000000,1.598589,0.373501,0.078589,-0.832052,0.233616,0.905940,0.743846
0.041000,-0.500000,-0.500000,0.800000,0.999924,0.004776,-0.011320,0.001026,-0.500000,-0.500000,0.800000,0.999924,0.004776,-0.011320,0.001026,200.000000,100.000000,0.000000,0.000034,0.000000,0.000000,0.000000,0.000000,0.000000,0.000000,1.598589,0.373501,0.078589,-0.832052,0.233616,0.905940,0.743846
0.042000,-0.500000,-0.500000,0.800000,0.999924,0.004776,-0.011320,0.001026,-0.500000,-0.500000,0.800000,0.999924,0.004776,-0.011320,0.001026,200.000000,100.000000,0.000000,0.000034,0.000000,0.000000,0.000000,0.000000,0.000000,0.000000,1.598589,0.373501,0.078589,-0.832052,0.233616,0.905940,0.743846
0.043000,-0.500000,-0.500000,0.800000,0.999924,0.004776,-0.011320,0.001026,-0.500000,-0.500000,0.800000,0.999924,0.004776,-0.011320,0.001026,200.000000,100.000000,0.000000,0.000035,0.000000,0.000000,0.000000,0.000000,0.000000,0.000000,1.598589,0.373501,0.078589,-0.832052,0.233616,0.905940,0.743846
0.044000,-0.500000,-0.500000,0.800000,0.999924,0.004776,-0.011320,0.001026,-0.500000,-0.500000,0.800000,0.999924,0.004776,-0.011320,0.001026,200.000000,100.000000,0.000000,0.000034,0.000000,0.000000,0.000000,0.000000,0.000000,0.000000,1.598589,0.373501,0.078589,-0.832052,0.233616,0.905940,0.743846
0.045000,-0.500000,-0.500000,0.800000,0.999924,0.004776,-0.011320,0.001026,-0.500000,-0.500000,0.800000,0.999924,0.004776,-0.011320,0.001026,200.000000,100.000000,0.000000,0.000034,0.000000,0.000000,0.000000,0.000000,0.000000,0.000000,1.598589,0.373501,0.078589,-0.832052,0.233616,0.905940,0.743846
0.045000,-0.500000,-0.500000,0.800000,0.999924,0.004776,-0.011320,0.001026,-0.500000,-0.500000,0.800000,0.999924,0.004776,-0.011320,0.001026,200.000000,100.000000,0.000000,0.000034,0.000000,0.000000,0.000000,0.000000,0.000000,0.000000,1.598589,0.373501,0.078589,-0.832052,0.233616,0.905940,0.743846
0.047000,-0.500000,-0.500000,0.800000,0.999924,0.004776,-0.011320,0.001026,-0.500000,-0.500000,0.800000,0.999924,0.004776,-0.011320,0.001026,200.000000,100.000000,0.000000,0.000034,0.000000,0.000000,0.000000,0.000000,0.000000,0.000000,1.598589,0.373501,0.078589,-0.832052,0.233616,0.905940,0.743846
0.048000,-0.500000,-0.500000,0.800000,0.999924,0.004776,-0.011320,0.001026,-0.500000,-0.500000,0.800000,0.999924,0.004776,-0.011320,0.001026,200.000000,100.000000,0.000000,0.000034,0.000000,0.000000,0.000000,0.000000,0.000000,0.000000,1.598589,0.373501,0.078589,-0.832052,0.233616,0.905940,0.743846
0.049000,-0.500000,-0.500000,0.800000,0.999924,0.004776,-0.011320,0.001026,-0.500000,-0.500000,0.800000,0.999924,0.004776,-0.011320,0.001026,200.000000,100.000000,0.000000,0.000034,0.000000,0.000000,0.000000,0.000000,0.000000,0.000000,1.598589,0.373501,0.078589,-0.832052,0.233616,0.905940,0.743846
0.050000,-0.500000,-0.500000,0.800000,0.999924,0.004776,-0.011320,0.001026,-0.500000,-0.500000,0.800000,0.999924,0.004776,-0.011320,0.001026,200.000000,100.000000,0.000000,0.000034,0.000000,0.000000,0.000000,0.000000,0.000000,0.000000,1.598589,0.373501,0.078589,-0.832052,0.233616,0.905940,0.743846
0.051000,-0.500000,-0.500000,0.800000,0.999924,0.004776,-0.011320,0.001026,-0.500000,-0.500000,0.800000,0.999924,0.004776,-0.011320,0.001026,200.000000,100.000000,0.000000,0.000034,0.000000,0.000000,0.000000,0.000000,0.000000,0.000000,1.598589,0.373501,0.078589,-0.832052,0.233616,0.905940,0.743846
0.052000,-0.500000,-0.500000,0.800000,0.999924,0.004776,-0.011320,0.001026,-0.500000,-0.500000,0.800000,0.999924,0.004776,-0.011320,0.001026,200.000000,100.000000,0.000000,0.000034,0.000000,0.000000,0.000000,0.000000,0.000000,0.000000,1.598589,0.373501,0.078589,-0.832052,0.233616,0.905940,0.743846
0.053000,-0.500000,-0.500000,0.800000,0.999924,0.004776,-0.011320,0.001026,-0.500000,-0.500000,0.800000,0.999924,0.004776,-0.011320,0.001026,200.000000,100.000000,0.000000,0.000034,0.000000,0.000000,0.000000,0.000000,0.000000,0.000000,1.598589,0.373501,0.078589,-0.832052,0.233616,0.905940,0.743846
0.054000,-0.500000,-0.500000,0.800000,0.999924,0.004776,-0.011320,0.001026,-0.500000,-0.500000,0.800000,0.999924,0.004776,-0.011320,0.001026,200.000000,100.000000,0.000000,0.000034,0.000000,0.000000,0.000000,0.000000,0.000000,0.000000,1.598589,0.373501,0.078589,-0.832052,0.233616,0.905940,0.743846
0.055000,-0.500000,-0.500000,0.800000,0.999924,0.004776,-0.011320,0.001026,-0.500000,-0.500000,0.800000,0.999924,0.004776,-0.011320,0.001026,200.000000,100.000000,0.000000,0.000034,0.000000,0.000000,0.000000,0.000000,0.000000,0.000000,1.598589,0.373501,0.078589,-0.832052,0.233616,0.905940,0.743846
0.056000,-0.500000,-0.500000,0.800000,0.999924,0.004776,-0.011320,0.001026,-0.500000,-0.500000,0.800000,0.999924,0.004776,-0.011320,0.001026,200.000000,100.000000,0.000000,0.000034,0.000000,0.000000,0.000000,0.000000,0.000000,0.000000,1.598589,0.373501,0.078589,-0.832052,0.233616,0.905940,0.743846
0.057000,-0.500000,-0.500000,0.800000,0.999924,0.004776,-0.011320,0.001026,-0.500000,-0.500000,0.800000,0.999924,0.004776,-0.011320,0.001026,200.000000,100.000000,0.000000,0.000035,0.000000,0.000000,0.000000,0.000000,0.000000,0.000000,1.598589,0.373501,0.078589,-0.832052,0.233616,0.905940,0.743846
0.058000,-0.500000,-0.500000,0.800000,0.999924,0.004776,-0.011320,0.001026,-0.500000,-0.500000,0.800000,0.999924,0.004776,-0.011320,0.001026,200.000000,100.000000,0.000000,0.000034,0.000000,0.000000,0.000000,0.000000,0.000000,0.000000,1.598589,0.373501,0.078589,-0.832052,0.233616,0.905940,0.743846
0.059000,-0.500000,-0.500000,0.800000,0.999924,0.004776,-0.011320,0.001026,-0.500000,-0.500000,0.800000,0.999924,0.004776,-0.011320,0.001026,200.000000,100.000000,0.000000,0.000033,0.000000,0.000000,0.000000,0.000000,0.000000,0.000000,1.598589,0.373501,0.078589,-0.832052,0.233616,0.905940,0.743846
0.060000,-0.500000,-0.500000,0.800000,0.999924,0.004776,-0.011320,0.001026,-0.500000,-0.500000,0.800000,0.999924,0.004776,-0.011320,0.001026,200.000000,100.000000,0.000000,0.000033,0.000000,0.000000,0.000000,0.000000,0.000000,0.000000,1.598589,0.373501,0.078589,-0.832052,0.233616,0.905940,0.743846
0.061000,-0.500000,-0.500000,0.800000,0.999924,0.004776,-0.011320,0.001026,-0.500000,-0.500000,0.800000,0.999924,0.004776,-0.011320,0.001026,200.000000,100.000000,0.000000,0.000034,0.000000,0.000000,0.000000,0.000000,0.000000,0.000000,1.598589,0.373501,0.078589,-0.832052,0.233616,0.905940,0.743846
0.062000,-0.500000,-0.500000,0.800000,0.999924,0.004776,-0.011320,0.001026,-0.500000,-0.500000,0.800000,0.999924,0.004776,-0.011320,0.001026,200.000000,100.000000,0.000000,0.000034,0.000000,0.000000,0.000000,0.000000,0.000000,0.000000,1.598589,0.373501,0.078589,-0.832052,0.233616,0.905940,0.743846
0.063000,-0.500000,-0.500000,0.800000,0.999924,0.004776,-0.011320,0.001026,-0.500000,-0.500000,0.800000,0.999924,0.004776,-0.011320,0.001026,200.000000,100.000000,0.000000,0.000035,0.000000,0.000000,0.000000,0.000000,0.000000,0.000000,1.598589,0.373501,0.078589,-0.832052,0.233616,0.905940,0.743846
0.064000,-0.500000,-0.500000,0.800000,0.999924,0.004776,-0.011320,0.001026,-0.500000,-0.500000,0.800000,0.999924,0.004776,-0.011320,0.001026,200.000000,100.000000,0.000000,0.000035,0.000000,0.000000,0.000000,0.000000,0.000000,0.000000,1.598589,0.373501,0.078589,-0.832052,0.233616,0.905940,0.743846
0.065000,-0.500000,-0.500000,0.800000,0.999924,0.004776,-0.011320,0.001026,-0.500000,-0.500000,0.800000,0.999924,0.004776,-0.011320,0.001026,200.000000,100.000000,0.000000,0.000035,0.000000,0.000000,0.000000,0.000000,0.000000,0.000000,1.598589,0.373501,0.078589,-0.832052,0.233616,0.905940,0.743846
0.066000,-0.500000,-0.500000,0.800000,0.999924,0.004776,-0.011320,0.001026,-0.500000,-0.500000,0.800000,0.999924,0.004776,-0.011320,0.001026,200.000000,100.000000,0.000000,0.000034,0.000000,0.000000,0.000000,0.000000,0.000000,0.000000,1.598589,0.373501,0.078589,-0.832052,0.233616,0.905940,0.743846
0.067000,-0.500000,-0.500000,0.800000,0.999924,0.004776,-0.011320,0.001026,-0.500000,-0.500000,0.800000,0.999924,0.004776,-0.011320,0.001026,200.000000,100.000000,0.000000,0.000033,0.000000,0.000000,0.000000,0.000000,0.000000,0.000000,1.598589,0.373501,0.078589,-0.832052,0.233616,0.905940,0.743846
0.068000,-0.500000,-0.500000,0.800000,0.999924,0.004776,-0.011320,0.001026,-0.500000,-0.500000,0.800000,0.999924,0.004776,-0.011320,0.001026,200.000000,100.000000,0.000000,0.000033,0.000000,0.000000,0.000000,0.000000,0.000000,0.000000,1.598589,0.373501,0.078589,-0.832052,0.233616,0.905940,0.743846
0.069000,-0.500000,-0.500000,0.800000,0.999924,0.004776,-0.011320,0.001026,-0.500000,-0.500000,0.800000,0.999924,0.004776,-0.011320,0.001026,200.000000,100.000000,0.000000,0.000034,0.000000,0.000000,0.000000,0.000000,0.000000,0.000000,1.598589,0.373501,0.078589,-0.832052,0.233616,0.905940,0.743846
0.070000,-0.500000,-0.500000,0.800000,0.999924,0.004776,-0.011320,0.001026,-0.500000,-0.500000,0.800000,0.999924,0.004776,-0.011320,0.001026,200.000000,100.000000,0.000000,0.000034,0.000000,0.000000,0.000000,0.000000,0.000000,0.000000,1.598589,0.373501,0.078589,-0.832052,0.233616,0.905940,0.743846
0.071000,-0.500000,-0.500000,0.800000,0.999924,0.004776,-0.011320,0.001026,-0.500000,-0.500000,0.800000,0.999924,0.004776,-0.011320,0.001026,200.000000,100.000000,0.000000,0.000035,0.000000,0.000000,0.000000,0.000000,0.000000,0.000000,1.598589,0.373501,0.078589,-0.832052,0.233616,0.905940,0.743846
0.072000,-0.500000,-0.500000,0.800000,0.999924,0.004776,-0.011320,0.001026,-0.500000,-0.500000,0.800000,0.999924,0.004776,-0.011320,0.001026,200.000000,100.000000,0.000000,0.000035,0.000000,0.000000,0.000000,0.000000,0.000000,0.000000,1.598589,0.373501,0.078589,-0.832052,0.233616,0.905940,0.743846
0.072000,-0.500000,-0.500000,0.800000,0.999924,0.004776,-0.011320,0.001026,-0.500000,-0.500000,0.800000,0.999924,0.004776,-0.011320,0.001026,200.000000,100.000000,0.000000,0.000034,0.000000,0.000000,0.000000,0.000000,0.000000,0.000000,1.598589,0.373501,0.078589,-0.832052,0.233616,0.905940,0.743846
0.074000,-0.500000,-0.500000,0.800000,0.999924,0.004776,-0.011320,0.001026,-0.500000,-0.500000,0.800000,0.999924,0.004776,-0.011320,0.001026,200.000000,100.000000,0.000000,0.000034,0.000000,0.000000,0.000000,0.000000,0.000000,0.000000,1.598589,0.373501,0.078589,-0.832052,0.233616,0.905940,0.743846
0.075000,-0.500000,-0.500000,0.800000,0.999924,0.004776,-0.011320,0.001026,-0.500000,-0.500000,0.800000,0.999924,0.004776,-0.011320,0.001026,200.000000,100.000000,0.000000,0.000034,0.000000,0.000000,0.000000,0.000000,0.000000,0.000000,1.598589,0.373501,0.078589,-0.832052,0.233616,0.905940,0.743846
0.076000,-0.500000,-0.500000,0.800000,0.999924,0.004776,-0.011320,0.001026,-0.500000,-0.500000,0.800000,0.999924,0.004776,-0.011320,0.001026,200.000000,100.000000,0.000000,0.000034,0.000000,0.000000,0.000000,0.000000,0.000000,0.000000,1.598589,0.373501,0.078589,-0.832052,0.233616,0.905940,0.743846
0.077000,-0.500000,-0.500000,0.800000,0.999924,0.004776,-0.011320,0.001026,-0.500000,-0.500000,0.800000,0.999924,0.004776,-0.011320,0.001026,200.000000,100.000000,0.000000,0.000035,0.000000,0.000000,0.000000,0.000000,0.000000,0.000000,1.598589,0.373501,0.078589,-0.832052,0.233616,0.905940,0.743846
0.078000,-0.500000,-0.500000,0.800000,0.999924,0.004776,-0.011320,0.001026,-0.500000,-0.500000,0.800000,0.999924,0.004776,-0.011320,0.001026,200.000000,100.000000,0.000000,0.000034,0.000000,0.000000,0.000000,0.000000,0.000000,0.000000,1.598589,0.373501,0.078589,-0.832052,0.233616,0.905940,0.743846
0.079000,-0.500000,-0.500000,0.800000,0.999924,0.004776,-0.011320,0.001026,-0.500000,-0.500000,0.800000,0.999924,0.004776,-0.011320,0.001026,200.000000,100.000000,0.000000,0.000034,0.000000,0.000000,0.000000,0.000000,0.000000,0.000000,1.598589,0.373501,0.078589,-0.832052,0.233616,0.905940,0.743846
0.080000,-0.500000,-0.500000,0.800000,0.999924,0.004776,-0.011320,0.001026,-0.500000,-0.500000,0.800000,0.999924,0.004776,-0.011320,0.001026,200.000000,100.000000,0.000000,0.000034,0.000000,0.000000,0.000000,0.000000,0.000000,0.000000,1.598589,0.373501,0.078589,-0.832052,0.233616,0.905940,0.743846
0.081000,-0.500000,-0.500000,0.800000,0.999924,0.004776,-0.011320,0.001026,-0.500000,-0.500000,0.800000,0.999924,0.004776,-0.011320,0.001026,200.000000,100.000000,0.000000,0.000034,0.000000,0.000000,0.000000,0.000000,0.000000,0.000000,1.598589,0.373501,0.078589,-0.832052,0.233616,0.905940,0.743846
0.082000,-0.500000,-0.500000,0.800000,0.999924,0.004776,-0.011320,0.001026,-0.500000,-0.500000,0.800000,0.999924,0.004776,-0.011320,0.001026,200.000000,100.000000,0.000000,0.000034,0.000000,0.000000,0.000000,0.000000,0.000000,0.000000,1.598589,0.373501,0.078589,-0.832052,0.233616,0.905940,0.743846
0.083000,-0.500000,-0.500000,0.800000,0.999924,0.004776,-0.011320,0.001026,-0.500000,-0.500000,0.800000,0.999924,0.004776,-0.011320,0.001026,200.000000,100.000000,0.000000,0.000035,0.000000,0.000000,0.000000,0.000000,0.000000,0.000000,1.598589,0.373501,0.078589,-0.832052,0.233616,0.905940,0.743846
0.084000,-0.500000,-0.500000,0.800000,0.999924,0.004776,-0.011320,0.001026,-0.500000,-0.500000,0.800000,0.999924,0.004776,-0.011320,0.001026,200.000000,100.000000,0.000000,0.000035,0.000000,0.000000,0.000000,0.000000,0.000000,0.000000,1.598589,0.373501,0.078589,-0.832052,0.233616,0.905940,0.743846
0.085000,-0.500000,-0.500000,0.800000,0.999924,0.004776,-0.011320,0.001026,-0.500000,-0.500000,0.800000,0.999924,0.004776,-0.011320,0.001026,200.000000,100.000000,0.000000,0.000034,0.000000,0.000000,0.000000,0.000000,0.000000,0.000000,1.598589,0.373501,0.078589,-0.832052,0.233616,0.905940,0.743846
0.086000,-0.500000,-0.500000,0.800000,0.999924,0.004776,-0.011320,0.001026,-0.500000,-0.500000,0.800000,0.999924,0.004776,-0.011320,0.001026,200.000000,100.000000,0.000000,0.000034,0.000000,0.000000,0.000000,0.000000,0.000000,0.000000,1.598589,0.373501,0.078589,-0.832052,0.233616,0.905940,0.743846
0.087000,-0.500000,-0.500000,0.800000,0.999924,0.004776,-0.011320,0.001026,-0.500000,-0.500000,0.800000,0.999924,0.004776,-0.011320,0.001026,200.000000,100.000000,0.000000,0.000034,0.000000,0.000000,0.000000,0.000000,0.000000,0.000000,1.598589,0.373501,0.078589,-0.832052,0.233616,0.905940,0.743846
0.088000,-0.500000,-0.500000,0.800000,0.999924,0.004776,-0.011320,0.001026,-0.500000,-0.500000,0.800000,0.999924,0.004776,-0.011320,0.001026,200.000000,100.000000,0.000000,0.000034,0.000000,0.000000,0.000000,0.000000,0.000000,0.000000,1.598589,0.373501,0.078589,-0.832052,0.233616,0.905940,0.743846
0.089000,-0.500000,-0.500000,0.800000,0.999924,0.004776,-0.011320,0.001026,-0.500000,-0.500000,0.800000,0.999924,0.004776,-0.011320,0.001026,200.000000,100.000000,0.000000,0.000034,0.000000,0.000000,0.000000,0.000000,0.000000,0.000000,1.598589,0.373501,0.078589,-0.832052,0.233616,0.905940,0.743846
0.090000,-0.500000,-0.500000,0.800000,0.999924,0.004776,-0.011320,0.001026,-0.500000,-0.500000,0.800000,0.999924,0.004776,-0.011320,0.001026,200.000000,100.000000,0.000000,0.000034,0.000000,0.000000,0.000000,0.000000,0.000000,0.000000,1.598589,0.373501,0.078589,-0.832052,0.233616,0.905940,0.743846
0.091000,-0.500000,-0.500000,0.800000,0.999924,0.004776,-0.011320,0.001026,-0.500000,-0.500000,0.800000,0.999924,0.004776,-0.011320,0.001026,200.000000,100.000000,0.000000,0.000034,0.000000,0.000000,0.000000,0.000000,0.000000,0.000000,1.598589,0.373501,0.078589,-0.832052,0.233616,0.905940,0.743846
0.092000,-0.500000,-0.500000,0.800000,0.999924,0.004776,-0.011320,0.001026,-0.500000,-0.500000,0.800000,0.999924,0.004776,-0.011320,0.001026,200.000000,100.000000,0.000000,0.000034,0.000000,0.000000,0.000000,0.000000,0.000000,0.000000,1.598589,0.373501,0.078589,-0.832052,0.233616,0.905940,0.743846
0.093000,-0.500000,-0.500000,0.800000,0.999924,0.004776,-0.011320,0.001026,-0.500000,-0.500000,0.800000,0.999924,0.004776,-0.011320,0.001026,200.000000,100.000000,0.000000,0.000034,0.000000,0.000000,0.000000,0.000000,0.000000,0.000000,1.598589,0.373501,0.078589,-0.832052,0.233616,0.905940,0.743846
0.094000,-0.500000,-0.500000,0.800000,0.999924,0.004776,-0.011320,0.001026,-0.500000,-0.500000,0.800000,0.999924,0.004776,-0.011320,0.001026,200.000000,100.000000,0.000000,0.000034,0.000000,0.000000,0.000000,0.000000,0.000000,0.000000,1.598589,0.373501,0.078589,-0.832052,0.233616,0.905940,0.743846
0.095000,-0.500000,-0.500000,0.800000,0.999924,0.004776,-0.011320,0.001026,-0.500000,-0.500000,0.800000,0.999924,0.004776,-0.011320,0.001026,200.000000,100.000000,0.000000,0.000034,0.000000,0.000000,0.000000,0.000000,0.000000,0.000000,1.598589,0.373501,0.078589,-0.832052,0.233616,0.905940,0.743846
0.096000,-0.500000,-0.500000,0.800000,0.999924,0.004776,-0.011320,0.001026,-0.500000,-0.500000,0.800000,0.999924,0.004776,-0.011320,0.001026,200.000000,100.000000,0.000000,0.000034,0.000000,0.000000,0.000000,0.000000,0.000000,0.000000,1.598589,0.373501,0.078589,-0.832052,0.233616,0.905940,0.743846
0.097000,-0.500000,-0.500000,0.800000,0.999924,0.004776,-0.011320,0.001026,-0.500000,-0.500000,0.800000,0.999924,0.004776,-0.011320,0.001026,200.000000,100.000000,0.000000,0.000035,0.000000,0.000000,0.000000,0.000000,0.000000,0.000000,1.598589,0.373501,0.078589,-0.832052,0.233616,0.905940,0.743846
0.098000,-0.500000,-0.500000,0.800000,0.999924,0.004776,-0.011320,0.001026,-0.500000,-0.500000,0.800000,0.999924,0.004776,-0.011320,0.001026,200.000000,100.000000,0.000000,0.000034,0.000000,0.000000,0.000000,0.000000,0.000000,0.000000,1.598589,0.373501,0.078589,-0.832052,0.233616,0.905940,0.743846
0.099000,-0.500000,-0.500000,0.800000,0.999924,0.004776,-0.011320,0.001026,-0.500000,-0.500000,0.800000,0.999924,0.004776,-0.011320,0.001026,200.000000,100.000000,0.000000,0.000034,0.000000,0.000000,0.000000,0.000000,0.000000,0.000000,1.598589,0.373501,0.078589,-0.832052,0.233616,0.905940,0.743846
0.100000,-0.500000,-0.500000,0.800000,0.999924,0.004776,-0.011320,0.001026,-0.500000,-0.500000,0.800000,0.999924,0.004776,-0.011320,0.001026,200.000000,100.000000,0.000000,0.000034,0.000000,0.000000,0.000000,0.000000,0.000000,0.000000,1.598589,0.373501,0.078589,-0.832052,0.233616,0.905940,0.743846
0.101000,-0.500000,-0.500000,0.800000,0.999924,0.004776,-0.011320,0.001026,-0.500000,-0.500000,0.800000,0.999924,0.004776,-0.011320,0.001026,200.000000,100.000000,0.000000,0.000034,0.000000,0.000000,0.000000,0.000000,0.000000,0.000000,1.598589,0.373501,0.078589,-0.832052,0.233616,0.905940,0.743846
0.102000,-0.500000,-0.500000,0.800000,0.999924,0.004776,-0.011320,0.001026,-0.500000,-0.500000,0.800000,0.999924,0.004776,-0.011320,0.001026,200.000000,100.000000,0.000000,0.000034,0.000000,0.000000,0.000000,0.000000,0.000000,0.000000,1.598589,0.373501,0.078589,-0.832052,0.233616,0.905940,0.743846
0.103000,-0.500000,-0.500000,0.800000,0.999924,0.004776,-0.011320,0.001026,-0.500000,-0.500000,0.800000,0.999924,0.004776,-0.011320,0.001026,200.000000,100.000000,0.000000,0.000034,0.000000,0.000000,0.000000,0.000000,0.000000,0.000000,1.598589,0.373501,0.078589,-0.832052,0.233616,0.905940,0.743846
0.104000,-0.500000,-0.500000,0.800000,0.999924,0.004776,-0.011320,0.001026,-0.500000,-0.500000,0.800000,0.999924,0.004776,-0.011320,0.001026,200.000000,100.000000,0.000000,0.000035,0.000000,0.000000,0.000000,0.000000,0.000000,0.000000,1.598589,0.373501,0.078589,-0.832052,0.233616,0.905940,0.743846
0.105000,-0.500000,-0.500000,0.800000,0.999924,0.004776,-0.011320,0.001026,-0.500000,-0.500000,0.800000,0.999924,0.004776,-0.011320,0.001026,200.000000,100.000000,0.000000,0.000034,0.000000,0.000000,0.000000,0.000000,0.000000,0.000000,1.598589,0.373501,0.078589,-0.832052,0.233616,0.905940,0.743846
0.106000,-0.500000,-0.500000,0.800000,0.999924,0.004776,-0.011320,0.001026,-0.500000,-0.500000,0.800000,0.999924,0.004776,-0.011320,0.001026,200.000000,100.000000,0.000000,0.000034,0.000000,0.000000,0.000000,0.000000,0.000000,0.000000,1.598589,0.373501,0.078589,-0.832052,0.233616,0.905940,0.743846
0.107000,-0.500000,-0.500000,0.800000,0.999924,0.004776,-0.011320,0.001026,-0.500000,-0.500000,0.800000,0.999924,0.004776,-0.011320,0.001026,200.000000,100.000000,0.000000,0.000034,0.000000,0.000000,0.000000,0.000000,0.000000,0.000000,1.598589,0.373501,0.078589,-0.832052,0.233616,0.905940,0.743846
0.108000,-0.500000,-0.500000,0.800000,0.999924,0.004776,-0.011320,0.001026,-0.500000,-0.500000,0.800000,0.999924,0.004776,-0.011320,0.001026,200.000000,100.000000,0.000000,0.000034,0.000000,0.000000,0.000000,0.000000,0.000000,0.000000,1.598589,0.373501,0.078589,-0.832052,0.233616,0.905940,0.743846
0.109000,-0.500000,-0.500000,0.800000,0.999924,0.004776,-0.011320,0.001026,-0.500000,-0.500000,0.800000,0.999924,0.004776,-0.011320,0.001026,200.000000,100.000000,0.000000,0.000034,0.000000,0.000000,0.000000,0.000000,0.000000,0.000000,1.598589,0.373501,0.078589,-0.832052,0.233616,0.905940,0.743846
0.110000,-0.500000,-0.500000,0.800000,0.999924,0.004776,-0.011320,0.001026,-0.500000,-0.500000,0.800000,0.999924,0.004776,-0.011320,0.001026,200.000000,100.000000,0.000000,0.000035,0.000000,0.000000,0.000000,0.000000,0.000000,0.000000,1.598589,0.373501,0.078589,-0.832052,0.233616,0.905940,0.743846
0.111000,-0.500000,-0.500000,0.800000,0.999924,0.004776,-0.011320,0.001026,-0.500000,-0.500000,0.800000,0.999924,0.004776,-0.011320,0.001026,200.000000,100.000000,0.000000,0.000034,0.000000,0.000000,0.000000,0.000000,0.000000,0.000000,1.598589,0.373501,0.078589,-0.832052,0.233616,0.905940,0.743846
0.112000,-0.500000,-0.500000,0.800000,0.999924,0.004776,-0.011320,0.001026,-0.500000,-0.500000,0.800000,0.999924,0.004776,-0.011320,0.001026,200.000000,100.000000,0.000000,0.000034,0.000000,0.000000,0.000000,0.000000,0.000000,0.000000,1.598589,0.373501,0.078589,-0.832052,0.233616,0.905940,0.743846
0.113000,-0.500000,-0.500000,0.800000,0.999924,0.004776,-0.011320,0.001026,-0.500000,-0.500000,0.800000,0.999924,0.004776,-0.011320,0.001026,200.000000,100.000000,0.000000,0.000034,0.000000,0.000000,0.000000,0.000000,0.000000,0.000000,1.598589,0.373501,0.078589,-0.832052,0.233616,0.905940,0.743846
0.114000,-0.500000,-0.500000,0.800000,0.999924,0.004776,-0.011320,0.001026,-0.500000,-0.500000,0.800000,0.999924,0.004776,-0.011320,0.001026,200.000000,100.000000,0.000000,0.000035,0.000000,0.000000,0.000000,0.000000,0.000000,0.000000,1.598589,0.373501,0.078589,-0.832052,0.233616,0.905940,0.743846
0.115000,-0.500000,-0.500000,0.800000,0.999924,0.004776,-0.011320,0.001026,-0.500000,-0.500000,0.800000,0.999924,0.004776,-0.011320,0.001026,200.000000,100.000000,0.000000,0.000035,0.000000,0.000000,0.000000,0.000000,0.000000,0.000000,1.598589,0.373501,0.078589,-0.832052,0.233616,0.905940,0.743846
0.116000,-0.500000,-0.500000,0.800000,0.999924,0.004776,-0.011320,0.001026,-0.500000,-0.500000,0.800000,0.999924,0.004776,-0.011320,0.001026,200.000000,100.000000,0.000000,0.000034,0.000000,0.000000,0.000000,0.000000,0.000000,0.000000,1.598589,0.373501,0.078589,-0.832052,0.233616,0.905940,0.743846
0.117000,-0.500000,-0.500000,0.800000,0.999924,0.004776,-0.011320,0.001026,-0.500000,-0.500000,0.800000,0.999924,0.004776,-0.011320,0.001026,200.000000,100.000000,0.000000,0.000033,0.000000,0.000000,0.000000,0.000000,0.000000,0.000000,1.598589,0.373501,0.078589,-0.832052,0.233616,0.905940,0.743846
0.118000,-0.500000,-0.500000,0.800000,0.999924,0.004776,-0.011320,0.001026,-0.500000,-0.500000,0.800000,0.999924,0.004776,-0.011320,0.001026,200.000000,100.000000,0.000000,0.000033,0.000000,0.000000,0.000000,0.000000,0.000000,0.000000,1.598589,0.373501,0.078589,-0.832052,0.233616,0.905940,0.743846
0.119000,-0.500000,-0.500000,0.800000,0.999924,0.004776,-0.011320,0.001026,-0.500000,-0.500000,0.800000,0.999924,0.004776,-0.011320,0.001026,200.000000,100.000000,0.000000,0.000034,0.000000,0.000000,0.000000,0.000000,0.000000,0.000000,1.598589,0.373501,0.078589,-0.832052,0.233616,0.905940,0.743846
0.120000,-0.500000,-0.500000,0.800000,0.999924,0.004776,-0.011320,0.001026,-0.500000,-0.500000,0.800000,0.999924,0.004776,-0.011320,0.001026,200.000000,100.000000,0.000000,0.000034,0.000000,0.000000,0.000000,0.000000,0.000000,0.000000,1.598589,0.373501,0.078589,-0.832052,0.233616,0.905940,0.743846
0.121000,-0.500000,-0.500000,0.800000,0.999924,0.004776,-0.011320,0.001026,-0.500000,-0.500000,0.800000,0.999924,0.004776,-0.011320,0.001026,200.000000,100.000000,0.000000,0.000035,0.000000,0.000000,0.000000,0.000000,0.000000,0.000000,1.598589,0.373501,0.078589,-0.832052,0.233616,0.905940,0.743846
0.122000,-0.500000,-0.500000,0.800000,0.999924,0.004776,-0.011320,0.001026,-0.500000,-0.500000,0.800000,0.999924,0.004776,-0.011320,0.001026,200.000000,100.000000,0.000000,0.000035,0.000000,0.000000,0.000000,0.000000,0.000000,0.000000,1.598589,0.373501,0.078589,-0.832052,0.233616,0.905940,0.743846
0.123000,-0.500000,-0.500000,0.800000,0.999924,0.004776,-0.011320,0.001026,-0.500000,-0.500000,0.800000,0.999924,0.004776,-0.011320,0.001026,200.000000,100.000000,0.000000,0.000034,0.000000,0.000000,0.000000,0.000000,0.000000,0.000000,1.598589,0.373501,0.078589,-0.832052,0.233616,0.905940,0.743846
0.124000,-0.500000,-0.500000,0.800000,0.999924,0.004776,-0.011320,0.001026,-0.500000,-0.500000,0.800000,0.999924,0.004776,-0.011320,0.001026,200.000000,100.000000,0.000000,0.000033,0.000000,0.000000,0.000000,0.000000,0.000000,0.000000,1.598589,0.373501,0.078589,-0.832052,0.233616,0.905940,0.743846
0.125000,-0.500000,-0.500000,0.800000,0.999924,0.004776,-0.011320,0.001026,-0.500000,-0.500000,0.800000,0.999924,0.004776,-0.011320,0.001026,200.000000,100.000000,0.000000,0.000033,0.000000,0.000000,0.000000,0.000000,0.000000,0.000000,1.598589,0.373501,0.078589,-0.832052,0.233616,0.905940,0.743846
0.125000,-0.500000,-0.500000,0.800000,0.999924,0.004776,-0.011320,0.001026,-0.500000,-0.500000,0.800000,0.999924,0.004776,-0.011320,0.001026,200.000000,100.000000,0.000000,0.000034,0.000000,0.000000,0.000000,0.000000,0.000000,0.000000,1.598589,0.373501,0.078589,-0.832052,0.233616,0.905940,0.743846
0.127000,-0.500000,-0.500000,0.800000,0.999924,0.004776,-0.011320,0.001026,-0.500000,-0.500000,0.800000,0.999924,0.004776,-0.011320,0.001026,200.000000,100.000000,0.000000,0.000035,0.000000,0.000000,0.000000,0.000000,0.000000,0.000000,1.598589,0.373501,0.078589,-0.832052,0.233616,0.905940,0.743846
0.128000,-0.500000,-0.500000,0.800000,0.999924,0.004776,-0.011320,0.001026,-0.500000,-0.500000,0.800000,0.999924,0.004776,-0.011320,0.001026,200.000000,100.000000,0.000000,0.000035,0.000000,0.000000,0.000000,0.000000,0.000000,0.000000,1.598589,0.373501,0.078589,-0.832052,0.233616,0.905940,0.743846
0.129000,-0.500000,-0.500000,0.800000,0.999924,0.004776,-0.011320,0.001026,-0.500000,-0.500000,0.800000,0.999924,0.004776,-0.011320,0.001026,200.000000,100.000000,0.000000,0.000034,0.000000,0.000000,0.000000,0.000000,0.000000,0.000000,1.598589,0.373501,0.078589,-0.832052,0.233616,0.905940,0.743846
0.130000,-0.500000,-0.500000,0.800000,0.999924,0.004776,-0.011320,0.001026,-0.500000,-0.500000,0.800000,0.999924,0.004776,-0.011320,0.001026,200.000000,100.000000,0.000000,0.000034,0.000000,0.000000,0.000000,0.000000,0.000000,0.000000,1.598589,0.373501,0.078589,-0.832052,0.233616,0.905940,0.743846
0.131000,-0.500000,-0.500000,0.800000,0.999924,0.004776,-0.011320,0.001026,-0.500000,-0.500000,0.800000,0.999924,0.004776,-0.011320,0.001026,200.000000,100.000000,0.000000,0.000034,0.000000,0.000000,0.000000,0.000000,0.000000,0.000000,1.598589,0.373501,0.078589,-0.832052,0.233616,0.905940,0.743846
0.132000,-0.500000,-0.500000,0.800000,0.999924,0.004776,-0.011320,0.001026,-0.500000,-0.500000,0.800000,0.999924,0.004776,-0.011320,0.001026,200.000000,100.000000,0.000000,0.000034,0.000000,0.000000,0.000000,0.000000,0.000000,0.000000,1.598589,0.373501,0.078589,-0.832052,0.233616,0.905940,0.743846
0.133000,-0.500000,-0.500000,0.800000,0.999924,0.004776,-0.011320,0.001026,-0.500000,-0.500000,0.800000,0.999924,0.004776,-0.011320,0.001026,200.000000,100.000000,0.000000,0.000034,0.000000,0.000000,0.000000,0.000000,0.000000,0.000000,1.598589,0.373501,0.078589,-0.832052,0.233616,0.905940,0.743846
0.133000,-0.500000,-0.500000,0.800000,0.999924,0.004776,-0.011320,0.001026,-0.500000,-0.500000,0.800000,0.999924,0.004776,-0.011320,0.001026,200.000000,100.000000,0.000000,0.000034,0.000000,0.000000,0.000000,0.000000,0.000000,0.000000,1.598589,0.373501,0.078589,-0.832052,0.233616,0.905940,0.743846
0.135000,-0.500000,-0.500000,0.800000,0.999924,0.004776,-0.011320,0.001026,-0.500000,-0.500000,0.800000,0.999924,0.004776,-0.011320,0.001026,200.000000,100.000000,0.000000,0.000035,0.000000,0.000000,0.000000,0.000000,0.000000,0.000000,1.598589,0.373501,0.078589,-0.832052,0.233616,0.905940,0.743846
0.136000,-0.500000,-0.500000,0.800000,0.999924,0.004776,-0.011320,0.001026,-0.500000,-0.500000,0.800000,0.999924,0.004776,-0.011320,0.001026,200.000000,100.000000,0.000000,0.000035,0.000000,0.000000,0.000000,0.000000,0.000000,0.000000,1.598589,0.373501,0.078589,-0.832052,0.233616,0.905940,0.743846
0.137000,-0.500000,-0.500000,0.800000,0.999924,0.004776,-0.011320,0.001026,-0.500000,-0.500000,0.800000,0.999924,0.004776,-0.011320,0.001026,200.000000,100.000000,0.000000,0.000034,0.000000,0.000000,0.000000,0.000000,0.000000,0.000000,1.598589,0.373501,0.078589,-0.832052,0.233616,0.905940,0.743846
0.137000,-0.500000,-0.500000,0.800000,0.999924,0.004776,-0.011320,0.001026,-0.500000,-0.500000,0.800000,0.999924,0.004776,-0.011320,0.001026,200.000000,100.000000,0.000000,0.000033,0.000000,0.000000,0.000000,0.000000,0.000000,0.000000,1.598589,0.373501,0.078589,-0.832052,0.233616,0.905940,0.743846
0.139000,-0.500000,-0.500000,0.800000,0.999924,0.004776,-0.011320,0.001026,-0.500000,-0.500000,0.800000,0.999924,0.004776,-0.011320,0.001026,200.000000,100.000000,0.000000,0.000033,0.000000,0.000000,0.000000,0.000000,0.000000,0.000000,1.598589,0.373501,0.078589,-0.832052,0.233616,0.905940,0.743846
0.140000,-0.500000,-0.500000,0.800000,0.999924,0.004776,-0.011320,0.001026,-0.500000,-0.500000,0.800000,0.999924,0.004776,-0.011320,0.001026,200.000000,100.000000,0.000000,0.000034,0.000000,0.000000,0.000000,0.000000,0.000000,0.000000,1.598589,0.373501,0.078589,-0.832052,0.233616,0.905940,0.743846
0.141000,-0.500000,-0.500000,0.800000,0.999924,0.004776,-0.011320,0.001026,-0.500000,-0.500000,0.800000,0.999924,0.004776,-0.011320,0.001026,200.000000,100.000000,0.000000,0.000035,0.000000,0.000000,0.000000,0.000000,0.000000,0.000000,1.598589,0.373501,0.078589,-0.832052,0.233616,0.905940,0.743846
0.142000,-0.500000,-0.500000,0.800000,0.999924,0.004776,-0.011320,0.001026,-0.500000,-0.500000,0.800000,0.999924,0.004776,-0.011320,0.001026,200.000000,100.000000,0.000000,0.000035,0.000000,0.000000,0.000000,0.000000,0.000000,0.000000,1.598589,0.373501,0.078589,-0.832052,0.233616,0.905940,0.743846
0.143000,-0.500000,-0.500000,0.800000,0.999924,0.004776,-0.011320,0.001026,-0.500000,-0.500000,0.800000,0.999924,0.004776,-0.011320,0.001026,200.000000,100.000000,0.000000,0.000034,0.000000,0.000000,0.000000,0.000000,0.000000,0.000000,1.598589,0.373501,0.078589,-0.832052,0.233616,0.905940,0.743846
0.144000,-0.500000,-0.500000,0.800000,0.999924,0.004776,-0.011320,0.001026,-0.500000,-0.500000,0.800000,0.999924,0.004776,-0.011320,0.001026,200.000000,100.000000,0.000000,0.000034,0.000000,0.000000,0.000000,0.000000,0.000000,0.000000,1.598589,0.373501,0.078589,-0.832052,0.233616,0.905940,0.743846
0.145000,-0.500000,-0.500000,0.800000,0.999924,0.004776,-0.011320,0.001026,-0.500000,-0.500000,0.800000,0.999924,0.004776,-0.011320,0.001026,200.000000,100.000000,0.000000,0.000034,0.000000,0.000000,0.000000,0.000000,0.000000,0.000000,1.598589,0.373501,0.078589,-0.832052,0.233616,0.905940,0.743846
0.146000,-0.500000,-0.500000,0.800000,0.999924,0.004776,-0.011320,0.001026,-0.500000,-0.500000,0.800000,0.999924,0.004776,-0.011320,0.001026,200.000000,100.000000,0.000000,0.000034,0.000000,0.000000,0.000000,0.000000,0.000000,0.000000,1.598589,0.373501,0.078589,-0.832052,0.233616,0.905940,0.743846
0.147000,-0.500000,-0.500000,0.800000,0.999924,0.004776,-0.011320,0.001026,-0.500000,-0.500000,0.800000,0.999924,0.004776,-0.011320,0.001026,200.000000,100.000000,0.000000,0.000034,0.000000,0.000000,0.000000,0.000000,0.000000,0.000000,1.598589,0.373501,0.078589,-0.832052,0.233616,0.905940,0.743846
0.147000,-0.500000,-0.500000,0.800000,0.999924,0.004776,-0.011320,0.001026,-0.500000,-0.500000,0.800000,0.999924,0.004776,-0.011320,0.001026,200.000000,100.000000,0.000000,0.000034,0.000000,0.000000,0.000000,0.000000,0.000000,0.000000,1.598589,0.373501,0.078589,-0.832052,0.233616,0.905940,0.743846
0.149000,-0.500000,-0.500000,0.800000,0.999924,0.004776,-0.011320,0.001026,-0.500000,-0.500000,0.800000,0.999924,0.004776,-0.011320,0.001026,200.000000,100.000000,0.000000,0.000034,0.000000,0.000000,0.000000,0.000000,0.000000,0.000000,1.598589,0.373501,0.078589,-0.832052,0.233616,0.905940,0.743846
0.150000,-0.500000,-0.500000,0.800000,0.999924,0.004776,-0.011320,0.001026,-0.500000,-0.500000,0.800000,0.999924,0.004776,-0.011320,0.001026,200.000000,100.000000,0.000000,0.000034,0.000000,0.000000,0.000000,0.000000,0.000000,0.000000,1.598589,0.373501,0.078589,-0.832052,0.233616,0.905940,0.743846
0.151000,-0.500000,-0.500000,0.800000,0.999924,0.004776,-0.011320,0.001026,-0.500000,-0.500000,0.800000,0.999924,0.004776,-0.011320,0.001026,200.000000,100.000000,0.000000,0.000034,0.000000,0.000000,0.000000,0.000000,0.000000,0.000000,1.598589,0.373501,0.078589,-0.832052,0.233616,0.905940,0.743846
0.152000,-0.500000,-0.500000,0.800000,0.999924,0.004776,-0.011320,0.001026,-0.500000,-0.500000,0.800000,0.999924,0.004776,-0.011320,0.001026,200.000000,100.000000,0.000000,0.000034,0.000000,0.000000,0.000000,0.000000,0.000000,0.000000,1.598589,0.373501,0.078589,-0.832052,0.233616,0.905940,0.743846
0.153000,-0.500000,-0.500000,0.800000,0.999924,0.004776,-0.011320,0.001026,-0.500000,-0.500000,0.800000,0.999924,0.004776,-0.011320,0.001026,200.000000,100.000000,0.000000,0.000034,0.000000,0.000000,0.000000,0.000000,0.000000,0.000000,1.598589,0.373501,0.078589,-0.832052,0.233616,0.905940,0.743846
0.154000,-0.500000,-0.500000,0.800000,0.999924,0.004776,-0.011320,0.001026,-0.500000,-0.500000,0.800000,0.999924,0.004776,-0.011320,0.001026,200.000000,100.000000,0.000000,0.000034,0.000000,0.000000,0.000000,0.000000,0.000000,0.000000,1.598589,0.373501,0.078589,-0.832052,0.233616,0.905940,0.743846
0.155000,-0.500000,-0.500000,0.800000,0.999924,0.004776,-0.011320,0.001026,-0.500000,-0.500000,0.800000,0.999924,0.004776,-0.011320,0.001026,200.000000,100.000000,0.000000,0.000034,0.000000,0.000000,0.000000,0.000000,0.000000,0.000000,1.598589,0.373501,0.078589,-0.832052,0.233616,0.905940,0.743846
0.156000,-0.500000,-0.500000,0.800000,0.999924,0.004776,-0.011320,0.001026,-0.500000,-0.500000,0.800000,0.999924,0.004776,-0.011320,0.001026,200.000000,100.000000,0.000000,0.000034,0.000000,0.000000,0.000000,0.000000,0.000000,0.000000,1.598589,0.373501,0.078589,-0.832052,0.233616,0.905940,0.743846
0.157000,-0.500000,-0.500000,0.800000,0.999924,0.004776,-0.011320,0.001026,-0.500000,-0.500000,0.800000,0.999924,0.004776,-0.011320,0.001026,200.000000,100.000000,0.000000,0.000034,0.000000,0.000000,0.000000,0.000000,0.000000,0.000000,1.598589,0.373501,0.078589,-0.832052,0.233616,0.905940,0.743846
0.158000,-0.500000,-0.500000,0.800000,0.999924,0.004776,-0.011320,0.001026,-0.500000,-0.500000,0.800000,0.999924,0.004776,-0.011320,0.001026,200.000000,100.000000,0.000000,0.000034,0.000000,0.000000,0.000000,0.000000,0.000000,0.000000,1.598589,0.373501,0.078589,-0.832052,0.233616,0.905940,0.743846
0.159000,-0.500000,-0.500000,0.800000,0.999924,0.004776,-0.011320,0.001026,-0.500000,-0.500000,0.800000,0.999924,0.004776,-0.011320,0.001026,200.000000,100.000000,0.000000,0.000035,0.000000,0.000000,0.000000,0.000000,0.000000,0.000000,1.598589,0.373501,0.078589,-0.832052,0.233616,0.905940,0.743846
0.160000,-0.500000,-0.500000,0.800000,0.999924,0.004776,-0.011320,0.001026,-0.500000,-0.500000,0.800000,0.999924,0.004776,-0.011320,0.001026,200.000000,100.000000,0.000000,0.000034,0.000000,0.000000,0.000000,0.000000,0.000000,0.000000,1.598589,0.373501,0.078589,-0.832052,0.233616,0.905940,0.743846
0.161000,-0.500000,-0.500000,0.800000,0.999924,0.004776,-0.011320,0.001026,-0.500000,-0.500000,0.800000,0.999924,0.004776,-0.011320,0.001026,200.000000,100.000000,0.000000,0.000033,0.000000,0.000000,0.000000,0.000000,0.000000,0.000000,1.598589,0.373501,0.078589,-0.832052,0.233616,0.905940,0.743846
0.162000,-0.500000,-0.500000,0.800000,0.999924,0.004776,-0.011320,0.001026,-0.500000,-0.500000,0.800000,0.999924,0.004776,-0.011320,0.001026,200.000000,100.000000,0.000000,0.000033,0.000000,0.000000,0.000000,0.000000,0.000000,0.000000,1.598589,0.373501,0.078589,-0.832052,0.233616,0.905940,0.743846
0.163000,-0.500000,-0.500000,0.800000,0.999924,0.004776,-0.011320,0.001026,-0.500000,-0.500000,0.800000,0.999924,0.004776,-0.011320,0.001026,200.000000,100.000000,0.000000,0.000034,0.000000,0.000000,0.000000,0.000000,0.000000,0.000000,1.598589,0.373501,0.078589,-0.832052,0.233616,0.905940,0.743846
0.164000,-0.500000,-0.500000,0.800000,0.999924,0.004776,-0.011320,0.001026,-0.500000,-0.500000,0.800000,0.999924,0.004776,-0.011320,0.001026,200.000000,100.000000,0.000000,0.000034,0.000000,0.000000,0.000000,0.000000,0.000000,0.000000,1.598589,0.373501,0.078589,-0.832052,0.233616,0.905940,0.743846
0.165000,-0.500000,-0.500000,0.800000,0.999924,0.004776,-0.011320,0.001026,-0.500000,-0.500000,0.800000,0.999924,0.004776,-0.011320,0.001026,200.000000,100.000000,0.000000,0.000035,0.000000,0.000000,0.000000,0.000000,0.000000,0.000000,1.598589,0.373501,0.078589,-0.832052,0.233616,0.905940,0.743846
0.166000,-0.500000,-0.500000,0.800000,0.999924,0.004776,-0.011320,0.001026,-0.500000,-0.500000,0.800000,0.999924,0.004776,-0.011320,0.001026,200.000000,100.000000,0.000000,0.000034,0.000000,0.000000,0.000000,0.000000,0.000000,0.000000,1.598589,0.373501,0.078589,-0.832052,0.233616,0.905940,0.743846
0.167000,-0.500000,-0.500000,0.800000,0.999924,0.004776,-0.011320,0.001026,-0.500000,-0.500000,0.800000,0.999924,0.004776,-0.011320,0.001026,200.000000,100.000000,0.000000,0.000033,0.000000,0.000000,0.000000,0.000000,0.000000,0.000000,1.598589,0.373501,0.078589,-0.832052,0.233616,0.905940,0.743846
0.168000,-0.500000,-0.500000,0.800000,0.999924,0.004776,-0.011320,0.001026,-0.500000,-0.500000,0.800000,0.999924,0.004776,-0.011320,0.001026,200.000000,100.000000,0.000000,0.000033,0.000000,0.000000,0.000000,0.000000,0.000000,0.000000,1.598589,0.373501,0.078589,-0.832052,0.233616,0.905940,0.743846
0.169000,-0.500000,-0.500000,0.800000,0.999924,0.004776,-0.011320,0.001026,-0.500000,-0.500000,0.800000,0.999924,0.004776,-0.011320,0.001026,200.000000,100.000000,0.000000,0.000034,0.000000,0.000000,0.000000,0.000000,0.000000,0.000000,1.598589,0.373501,0.078589,-0.832052,0.233616,0.905940,0.743846
0.170000,-0.500000,-0.500000,0.800000,0.999924,0.004776,-0.011320,0.001026,-0.500000,-0.500000,0.800000,0.999924,0.004776,-0.011320,0.001026,200.000000,100.000000,0.000000,0.000034,0.000000,0.000000,0.000000,0.000000,0.000000,0.000000,1.598589,0.373501,0.078589,-0.832052,0.233616,0.905940,0.743846
0.171000,-0.500000,-0.500000,0.800000,0.999924,0.004776,-0.011320,0.001026,-0.500000,-0.500000,0.800000,0.999924,0.004776,-0.011320,0.001026,200.000000,100.000000,0.000000,0.000035,0.000000,0.000000,0.000000,0.000000,0.000000,0.000000,1.598589,0.373501,0.078589,-0.832052,0.233616,0.905940,0.743846
0.172000,-0.500000,-0.500000,0.800000,0.999924,0.004776,-0.011320,0.001026,-0.500000,-0.500000,0.800000,0.999924,0.004776,-0.011320,0.001026,200.000000,100.000000,0.000000,0.000035,0.000000,0.000000,0.000000,0.000000,0.000000,0.000000,1.598589,0.373501,0.078589,-0.832052,0.233616,0.905940,0.743846
0.172000,-0.500000,-0.500000,0.800000,0.999924,0.004776,-0.011320,0.001026,-0.500000,-0.500000,0.800000,0.999924,0.004776,-0.011320,0.001026,200.000000,100.000000,0.000000,0.000035,0.000000,0.000000,0.000000,0.000000,0.000000,0.000000,1.598589,0.373501,0.078589,-0.832052,0.233616,0.905940,0.743846
0.174000,-0.500000,-0.500000,0.800000,0.999924,0.004776,-0.011320,0.001026,-0.500000,-0.500000,0.800000,0.999924,0.004776,-0.011320,0.001026,200.000000,100.000000,0.000000,0.000034,0.000000,0.000000,0.000000,0.000000,0.000000,0.000000,1.598589,0.373501,0.078589,-0.832052,0.233616,0.905940,0.743846
0.174000,-0.500000,-0.500000,0.800000,0.999924,0.004776,-0.011320,0.001026,-0.500000,-0.500000,0.800000,0.999924,0.004776,-0.011320,0.001026,200.000000,100.000000,0.000000,0.000033,0.000000,0.000000,0.000000,0.000000,0.000000,0.000000,1.598589,0.373501,0.078589,-0.832052,0.233616,0.905940,0.743846
0.176000,-0.500000,-0.500000,0.800000,0.999924,0.004776,-0.011320,0.001026,-0.500000,-0.500000,0.800000,0.999924,0.004776,-0.011320,0.001026,200.000000,100.000000,0.000000,0.000033,0.000000,0.000000,0.000000,0.000000,0.000000,0.000000,1.598589,0.373501,0.078589,-0.832052,0.233616,0.905940,0.743846
0.177000,-0.500000,-0.500000,0.800000,0.999924,0.004776,-0.011320,0.001026,-0.500000,-0.500000,0.800000,0.999924,0.004776,-0.011320,0.001026,200.000000,100.000000,0.000000,0.000034,0.000000,0.000000,0.000000,0.000000,0.000000,0.000000,1.598589,0.373501,0.078589,-0.832052,0.233616,0.905940,0.743846
0.178000,-0.500000,-0.500000,0.800000,0.999924,0.004776,-0.011320,0.001026,-0.500000,-0.500000,0.800000,0.999924,0.004776,-0.011320,0.001026,200.000000,100.000000,0.000000,0.000034,0.000000,0.000000,0.000000,0.000000,0.000000,0.000000,1.598589,0.373501,0.078589,-0.832052,0.233616,0.905940,0.743846
0.179000,-0.500000,-0.500000,0.800000,0.999924,0.004776,-0.011320,0.001026,-0.500000,-0.500000,0.800000,0.999924,0.004776,-0.011320,0.001026,200.000000,100.000000,0.000000,0.000035,0.000000,0.000000,0.000000,0.000000,0.000000,0.000000,1.598589,0.373501,0.078589,-0.832052,0.233616,0.905940,0.743846
0.180000,-0.500000,-0.500000,0.800000,0.999924,0.004776,-0.011320,0.001026,-0.500000,-0.500000,0.800000,0.999924,0.004776,-0.011320,0.001026,200.000000,100.000000,0.000000,0.000035,0.000000,0.000000,0.000000,0.000000,0.000000,0.000000,1.598589,0.373501,0.078589,-0.832052,0.233616,0.905940,0.743846
0.181000,-0.500000,-0.500000,0.800000,0.999924,0.004776,-0.011320,0.001026,-0.500000,-0.500000,0.800000,0.999924,0.004776,-0.011320,0.001026,200.000000,100.000000,0.000000,0.000034,0.000000,0.000000,0.000000,0.000000,0.000000,0.000000,1.598589,0.373501,0.078589,-0.832052,0.233616,0.905940,0.743846
0.182000,-0.500000,-0.500000,0.800000,0.999924,0.004776,-0.011320,0.001026,-0.500000,-0.500000,0.800000,0.999924,0.004776,-0.011320,0.001026,200.000000,100.000000,0.000000,0.000033,0.000000,0.000000,0.000000,0.000000,0.000000,0.000000,1.598589,0.373501,0.078589,-0.832052,0.233616,0.905940,0.743846
0.183000,-0.500000,-0.500000,0.800000,0.999924,0.004776,-0.011320,0.001026,-0.500000,-0.500000,0.800000,0.999924,0.004776,-0.011320,0.001026,200.000000,100.000000,0.000000,0.000034,0.000000,0.000000,0.000000,0.000000,0.000000,0.000000,1.598589,0.373501,0.078589,-0.832052,0.233616,0.905940,0.743846
0.184000,-0.500000,-0.500000,0.800000,0.999924,0.004776,-0.011320,0.001026,-0.500000,-0.500000,0.800000,0.999924,0.004776,-0.011320,0.001026,200.000000,100.000000,0.000000,0.000034,0.000000,0.000000,0.000000,0.000000,0.000000,0.000000,1.598589,0.373501,0.078589,-0.832052,0.233616,0.905940,0.743846
0.185000,-0.500000,-0.500000,0.800000,0.999924,0.004776,-0.011320,0.001026,-0.500000,-0.500000,0.800000,0.999924,0.004776,-0.011320,0.001026,200.000000,100.000000,0.000000,0.000035,0.000000,0.000000,0.000000,0.000000,0.000000,0.000000,1.598589,0.373501,0.078589,-0.832052,0.233616,0.905940,0.743846
0.186000,-0.500000,-0.500000,0.800000,0.999924,0.004776,-0.011320,0.001026,-0.500000,-0.500000,0.800000,0.999924,0.004776,-0.011320,0.001026,200.000000,100.000000,0.000000,0.000035,0.000000,0.000000,0.000000,0.000000,0.000000,0.000000,1.598589,0.373501,0.078589,-0.832052,0.233616,0.905940,0.743846
0.187000,-0.500000,-0.500000,0.800000,0.999924,0.004776,-0.011320,0.001026,-0.500000,-0.500000,0.800000,0.999924,0.004776,-0.011320,0.001026,200.000000,100.000000,0.000000,0.000034,0.000000,0.000000,0.000000,0.000000,0.000000,0.000000,1.598589,0.373501,0.078589,-0.832052,0.233616,0.905940,0.743846
0.188000,-0.500000,-0.500000,0.800000,0.999924,0.004776,-0.011320,0.001026,-0.500000,-0.500000,0.800000,0.999924,0.004776,-0.011320,0.001026,200.000000,100.000000,0.000000,0.000034,0.000000,0.000000,0.000000,0.000000,0.000000,0.000000,1.598589,0.373501,0.078589,-0.832052,0.233616,0.905940,0.743846
0.189000,-0.500000,-0.500000,0.800000,0.999924,0.004776,-0.011320,0.001026,-0.500000,-0.500000,0.800000,0.999924,0.004776,-0.011320,0.001026,200.000000,100.000000,0.000000,0.000034,0.000000,0.000000,0.000000,0.000000,0.000000,0.000000,1.598589,0.373501,0.078589,-0.832052,0.233616,0.905940,0.743846
0.189000,-0.500000,-0.500000,0.800000,0.999924,0.004776,-0.011320,0.001026,-0.500000,-0.500000,0.800000,0.999924,0.004776,-0.011320,0.001026,200.000000,100.000000,0.000000,0.000034,0.000000,0.000000,0.000000,0.000000,0.000000,0.000000,1.598589,0.373501,0.078589,-0.832052,0.233616,0.905940,0.743846
0.190000,-0.500000,-0.500000,0.800000,0.999924,0.004776,-0.011320,0.001026,-0.500000,-0.500000,0.800000,0.999924,0.004776,-0.011320,0.001026,200.000000,100.000000,0.000000,0.000034,0.000000,0.000000,0.000000,0.000000,0.000000,0.000000,1.598589,0.373501,0.078589,-0.832052,0.233616,0.905940,0.743846
0.191000,-0.500000,-0.500000,0.800000,0.999924,0.004776,-0.011320,0.001026,-0.500000,-0.500000,0.800000,0.999924,0.004776,-0.011320,0.001026,200.000000,100.000000,0.000000,0.000034,0.000000,0.000000,0.000000,0.000000,0.000000,0.000000,1.598589,0.373501,0.078589,-0.832052,0.233616,0.905940,0.743846
0.193000,-0.500000,-0.500000,0.800000,0.999924,0.004776,-0.011320,0.001026,-0.500000,-0.500000,0.800000,0.999924,0.004776,-0.011320,0.001026,200.000000,100.000000,0.000000,0.000034,0.000000,0.000000,0.000000,0.000000,0.000000,0.000000,1.598589,0.373501,0.078589,-0.832052,0.233616,0.905940,0.743846
0.194000,-0.500000,-0.500000,0.800000,0.999924,0.004776,-0.011320,0.001026,-0.500000,-0.500000,0.800000,0.999924,0.004776,-0.011320,0.001026,200.000000,100.000000,0.000000,0.000034,0.000000,0.000000,0.000000,0.000000,0.000000,0.000000,1.598589,0.373501,0.078589,-0.832052,0.233616,0.905940,0.743846
0.195000,-0.500000,-0.500000,0.800000,0.999924,0.004776,-0.011320,0.001026,-0.500000,-0.500000,0.800000,0.999924,0.004776,-0.011320,0.001026,200.000000,100.000000,0.000000,0.000034,0.000000,0.000000,0.000000,0.000000,0.000000,0.000000,1.598589,0.373501,0.078589,-0.832052,0.233616,0.905940,0.743846
0.196000,-0.500000,-0.500000,0.800000,0.999924,0.004776,-0.011320,0.001026,-0.500000,-0.500000,0.800000,0.999924,0.004776,-0.011320,0.001026,200.000000,100.000000,0.000000,0.000034,0.000000,0.000000,0.000000,0.000000,0.000000,0.000000,1.598589,0.373501,0.078589,-0.832052,0.233616,0.905940,0.743846
0.197000,-0.500000,-0.500000,0.800000,0.999924,0.004776,-0.011320,0.001026,-0.500000,-0.500000,0.800000,0.999924,0.004776,-0.011320,0.001026,200.000000,100.000000,0.000000,0.000034,0.000000,0.000000,0.000000,0.000000,0.000000,0.000000,1.598589,0.373501,0.078589,-0.832052,0.233616,0.905940,0.743846
0.197000,-0.500000,-0.500000,0.800000,0.999924,0.004776,-0.011320,0.001026,-0.500000,-0.500000,0.800000,0.999924,0.004776,-0.011320,0.001026,200.000000,100.000000,0.000000,0.000034,0.000000,0.000000,0.000000,0.000000,0.000000,0.000000,1.598589,0.373501,0.078589,-0.832052,0.233616,0.905940,0.743846
0.199000,-0.500000,-0.500000,0.800000,0.999924,0.004776,-0.011320,0.001026,-0.500000,-0.500000,0.800000,0.999924,0.004776,-0.011320,0.001026,200.000000,100.000000,0.000000,0.000034,0.000000,0.000000,0.000000,0.000000,0.000000,0.000000,1.598589,0.373501,0.078589,-0.832052,0.233616,0.905940,0.743846
0.200000,-0.500000,-0.500000,0.800000,0.999924,0.004776,-0.011320,0.001026,-0.500000,-0.500000,0.800000,0.999924,0.004776,-0.011320,0.001026,200.000000,100.000000,0.000000,0.000034,0.000000,0.000000,0.000000,0.000000,0.000000,0.000000,1.598589,0.373501,0.078589,-0.832052,0.233616,0.905940,0.743846
0.201000,-0.500000,-0.500000,0.800000,0.999924,0.004776,-0.011320,0.001026,-0.500000,-0.499999,0.800000,0.999924,0.004776,-0.011320,0.001026,200.000000,100.000000,0.000000,0.000034,0.000000,0.000000,0.000000,0.000000,0.000000,0.000000,1.598589,0.373501,0.078589,-0.832052,0.233616,0.905940,0.743846
0.202000,-0.500000,-0.500000,0.800000,0.999924,0.004776,-0.011320,0.001026,-0.500000,-0.499998,0.800000,0.999924,0.004776,-0.011320,0.001026,200.000000,100.000000,0.000000,0.000034,0.000000,0.000000,0.000000,0.000000,0.000000,0.000000,1.598589,0.373501,0.078589,-0.832052,0.233616,0.905940,0.743846
0.203000,-0.500000,-0.500000,0.800000,0.999924,0.004776,-0.011320,0.001026,-0.500000,-0.499997,0.800000,0.999924,0.004776,-0.011320,0.001026,200.000000,100.000000,0.000000,0.000035,0.000000,0.000000,0.000000,0.000000,0.000000,0.000000,1.598589,0.373501,0.078589,-0.832052,0.233616,0.905940,0.743846
0.204000,-0.500000,-0.500000,0.800000,0.999924,0.004776,-0.011320,0.001026,-0.500000,-0.499996,0.800000,0.999924,0.004776,-0.011320,0.001026,200.000000,100.000000,0.000000,0.000034,0.000000,0.000000,0.000000,0.000000,0.000000,0.000000,1.598589,0.373501,0.078589,-0.832052,0.233616,0.905940,0.743846
0.205000,-0.500000,-0.500000,0.800000,0.999924,0.004776,-0.011320,0.001026,-0.500000,-0.499995,0.800000,0.999924,0.004776,-0.011320,0.001026,200.000000,100.000000,0.000000,0.000033,0.000000,0.000000,0.000000,0.000000,0.000000,0.000000,1.598589,0.373501,0.078589,-0.832052,0.233616,0.905940,0.743846
0.206000,-0.500000,-0.500000,0.800000,0.999924,0.004776,-0.011320,0.001026,-0.500000,-0.499995,0.800000,0.999924,0.004776,-0.011320,0.001026,200.000000,100.000000,0.000000,0.000033,0.000000,0.000000,0.000000,0.000000,0.000000,0.000000,1.598589,0.373501,0.078589,-0.832052,0.233616,0.905940,0.743846
0.207000,-0.500000,-0.500000,0.800000,0.999924,0.004776,-0.011320,0.001026,-0.500000,-0.499992,0.800000,0.999924,0.004776,-0.011320,0.001026,200.000000,100.000000,0.000000,0.000034,0.000000,0.000000,0.000000,0.000000,0.000000,0.000000,1.598589,0.373501,0.078589,-0.832052,0.233616,0.905940,0.743846
0.208000,-0.500000,-0.500000,0.800000,0.999924,0.004776,-0.011320,0.001026,-0.500000,-0.499992,0.800000,0.999924,0.004776,-0.011320,0.001026,200.000000,100.000000,0.000000,0.000034,0.000000,0.000000,0.000000,0.000000,0.000000,0.000000,1.598589,0.373501,0.078589,-0.832052,0.233616,0.905940,0.743846
0.208000,-0.500000,-0.500000,0.800000,0.999924,0.004776,-0.011320,0.001026,-0.500000,-0.499988,0.800000,0.999924,0.004776,-0.011320,0.001026,200.000000,100.000000,0.000000,0.000035,0.000000,0.000000,0.000000,0.000000,0.000000,0.000000,1.598589,0.373501,0.078589,-0.832052,0.233616,0.905940,0.743846
0.210000,-0.500000,-0.500000,0.800000,0.999924,0.004776,-0.011320,0.001026,-0.500000,-0.499986,0.800000,0.999924,0.004776,-0.011320,0.001026,200.000000,100.000000,0.000000,0.000034,0.000000,0.000000,0.000000,0.000000,0.000000,0.000000,1.598589,0.373501,0.078589,-0.832052,0.233616,0.905940,0.743846
0.211000,-0.500000,-0.500000,0.800000,0.999924,0.004776,-0.011320,0.001026,-0.500000,-0.499983,0.800000,0.999924,0.004776,-0.011320,0.001026,200.000000,100.000000,0.000000,0.000033,0.000000,0.000000,0.000000,0.000000,0.000000,0.000000,1.598589,0.373501,0.078589,-0.832052,0.233616,0.905940,0.743846
0.212000,-0.500000,-0.500000,0.800000,0.999924,0.004776,-0.011320,0.001026,-0.500000,-0.499980,0.800000,0.999924,0.004776,-0.011320,0.001026,200.000000,100.000000,0.000000,0.000034,0.000000,0.000000,0.000000,0.000000,0.000000,0.000000,1.598589,0.373501,0.078589,-0.832052,0.233616,0.905940,0.743846
0.213000,-0.500000,-0.500000,0.800000,0.999924,0.004776,-0.011320,0.001026,-0.500000,-0.499977,0.800000,0.999924,0.004776,-0.011320,0.001026,200.000000,100.000000,0.000000,0.000034,0.000000,0.000000,0.000000,0.000000,0.000000,0.000000,1.598589,0.373501,0.078589,-0.832052,0.233616,0.905940,0.743846
0.214000,-0.500000,-0.500000,0.800000,0.999924,0.004776,-0.011320,0.001026,-0.500000,-0.499977,0.800000,0.999924,0.004776,-0.011320,0.001026,200.000000,100.000000,0.000000,0.000035,0.000000,0.000000,0.000000,0.000000,0.000000,0.000000,1.598589,0.373501,0.078589,-0.832052,0.233616,0.905940,0.743846
0.215000,-0.500000,-0.500000,0.800000,0.999924,0.004776,-0.011320,0.001026,-0.500000,-0.499971,0.800000,0.999924,0.004776,-0.011320,0.001026,200.000000,100.000000,0.000000,0.000035,0.000000,0.000000,0.000000,0.000000,0.000000,0.000000,1.598589,0.373501,0.078589,-0.832052,0.233616,0.905940,0.743846
0.216000,-0.500000,-0.500000,0.800000,0.999924,0.004776,-0.011320,0.001026,-0.500000,-0.499968,0.800000,0.999924,0.004776,-0.011320,0.001026,200.000000,100.000000,0.000000,0.000035,0.000000,0.000000,0.000000,0.000000,0.000000,0.000000,1.598589,0.373501,0.078589,-0.832052,0.233616,0.905940,0.743846
0.217000,-0.500000,-0.500000,0.800000,0.999924,0.004776,-0.011320,0.001026,-0.500000,-0.499964,0.800000,0.999924,0.004776,-0.011320,0.001026,200.000000,100.000000,0.000000,0.000034,0.000000,0.000000,0.000000,0.000000,0.000000,0.000000,1.598589,0.373501,0.078589,-0.832052,0.233616,0.905940,0.743846
0.218000,-0.500000,-0.500000,0.800000,0.999924,0.004776,-0.011320,0.001026,-0.500000,-0.499960,0.800000,0.999924,0.004776,-0.011320,0.001026,200.000000,100.000000,0.000000,0.000035,0.000000,0.000000,0.000000,0.000000,0.000000,0.000000,1.598589,0.373501,0.078589,-0.832052,0.233616,0.905940,0.743846
0.219000,-0.500000,-0.500000,0.800000,0.999924,0.004776,-0.011320,0.001026,-0.500000,-0.499956,0.800000,0.999924,0.004776,-0.011320,0.001026,200.000000,100.000000,0.000000,0.000033,0.000000,0.000000,0.000000,0.000000,0.000000,0.000000,1.598589,0.373501,0.078589,-0.832052,0.233616,0.905940,0.743846
0.220000,-0.500000,-0.500000,0.800000,0.999924,0.004776,-0.011320,0.001026,-0.500000,-0.499952,0.800000,0.999924,0.004776,-0.011320,0.001026,200.000000,100.000000,0.000000,0.000036,0.000000,0.000000,0.000000,0.000000,0.000000,0.000000,1.598589,0.373501,0.078589,-0.832052,0.233616,0.905940,0.743846
0.221000,-0.500000,-0.500000,0.800000,0.999924,0.004776,-0.011320,0.001026,-0.500000,-0.499947,0.800000,0.999924,0.004776,-0.011320,0.001026,200.000000,100.000000,0.000000,0.000035,0.000000,0.000000,0.000000,0.000000,0.000000,0.000000,1.598589,0.373501,0.078589,-0.832052,0.233616,0.905940,0.743846
0.222000,-0.500000,-0.500000,0.800000,0.999924,0.004776,-0.011320,0.001026,-0.500000,-0.499942,0.800000,0.999924,0.004776,-0.011320,0.001026,200.000000,100.000000,0.000000,0.000037,0.000000,0.000000,0.000000,0.000000,0.000000,0.000000,1.598589,0.373501,0.078589,-0.832052,0.233616,0.905940,0.743846
0.222000,-0.500000,-0.500000,0.800000,0.999924,0.004776,-0.011320,0.001026,-0.500000,-0.499937,0.800000,0.999924,0.004776,-0.011320,0.001026,200.000000,100.000000,0.000000,0.000034,0.000000,0.000000,0.000000,0.000000,0.000000,0.000000,1.598589,0.373501,0.078589,-0.832052,0.233616,0.905940,0.743846
0.224000,-0.500000,-0.500000,0.800000,0.999924,0.004776,-0.011320,0.001026,-0.500000,-0.499937,0.800000,0.999924,0.004776,-0.011320,0.001026,200.000000,100.000000,0.000000,0.000037,0.000000,0.000000,0.000000,0.000000,0.000000,0.000000,1.598589,0.373501,0.078589,-0.832052,0.233616,0.905940,0.743846
0.225000,-0.500000,-0.500000,0.800000,0.999924,0.004776,-0.011320,0.001026,-0.500000,-0.499927,0.800000,0.999924,0.004776,-0.011320,0.001026,200.000000,100.000000,0.000000,0.000035,0.000000,0.000000,0.000000,0.000000,0.000000,0.000000,1.598589,0.373501,0.078589,-0.832052,0.233616,0.905940,0.743846
0.226000,-0.500000,-0.500000,0.800000,0.999924,0.004776,-0.011320,0.001026,-0.500000,-0.499922,0.800000,0.999924,0.004776,-0.011320,0.001026,200.000000,100.000000,0.000000,0.000039,0.000000,0.000000,0.000000,0.000000,0.000000,0.000000,1.598589,0.373501,0.078589,-0.832052,0.233616,0.905940,0.743846
0.227000,-0.500000,-0.500000,0.800000,0.999924,0.004776,-0.011320,0.001026,-0.500000,-0.499916,0.800000,0.999924,0.004776,-0.011320,0.001026,200.000000,100.000000,0.000000,0.000037,0.000000,0.000000,0.000000,0.000000,0.000000,0.000000,1.598589,0.373501,0.078589,-0.832052,0.233616,0.905940,0.743846
0.228000,-0.500000,-0.500000,0.800000,0.999924,0.004776,-0.011320,0.001026,-0.500000,-0.499916,0.800000,0.999924,0.004776,-0.011320,0.001026,200.000000,100.000000,0.000000,0.000041,0.000000,0.000000,0.000000,0.000000,0.000000,0.000000,1.598589,0.373501,0.078589,-0.832052,0.233616,0.905940,0.743846
0.229000,-0.500000,-0.500000,0.800000,0.999924,0.004776,-0.011320,0.001026,-0.500000,-0.499904,0.800000,0.999924,0.004776,-0.011320,0.001026,200.000000,100.000000,0.000000,0.000038,0.000000,0.000000,0.000000,0.000000,0.000000,0.000000,1.598589,0.373501,0.078589,-0.832052,0.233616,0.905940,0.743846
0.230000,-0.500000,-0.500000,0.800000,0.999924,0.004776,-0.011320,0.001026,-0.500000,-0.499904,0.800000,0.999924,0.004776,-0.011320,0.001026,200.000000,100.000000,0.000000,0.000043,0.000000,0.000000,0.000000,0.000000,0.000000,0.000000,1.598589,0.373501,0.078589,-0.832052,0.233616,0.905940,0.743846
0.231000,-0.500000,-0.500000,0.800000,0.999924,0.004776,-0.011320,0.001026,-0.500000,-0.499898,0.800000,0.999924,0.004776,-0.011320,0.001026,200.000000,100.000000,0.000000,0.000040,0.000000,0.000000,0.000000,0.000000,0.000000,0.000000,1.598588,0.373501,0.078589,-0.832053,0.233616,0.905940,0.743846
0.231000,-0.500000,-0.500000,0.800000,0.999924,0.004776,-0.011320,0.001026,-0.500000,-0.499884,0.800000,0.999924,0.004776,-0.011320,0.001026,200.000000,100.000000,0.000000,0.000046,0.000000,0.000000,0.000000,0.000000,0.000000,0.000000,1.598589,0.373501,0.078589,-0.832053,0.233616,0.905940,0.743846
0.233000,-0.500000,-0.500000,0.800000,0.999924,0.004776,-0.011320,0.001026,-0.500000,-0.499884,0.800000,0.999924,0.004776,-0.011320,0.001026,200.000000,100.000000,0.000000,0.000043,0.000000,0.000000,0.000000,0.000000,0.000000,0.000000,1.598588,0.373501,0.078589,-0.832053,0.233616,0.905940,0.743845
0.234000,-0.500000,-0.500000,0.800000,0.999924,0.004776,-0.011320,0.001026,-0.500000,-0.499870,0.800000,0.999924,0.004776,-0.011320,0.001026,200.000000,100.000000,0.000000,0.000050,0.000000,0.000000,0.000000,0.000000,0.000000,0.000000,1.598588,0.373501,0.078589,-0.832053,0.233616,0.905940,0.743845
0.235000,-0.500000,-0.500000,0.800000,0.999924,0.004776,-0.011320,0.001026,-0.500000,-0.499863,0.800000,0.999924,0.004776,-0.011320,0.001026,200.000000,100.000000,0.000000,0.000046,0.000000,0.000000,0.000000,0.000000,0.000000,0.000000,1.598588,0.373501,0.078589,-0.832053,0.233617,0.905939,0.743845
0.236000,-0.500000,-0.500000,0.800000,0.999924,0.004776,-0.011320,0.001026,-0.500000,-0.499856,0.800000,0.999924,0.004776,-0.011320,0.001026,200.000000,100.000000,0.000000,0.000054,0.000000,0.000000,0.000000,0.000000,0.000000,0.000000,1.598588,0.373501,0.078589,-0.832053,0.233617,0.905939,0.743845
0.237000,-0.500000,-0.500000,0.800000,0.999924,0.004776,-0.011320,0.001026,-0.500000,-0.499856,0.800000,0.999924,0.004776,-0.011320,0.001026,200.000000,100.000000,0.000000,0.000051,0.000000,0.000000,0.000000,0.000000,0.000000,0.000000,1.598588,0.373501,0.078589,-0.832053,0.233617,0.905939,0.743845
0.238000,-0.500000,-0.500000,0.800000,0.999924,0.004776,-0.011320,0.001026,-0.500000,-0.499840,0.800000,0.999924,0.004776,-0.011320,0.001026,200.000000,100.000000,0.000000,0.000060,0.000000,0.000000,0.000000,0.000000,0.000000,0.000000,1.598588,0.373501,0.078589,-0.832053,0.233617,0.905939,0.743845
0.239000,-0.500000,-0.499999,0.800000,0.999924,0.004776,-0.011320,0.001026,-0.500000,-0.499832,0.800000,0.999924,0.004776,-0.011320,0.001026,200.000000,100.000000,0.000000,0.000057,0.000000,0.000000,0.000000,0.000000,0.000000,0.000000,1.598588,0.373501,0.078589,-0.832054,0.233617,0.905939,0.743845
0.240000,-0.500000,-0.499999,0.800000,0.999924,0.004776,-0.011320,0.001026,-0.500000,-0.499824,0.800000,0.999924,0.004776,-0.011320,0.001026,200.000000,100.000000,0.000000,0.000065,0.000000,0.000000,0.000000,0.000000,0.000000,0.000000,1.598588,0.373501,0.078589,-0.832054,0.233617,0.905939,0.743845
0.241000,-0.500000,-0.499999,0.800000,0.999924,0.004776,-0.011320,0.001026,-0.500000,-0.499815,0.800000,0.999924,0.004776,-0.011320,0.001026,200.000000,100.000000,0.000000,0.000061,0.000000,0.000000,0.000000,0.000000,0.000000,0.000000,1.598588,0.373501,0.078589,-0.832054,0.233617,0.905939,0.743845
0.242000,-0.500000,-0.499999,0.800000,0.999924,0.004776,-0.011320,0.001026,-0.500000,-0.499806,0.800000,0.999924,0.004776,-0.011320,0.001026,200.000000,100.000000,0.000000,0.000072,0.000000,0.000000,0.000000,0.000000,0.000000,0.000000,1.598588,0.373501,0.078589,-0.832054,0.233617,0.905939,0.743845
0.243000,-0.500000,-0.499999,0.800000,0.999924,0.004776,-0.011320,0.001026,-0.500000,-0.499797,0.800000,0.999924,0.004776,-0.011320,0.001026,200.000000,100.000000,0.000000,0.000069,0.000000,0.000000,0.000000,0.000000,0.000000,0.000000,1.598588,0.373501,0.078588,-0.832054,0.233617,0.905939,0.743845
0.244000,-0.500000,-0.499999,0.800000,0.999924,0.004776,-0.011320,0.001026,-0.500000,-0.499788,0.800000,0.999924,0.004776,-0.011320,0.001026,200.000000,100.000000,0.000000,0.000080,0.000000,0.000000,0.000000,0.000000,0.000000,0.000000,1.598588,0.373501,0.078588,-0.832054,0.233617,0.905939,0.743844
0.244000,-0.500000,-0.499999,0.800000,0.999924,0.004776,-0.011320,0.001026,-0.500000,-0.499788,0.800000,0.999924,0.004776,-0.011320,0.001026,200.000000,100.000000,0.000000,0.000077,0.000000,0.000000,0.000000,0.000000,0.000000,0.000000,1.598588,0.373500,0.078588,-0.832055,0.233618,0.905939,0.743844
0.246000,-0.500000,-0.499999,0.800000,0.999924,0.004776,-0.011320,0.001026,-0.500000,-0.499788,0.800000,0.999924,0.004776,-0.011320,0.001026,200.000000,100.000000,0.000000,0.000089,0.000000,0.000000,0.000000,0.000000,0.000000,0.000000,1.598588,0.373501,0.078588,-0.832055,0.233618,0.905939,0.743844
0.247000,-0.500000,-0.499999,0.800000,0.999924,0.004776,-0.011320,0.001026,-0.500000,-0.499770,0.800000,0.999924,0.004776,-0.011320,0.001026,200.000000,100.000000,0.000000,0.000085,0.000000,0.000000,0.000000,0.000000,0.000000,0.000000,1.598588,0.373500,0.078588,-0.832055,0.233618,0.905938,0.743844
0.248000,-0.500000,-0.499999,0.800000,0.999924,0.004776,-0.011320,0.001026,-0.500000,-0.499750,0.800000,0.999924,0.004776,-0.011320,0.001026,200.000000,100.000000,0.000000,0.000097,0.000000,0.000000,0.000000,0.000000,0.000000,0.000000,1.598588,0.373500,0.078588,-0.832055,0.233618,0.905938,0.743844
0.249000,-0.500000,-0.499999,0.800000,0.999924,0.004776,-0.011320,0.001026,-0.500000,-0.499750,0.800000,0.999924,0.004776,-0.011320,0.001026,200.000000,100.000000,0.000000,0.000094,0.000000,0.000000,0.000000,0.000000,0.000000,0.000000,1.598588,0.373500,0.078588,-0.832056,0.233618,0.905938,0.743844
0.250000,-0.500000,-0.499999,0.800000,0.999924,0.004776,-0.011320,0.001026,-0.500000,-0.499730,0.800000,0.999924,0.004776,-0.011320,0.001026,200.000000,100.000000,0.000000,0.000107,0.000000,0.000000,0.000000,0.000000,0.000000,0.000000,1.598588,0.373500,0.078588,-0.832056,0.233618,0.905938,0.743844
0.251000,-0.500000,-0.499999,0.800000,0.999924,0.004776,-0.011320,0.001026,-0.500000,-0.499719,0.800000,0.999924,0.004776,-0.011320,0.001026,200.000000,100.000000,0.000000,0.000104,0.000000,0.000000,0.000000,0.000000,0.000000,0.000000,1.598588,0.373500,0.078588,-0.832056,0.233619,0.905938,0.743843
0.252000,-0.500000,-0.499999,0.800000,0.999924,0.004776,-0.011320,0.001026,-0.500000,-0.499708,0.800000,0.999924,0.004776,-0.011320,0.001026,200.000000,100.000000,0.000000,0.000118,0.000000,0.000000,0.000000,0.000000,0.000000,0.000000,1.598588,0.373500,0.078588,-0.832056,0.233619,0.905938,0.743843
0.252000,-0.500000,-0.499998,0.800000,0.999924,0.004776,-0.011320,0.001026,-0.500000,-0.499697,0.800000,0.999924,0.004776,-0.011320,0.001026,200.000000,100.000000,0.000000,0.000116,0.000000,0.000000,0.000000,0.000000,0.000000,0.000000,1.598588,0.373500,0.078587,-0.832057,0.233619,0.905938,0.743843
0.254000,-0.500000,-0.499998,0.800000,0.999924,0.004776,-0.011320,0.001025,-0.500000,-0.499697,0.800000,0.999924,0.004776,-0.011320,0.001026,200.000000,100.000000,0.000000,0.000129,0.000000,0.000000,0.000000,0.000000,0.000000,0.000000,1.598588,0.373500,0.078587,-0.832057,0.233619,0.905937,0.743843
0.255000,-0.500000,-0.499998,0.800000,0.999924,0.004776,-0.011320,0.001025,-0.500000,-0.499675,0.800000,0.999924,0.004776,-0.011320,0.001026,200.000000,100.000000,0.000000,0.000127,0.000000,0.000000,0.000000,0.000000,0.000000,0.000000,1.598587,0.373500,0.078587,-0.832058,0.233619,0.905937,0.743842
0.256000,-0.500000,-0.499998,0.799999,0.999924,0.004776,-0.011320,0.001025,-0.500000,-0.499664,0.800000,0.999924,0.004776,-0.011320,0.001026,200.000000,100.000000,0.000000,0.000142,0.000000,0.000000,0.000000,0.000000,0.000000,0.000000,1.598587,0.373500,0.078587,-0.832058,0.233620,0.905937,0.743842
0.257000,-0.500000,-0.499998,0.799999,0.999924,0.004776,-0.011320,0.001025,-0.500000,-0.499652,0.800000,0.999924,0.004776,-0.011320,0.001026,200.000000,100.000000,0.000000,0.000141,0.000000,0.000000,0.000000,0.000000,0.000000,0.000000,1.598587,0.373499,0.078587,-0.832058,0.233620,0.905937,0.743842
0.258000,-0.500000,-0.499998,0.799999,0.999924,0.004776,-0.011320,0.001025,-0.500000,-0.499640,0.800000,0.999924,0.004776,-0.011320,0.001026,200.000000,100.000000,0.000000,0.000156,0.000000,0.000000,0.000000,0.000000,0.000000,0.000000,1.598587,0.373499,0.078587,-0.832059,0.233620,0.905937,0.743842
0.259000,-0.500000,-0.499998,0.799999,0.999924,0.004776,-0.011321,0.001025,-0.500000,-0.499640,0.800000,0.999924,0.004776,-0.011320,0.001026,200.000000,100.000000,0.000000,0.000156,0.000000,0.000000,0.000000,0.000000,0.000000,0.000000,1.598587,0.373499,0.078587,-0.832059,0.233620,0.905936,0.743841
0.260000,-0.500000,-0.499997,0.799999,0.999924,0.004776,-0.011321,0.001025,-0.500000,-0.499616,0.800000,0.999924,0.004776,-0.011320,0.001026,200.000000,100.000000,0.000000,0.000170,0.000000,0.000000,0.000000,0.000000,0.000000,0.000000,1.598587,0.373499,0.078586,-0.832060,0.233621,0.905936,0.743841
0.261000,-0.500000,-0.499997,0.799999,0.999924,0.004776,-0.011321,0.001025,-0.500000,-0.499616,0.800000,0.999924,0.004776,-0.011320,0.001026,200.000000,100.000000,0.000000,0.000170,0.000000,0.000000,0.000000,0.000000,0.000000,0.000000,1.598587,0.373499,0.078586,-0.832060,0.233621,0.905936,0.743841
0.262000,-0.500000,-0.499997,0.799999,0.999924,0.004776,-0.011321,0.001025,-0.500000,-0.499603,0.800000,0.999924,0.004776,-0.011320,0.001026,200.000000,100.000000,0.000000,0.000186,0.000000,0.000000,0.000000,0.000000,0.000000,0.000000,1.598587,0.373499,0.078586,-0.832061,0.233621,0.905936,0.743840
0.263000,-0.500001,-0.499997,0.799999,0.999924,0.004776,-0.011321,0.001025,-0.500000,-0.499577,0.800000,0.999924,0.004776,-0.011320,0.001026,200.000000,100.000000,0.000000,0.000186,0.000000,0.000000,0.000000,0.000000,0.000000,0.000000,1.598587,0.373499,0.078586,-0.832061,0.233622,0.905935,0.743840
0.264000,-0.500001,-0.499997,0.799999,0.999924,0.004776,-0.011321,0.001025,-0.500000,-0.499577,0.800000,0.999924,0.004776,-0.011320,0.001026,200.000000,100.000000,0.000000,0.000202,0.000000,0.000000,0.000000,0.000000,0.000000,0.000000,1.598587,0.373499,0.078586,-0.832062,0.233622,0.905935,0.743840
0.265000,-0.500001,-0.499997,0.799999,0.999924,0.004776,-0.011321,0.001025,-0.500000,-0.499551,0.800000,0.999924,0.004776,-0.011320,0.001026,200.000000,100.000000,0.000000,0.000203,0.000000,0.000000,0.000000,0.000000,0.000000,0.000000,1.598586,0.373498,0.078585,-0.832063,0.233623,0.905935,0.743839
0.266000,-0.500001,-0.499996,0.799999,0.999924,0.004776,-0.011321,0.001025,-0.500000,-0.499538,0.800000,0.999924,0.004776,-0.011320,0.001026,200.000000,100.000000,0.000000,0.000219,0.000000,0.000000,0.000000,0.000000,0.000000,0.000000,1.598586,0.373498,0.078585,-0.832063,0.233623,0.905935,0.743839
0.267000,-0.500001,-0.499996,0.799999,0.999924,0.004776,-0.011321,0.001025,-0.500000,-0.499524,0.800000,0.999924,0.004776,-0.011320,0.001026,200.000000,100.000000,0.000000,0.000221,0.000000,0.000000,0.000000,0.000000,0.000000,0.000000,1.598586,0.373498,0.078585,-0.832064,0.233623,0.905934,0.743838
0.267000,-0.500001,-0.499996,0.799999,0.999924,0.004776,-0.011321,0.001025,-0.500000,-0.499524,0.800000,0.999924,0.004776,-0.011320,0.001026,200.000000,100.000000,0.000000,0.000238,0.000000,0.000000,0.000000,0.000000,0.000000,0.000000,1.598586,0.373498,0.078585,-0.832065,0.233624,0.905934,0.743838
0.269000,-0.500001,-0.499996,0.799999,0.999924,0.004776,-0.011321,0.001025,-0.500000,-0.499510,0.800000,0.999924,0.004776,-0.011320,0.001026,200.000000,100.000000,0.000000,0.000239,0.000000,0.000000,0.000000,0.000000,0.000000,0.000000,1.598586,0.373498,0.078584,-0.832065,0.233624,0.905934,0.743837
0.270000,-0.500001,-0.499995,0.799999,0.999924,0.004776,-0.011321,0.001025,-0.500000,-0.499482,0.800000,0.999924,0.004776,-0.011320,0.001026,200.000000,100.000000,0.000000,0.000257,0.000000,0.000000,0.000000,0.000000,0.000000,0.000000,1.598586,0.373498,0.078584,-0.832066,0.233625,0.905933,0.743837
0.271000,-0.500001,-0.499995,0.799999,0.999924,0.004776,-0.011321,0.001025,-0.500000,-0.499467,0.800000,0.999924,0.004776,-0.011320,0.001026,200.000000,100.000000,0.000000,0.000260,0.000000,0.000000,0.000000,0.000000,0.000000,0.000000,1.598585,0.373497,0.078584,-0.832067,0.233625,0.905933,0.743836
0.272000,-0.500001,-0.499995,0.799999,0.999924,0.004776,-0.011321,0.001024,-0.500000,-0.499452,0.800000,0.999924,0.004776,-0.011320,0.001026,200.000000,100.000000,0.000000,0.000278,0.000000,0.000000,0.000000,0.000000,0.000000,0.000000,1.598585,0.373497,0.078584,-0.832068,0.233626,0.905932,0.743836
0.273000,-0.500001,-0.499995,0.799999,0.999924,0.004776,-0.011321,0.001024,-0.500000,-0.499452,0.800000,0.999924,0.004776,-0.011320,0.001026,200.000000,100.000000,0.000000,0.000280,0.000000,0.000000,0.000000,0.000000,0.000000,0.000000,1.598585,0.373497,0.078583,-0.832069,0.233626,0.905932,0.743835
0.273000,-0.500001,-0.499994,0.799999,0.999924,0.004776,-0.011321,0.001024,-0.500000,-0.499437,0.800000,0.999924,0.004776,-0.011320,0.001026,200.000000,100.000000,0.000000,0.000299,0.000000,0.000000,0.000000,0.000000,0.000000,0.000000,1.598585,0.373497,0.078583,-0.832069,0.233627,0.905932,0.743835
0.275000,-0.500001,-0.499994,0.799999,0.999924,0.004776,-0.011321,0.001024,-0.500000,-0.499437,0.800000,0.999924,0.004776,-0.011320,0.001026,200.000000,100.000000,0.000000,0.000302,0.000000,0.000000,0.000000,0.000000,0.000000,0.000000,1.598585,0.373496,0.078583,-0.832070,0.233627,0.905931,0.743834
0.276000,-0.500001,-0.499994,0.799998,0.999924,0.004776,-0.011321,0.001024,-0.500000,-0.499392,0.800000,0.999924,0.004776,-0.011320,0.001026,200.000000,100.000000,0.000000,0.000321,0.000000,0.000000,0.000000,0.000000,0.000000,0.000000,1.598585,0.373496,0.078582,-0.832071,0.233628,0.905931,0.743833
0.276000,-0.500001,-0.499993,0.799998,0.999924,0.004776,-0.011321,0.001024,-0.500000,-0.499392,0.800000,0.999924,0.004776,-0.011320,0.001026,200.000000,100.000000,0.000000,0.000325,0.000000,0.000000,0.000000,0.000000,0.000000,0.000000,1.598584,0.373496,0.078582,-0.832072,0.233629,0.905930,0.743833
0.278000,-0.500001,-0.499993,0.799998,0.999924,0.004776,-0.011321,0.001024,-0.500000,-0.499376,0.800000,0.999924,0.004776,-0.011320,0.001026,200.000000,100.000000,0.000000,0.000345,0.000000,0.000000,0.000000,0.000000,0.000000,0.000000,1.598584,0.373496,0.078582,-0.832073,0.233629,0.905930,0.743832
0.279000,-0.500001,-0.499993,0.799998,0.999924,0.004776,-0.011321,0.001024,-0.500000,-0.499376,0.800000,0.999924,0.004776,-0.011320,0.001026,200.000000,100.000000,0.000000,0.000349,0.000000,0.000000,0.000000,0.000000,0.000000,0.000000,1.598584,0.373495,0.078581,-0.832074,0.233630,0.905929,0.743831
0.280000,-0.500001,-0.499992,0.799998,0.999924,0.004776,-0.011321,0.001024,-0.500000,-0.499344,0.800000,0.999924,0.004776,-0.011320,0.001026,200.000000,100.000000,0.000000,0.000369,0.000000,0.000000,0.000000,0.000000,0.000000,0.000000,1.598584,0.373495,0.078581,-0.832076,0.233630,0.905929,0.743831
0.281000,-0.500001,-0.499992,0.799998,0.999924,0.004776,-0.011321,0.001024,-0.500000,-0.499328,0.800000,0.999924,0.004776,-0.011320,0.001026,200.000000,100.000000,0.000000,0.000373,0.000000,0.000000,0.000000,0.000000,0.000000,0.000000,1.598583,0.373495,0.078581,-0.832077,0.233631,0.905928,0.743830
0.282000,-0.500001,-0.499992,0.799998,0.999924,0.004776,-0.011321,0.001024,-0.500000,-0.499328,0.800000,0.999924,0.004776,-0.011320,0.001026,200.000000,100.000000,0.000000,0.000394,0.000000,0.000000,0.000000,0.000000,0.000000,0.000000,1.598583,0.373494,0.078580,-0.832078,0.233632,0.905927,0.743829
0.283000,-0.500001,-0.499991,0.799998,0.999924,0.004776,-0.011321,0.001023,-0.500000,-0.499277,0.800000,0.999924,0.004776,-0.011320,0.001026,200.000000,100.000000,0.000000,0.000399,0.000000,0.000000,0.000000,0.000000,0.000000,0.000000,1.598583,0.373494,0.078580,-0.832079,0.233633,0.905927,0.743828
0.284000,-0.500001,-0.499991,0.799998,0.999924,0.004776,-0.011321,0.001023,-0.500000,-0.499260,0.800000,0.999924,0.004776,-0.011320,0.001026,200.000000,100.000000,0.000000,0.000421,0.000000,0.000000,0.000000,0.000000,0.000000,0.000000,1.598582,0.373494,0.078579,-0.832080,0.233633,0.905926,0.743828
0.285000,-0.500002,-0.499991,0.799998,0.999924,0.004776,-0.011321,0.001023,-0.500000,-0.499260,0.800000,0.999924,0.004776,-0.011320,0.001026,200.000000,100.000000,0.000000,0.000427,0.000000,0.000000,0.000000,0.000000,0.000000,0.000000,1.598582,0.373493,0.078579,-0.832082,0.233634,0.905926,0.743827
0.286000,-0.500002,-0.499990,0.799997,0.999924,0.004776,-0.011321,0.001023,-0.500000,-0.499226,0.800000,0.999924,0.004776,-0.011320,0.001026,200.000000,100.000000,0.000000,0.000449,0.000000,0.000000,0.000000,0.000000,0.000000,0.000000,1.598582,0.373493,0.078579,-0.832083,0.233635,0.905925,0.743826
0.287000,-0.500002,-0.499990,0.799997,0.999924,0.004776,-0.011321,0.001023,-0.500000,-0.499226,0.800000,0.999924,0.004776,-0.011320,0.001026,200.000000,100.000000,0.000000,0.000456,0.000000,0.000000,0.000000,0.000000,0.000000,0.000000,1.598581,0.373493,0.078578,-0.832084,0.233636,0.905924,0.743825
0.288000,-0.500002,-0.499989,0.799997,0.999924,0.004776,-0.011321,0.001023,-0.500000,-0.499190,0.800000,0.999924,0.004776,-0.011320,0.001026,200.000000,100.000000,0.000000,0.000479,0.000000,0.000000,0.000000,0.000000,0.000000,0.000000,1.598581,0.373492,0.078578,-0.832086,0.233637,0.905923,0.743824
0.289000,-0.500002,-0.499989,0.799997,0.999924,0.004776,-0.011321,0.001023,-0.500000,-0.499172,0.800000,0.999924,0.004776,-0.011320,0.001026,200.000000,100.000000,0.000000,0.000486,0.000000,0.000000,0.000000,0.000000,0.000000,0.000000,1.598581,0.373492,0.078577,-0.832087,0.233638,0.905923,0.743823
0.290000,-0.500002,-0.499988,0.799997,0.999924,0.004776,-0.011321,0.001023,-0.500000,-0.499172,0.800000,0.999924,0.004776,-0.011320,0.001026,200.000000,100.000000,0.000000,0.000510,0.000000,0.000000,0.000000,0.000000,0.000000,0.000000,1.598580,0.373491,0.078577,-0.832089,0.233639,0.905922,0.743822
0.291000,-0.500002,-0.499988,0.799997,0.999924,0.004776,-0.011321,0.001022,-0.500000,-0.499135,0.800000,0.999924,0.004776,-0.011320,0.001026,200.000000,100.000000,0.000000,0.000517,0.000000,0.000000,0.000000,0.000000,0.000000,0.000000,1.598580,0.373491,0.078576,-0.832091,0.233640,0.905921,0.743821
0.292000,-0.500002,-0.499987,0.799997,0.999924,0.004776,-0.011321,0.001022,-0.500000,-0.499135,0.800000,0.999924,0.004776,-0.011320,0.001026,200.000000,100.000000,0.000000,0.000541,0.000000,0.000000,0.000000,0.000000,0.000000,0.000000,1.598580,0.373491,0.078576,-0.832092,0.233641,0.905920,0.743820
0.293000,-0.500002,-0.499987,0.799997,0.999924,0.004776,-0.011321,0.001022,-0.500000,-0.499116,0.800000,0.999924,0.004776,-0.011320,0.001026,200.000000,100.000000,0.000000,0.000549,0.000000,0.000000,0.000000,0.000000,0.000000,0.000000,1.598579,0.373490,0.078575,-0.832094,0.233642,0.905920,0.743819
0.294000,-0.500002,-0.499986,0.799996,0.999924,0.004776,-0.011321,0.001022,-0.500000,-0.499078,0.800000,0.999924,0.004776,-0.011320,0.001026,200.000000,100.000000,0.000000,0.000574,0.000000,0.000000,0.000000,0.000000,0.000000,0.000000,1.598579,0.373490,0.078575,-0.832095,0.233643,0.905919,0.743818
0.295000,-0.500002,-0.499986,0.799996,0.999924,0.004776,-0.011321,0.001022,-0.500000,-0.499078,0.800000,0.999924,0.004776,-0.011320,0.001026,200.000000,100.000000,0.000000,0.000583,0.000000,0.000000,0.000000,0.000000,0.000000,0.000000,1.598578,0.373489,0.078574,-0.832097,0.233644,0.905918,0.743816
0.296000,-0.500002,-0.499985,0.799996,0.999924,0.004776,-0.011321,0.001022,-0.500000,-0.499040,0.800000,0.999924,0.004776,-0.011320,0.001026,200.000000,100.000000,0.000000,0.000608,0.000000,0.000000,0.000000,0.000000,0.000000,0.000000,1.598578,0.373489,0.078573,-0.832099,0.233645,0.905917,0.743815
0.297000,-0.500003,-0.499984,0.799996,0.999924,0.004776,-0.011321,0.001022,-0.500000,-0.499040,0.800000,0.999924,0.004776,-0.011320,0.001026,200.000000,100.000000,0.000000,0.000618,0.000000,0.000000,0.000000,0.000000,0.000000,0.000000,1.598578,0.373488,0.078573,-0.832101,0.233646,0.905916,0.743814
0.298000,-0.500003,-0.499984,0.799996,0.999924,0.004776,-0.011321,0.001021,-0.500000,-0.499020,0.800000,0.999924,0.004776,-0.011320,0.001026,200.000000,100.000000,0.000000,0.000643,0.000000,0.000000,0.000000,0.000000,0.000000,0.000000,1.598577,0.373488,0.078572,-0.832103,0.233647,0.905915,0.743813
0.299000,-0.500003,-0.499983,0.799996,0.999924,0.004776,-0.011321,0.001021,-0.500000,-0.498980,0.800000,0.999924,0.004776,-0.011320,0.001026,200.000000,100.000000,0.000000,0.000653,0.000000,0.000000,0.000000,0.000000,0.000000,0.000000,1.598577,0.373487,0.078572,-0.832105,0.233649,0.905914,0.743811
0.300000,-0.500003,-0.499983,0.799996,0.999924,0.004776,-0.011321,0.001021,-0.500000,-0.498960,0.800000,0.999924,0.004776,-0.011320,0.001026,200.000000,100.000000,0.000000,0.000680,0.000000,0.000000,0.000000,0.000000,0.000000,0.000000,1.598576,0.373487,0.078571,-0.832107,0.233650,0.905913,0.743810
0.300000,-0.500003,-0.499982,0.799995,0.999924,0.004776,-0.011321,0.001021,-0.500000,-0.498939,0.800000,0.999924,0.004776,-0.011320,0.001026,200.000000,100.000000,0.000000,0.000691,0.000000,0.000000,0.000000,0.000000,0.000000,0.000000,1.598576,0.373486,0.078570,-0.832109,0.233651,0.905912,0.743809
0.302000,-0.500003,-0.499981,0.799995,0.999924,0.004776,-0.011321,0.001021,-0.500000,-0.498939,0.800000,0.999924,0.004776,-0.011320,0.001026,200.000000,100.000000,0.000000,0.000719,0.000000,0.000000,0.000000,0.000000,0.000000,0.000000,1.598575,0.373485,0.078570,-0.832111,0.233653,0.905911,0.743807
0.303000,-0.500003,-0.499981,0.799995,0.999924,0.004776,-0.011321,0.001021,-0.500000,-0.498897,0.800000,0.999924,0.004776,-0.011320,0.001026,200.000000,100.000000,0.000000,0.000730,0.000000,0.000000,0.000000,0.000000,0.000000,0.000000,1.598574,0.373485,0.078569,-0.832114,0.233654,0.905910,0.743806
0.304000,-0.500003,-0.499980,0.799995,0.999924,0.004776,-0.011321,0.001020,-0.500000,-0.498876,0.800000,0.999924,0.004776,-0.011320,0.001026,200.000000,100.000000,0.000000,0.000758,0.000000,0.000000,0.000000,0.000000,0.000000,0.000000,1.598574,0.373484,0.078568,-0.832116,0.233655,0.905908,0.743804
0.305000,-0.500003,-0.499979,0.799995,0.999924,0.004776,-0.011321,0.001020,-0.500000,-0.498855,0.800000,0.999924,0.004776,-0.011320,0.001026,200.000000,100.000000,0.000000,0.000770,0.000000,0.000000,0.000000,0.000000,0.000000,0.000000,1.598573,0.373484,0.078568,-0.832118,0.233657,0.905907,0.743803
0.306000,-0.500004,-0.499978,0.799994,0.999924,0.004776,-0.011321,0.001020,-0.500000,-0.498834,0.800000,0.999924,0.004776,-0.011320,0.001026,200.000000,100.000000,0.000000,0.000799,0.000000,0.000000,0.000000,0.000000,0.000000,0.000000,1.598573,0.373483,0.078567,-0.832121,0.233658,0.905906,0.743801
0.307000,-0.500004,-0.499978,0.799994,0.999924,0.004776,-0.011321,0.001020,-0.500000,-0.498834,0.800000,0.999924,0.004776,-0.011320,0.001026,200.000000,100.000000,0.000000,0.000812,0.000000,0.000000,0.000000,0.000000,0.000000,0.000000,1.598572,0.373482,0.078566,-0.832123,0.233660,0.905905,0.743800
0.308000,-0.500004,-0.499977,0.799994,0.999924,0.004776,-0.011321,0.001020,-0.500000,-0.498790,0.800000,0.999924,0.004776,-0.011320,0.001026,200.000000,100.000000,0.000000,0.000841,0.000000,0.000000,0.000000,0.000000,0.000000,0.000000,1.598572,0.373482,0.078565,-0.832126,0.233661,0.905903,0.743798
0.309000,-0.500004,-0.499976,0.799994,0.999924,0.004776,-0.011321,0.001019,-0.500000,-0.498790,0.800000,0.999924,0.004776,-0.011320,0.001026,200.000000,100.000000,0.000000,0.000855,0.000000,0.000000,0.000000,0.000000,0.000000,0.000000,1.598571,0.373481,0.078565,-0.832128,0.233663,0.905902,0.743796
0.310000,-0.500004,-0.499975,0.799994,0.999924,0.004776,-0.011321,0.001019,-0.500000,-0.498746,0.800000,0.999924,0.004776,-0.011320,0.001026,200.000000,100.000000,0.000000,0.000884,0.000000,0.000000,0.000000,0.000000,0.000000,0.000000,1.598570,0.373480,0.078564,-0.832131,0.233665,0.905901,0.743794
0.311000,-0.500004,-0.499974,0.799993,0.999924,0.004776,-0.011321,0.001019,-0.500000,-0.498723,0.800000,0.999924,0.004776,-0.011320,0.001026,200.000000,100.000000,0.000000,0.000899,0.000000,0.000000,0.000000,0.000000,0.000000,0.000000,1.598569,0.373479,0.078563,-0.832134,0.233667,0.905899,0.743793
0.312000,-0.500004,-0.499973,0.799993,0.999924,0.004776,-0.011321,0.001019,-0.500000,-0.498723,0.800000,0.999924,0.004776,-0.011320,0.001026,200.000000,100.000000,0.000000,0.000930,0.000000,0.000000,0.000000,0.000000,0.000000,0.000000,1.598569,0.373479,0.078562,-0.832137,0.233668,0.905898,0.743791
0.313000,-0.500005,-0.499972,0.799993,0.999924,0.004776,-0.011321,0.001019,-0.500000,-0.498677,0.800000,0.999924,0.004776,-0.011320,0.001026,200.000000,100.000000,0.000000,0.000944,0.000000,0.000000,0.000000,0.000000,0.000000,0.000000,1.598568,0.373478,0.078561,-0.832140,0.233670,0.905896,0.743789
0.314000,-0.500005,-0.499971,0.799993,0.999924,0.004776,-0.011321,0.001018,-0.500000,-0.498654,0.800000,0.999924,0.004776,-0.011320,0.001026,200.000000,100.000000,0.000000,0.000976,0.000000,0.000000,0.000000,0.000000,0.000000,0.000000,1.598567,0.373477,0.078560,-0.832143,0.233672,0.905895,0.743787
0.315000,-0.500005,-0.499971,0.799993,0.999924,0.004776,-0.011321,0.001018,-0.500000,-0.498631,0.800000,0.999924,0.004776,-0.011320,0.001026,200.000000,100.000000,0.000000,0.000992,0.000000,0.000000,0.000000,0.000000,0.000000,0.000000,1.598567,0.373476,0.078560,-0.832146,0.233674,0.905893,0.743785
0.316000,-0.500005,-0.499970,0.799992,0.999924,0.004776,-0.011321,0.001018,-0.500000,-0.498608,0.800000,0.999924,0.004776,-0.011320,0.001026,200.000000,100.000000,0.000000,0.001024,0.000000,0.000000,0.000000,0.000000,0.000000,0.000000,1.598566,0.373475,0.078559,-0.832149,0.233676,0.905892,0.743783
0.317000,-0.500005,-0.499969,0.799992,0.999924,0.004776,-0.011321,0.001018,-0.500000,-0.498584,0.800000,0.999924,0.004776,-0.011320,0.001026,200.000000,100.000000,0.000000,0.001040,0.000000,0.000000,0.000000,0.000000,0.000000,0.000000,1.598565,0.373474,0.078558,-0.832152,0.233678,0.905890,0.743781
0.318000,-0.500005,-0.499968,0.799992,0.999924,0.004776,-0.011321,0.001017,-0.500000,-0.498560,0.800000,0.999924,0.004776,-0.011320,0.001026,200.000000,100.000000,0.000000,0.001073,0.000000,0.000000,0.000000,0.000000,0.000000,0.000000,1.598564,0.373474,0.078557,-0.832155,0.233680,0.905889,0.743779
0.319000,-0.500005,-0.499966,0.799992,0.999924,0.004776,-0.011321,0.001017,-0.500000,-0.498536,0.800000,0.999924,0.004776,-0.011320,0.001026,200.000000,100.000000,0.000000,0.001090,0.000000,0.000000,0.000000,0.000000,0.000000,0.000000,1.598563,0.373473,0.078556,-0.832159,0.233682,0.905887,0.743776
0.320000,-0.500006,-0.499965,0.799991,0.999924,0.004776,-0.011321,0.001017,-0.500000,-0.498512,0.800000,0.999924,0.004776,-0.011320,0.001026,200.000000,100.000000,0.000000,0.001124,0.000000,0.000000,0.000000,0.000000,0.000000,0.000000,1.598562,0.373472,0.078555,-0.832162,0.233684,0.905885,0.743774
0.321000,-0.500006,-0.499964,0.799991,0.999924,0.004776,-0.011321,0.001017,-0.500000,-0.498487,0.800000,0.999924,0.004776,-0.011320,0.001026,200.000000,100.000000,0.000000,0.001142,0.000000,0.000000,0.000000,0.000000,0.000000,0.000000,1.598561,0.373471,0.078554,-0.832166,0.233686,0.905883,0.743772
0.322000,-0.500006,-0.499963,0.799991,0.999924,0.004776,-0.011321,0.001016,-0.500000,-0.498462,0.800000,0.999924,0.004776,-0.011320,0.001026,200.000000,100.000000,0.000000,0.001176,0.000000,0.000000,0.000000,0.000000,0.000000,0.000000,1.598561,0.373470,0.078553,-0.832169,0.233688,0.905881,0.743769
0.323000,-0.500006,-0.499962,0.799990,0.999924,0.004776,-0.011321,0.001016,-0.500000,-0.498437,0.800000,0.999924,0.004776,-0.011320,0.001026,200.000000,100.000000,0.000000,0.001195,0.000000,0.000000,0.000000,0.000000,0.000000,0.000000,1.598560,0.373469,0.078552,-0.832173,0.233691,0.905879,0.743767
0.324000,-0.500006,-0.499961,0.799990,0.999924,0.004776,-0.011321,0.001016,-0.500000,-0.498412,0.800000,0.999924,0.004776,-0.011320,0.001026,200.000000,100.000000,0.000000,0.001230,0.000000,0.000000,0.000000,0.000000,0.000000,0.000000,1.598559,0.373468,0.078551,-0.832177,0.233693,0.905878,0.743764
0.325000,-0.500007,-0.499960,0.799990,0.999924,0.004776,-0.011321,0.001016,-0.500000,-0.498387,0.800000,0.999924,0.004776,-0.011320,0.001026,200.000000,100.000000,0.000000,0.001249,0.000000,0.000000,0.000000,0.000000,0.000000,0.000000,1.598558,0.373467,0.078550,-0.832181,0.233695,0.905876,0.743762
0.325000,-0.500007,-0.499958,0.799990,0.999924,0.004776,-0.011321,0.001015,-0.500000,-0.498362,0.800000,0.999924,0.004776,-0.011320,0.001026,200.000000,100.000000,0.000000,0.001285,0.000000,0.000000,0.000000,0.000000,0.000000,0.000000,1.598557,0.373466,0.078549,-0.832185,0.233698,0.905874,0.743759
0.327000,-0.500007,-0.499957,0.799989,0.999924,0.004776,-0.011321,0.001015,-0.500000,-0.498362,0.800000,0.999924,0.004776,-0.011320,0.001026,200.000000,100.000000,0.000000,0.001305,0.000000,0.000000,0.000000,0.000000,0.000000,0.000000,1.598556,0.373465,0.078547,-0.832189,0.233700,0.905871,0.743757
0.327000,-0.500007,-0.499956,0.799989,0.999924,0.004776,-0.011321,0.001015,-0.500000,-0.498310,0.800000,0.999924,0.004776,-0.011320,0.001026,200.000000,100.000000,0.000000,0.001340,0.000000,0.000000,0.000000,0.000000,0.000000,0.000000,1.598555,0.373464,0.078546,-0.832193,0.233703,0.905869,0.743754
0.329000,-0.500007,-0.499955,0.799989,0.999924,0.004776,-0.011321,0.001014,-0.500000,-0.498310,0.800000,0.999924,0.004776,-0.011320,0.001026,200.000000,100.000000,0.000000,0.001361,0.000000,0.000000,0.000000,0.000000,0.000000,0.000000,1.598553,0.373462,0.078545,-0.832197,0.233705,0.905867,0.743751
0.330000,-0.500008,-0.499953,0.799988,0.999924,0.004776,-0.011321,0.001014,-0.500000,-0.498284,0.800000,0.999924,0.004776,-0.011320,0.001026,200.000000,100.000000,0.000000,0.001398,0.000000,0.000000,0.000000,0.000000,0.000000,0.000000,1.598552,0.373461,0.078544,-0.832201,0.233708,0.905865,0.743748
0.331000,-0.500008,-0.499952,0.799988,0.999924,0.004776,-0.011321,0.001014,-0.500000,-0.498258,0.800000,0.999924,0.004776,-0.011320,0.001026,200.000000,100.000000,0.000000,0.001419,0.000000,0.000000,0.000000,0.000000,0.000000,0.000000,1.598551,0.373460,0.078543,-0.832206,0.233711,0.905863,0.743746
0.332000,-0.500008,-0.499951,0.799988,0.999924,0.004776,-0.011321,0.001013,-0.500000,-0.498204,0.800000,0.999924,0.004776,-0.011320,0.001026,200.000000,100.000000,0.000000,0.001456,0.000000,0.000000,0.000000,0.000000,0.000000,0.000000,1.598550,0.373459,0.078542,-0.832210,0.233713,0.905860,0.743743
