matthias-mayr/cartesian_trajectory_generator/generated_logs/long_trajectory1.txt
time,position_x,position_y,position_z,orientation_x,orientation_y,orientation_z,orientation_w,position_d_x,position_d_y,position_d_z,orientation_d_x,orientation_d_y,orientation_d_z,orientation_d_w,translational_stiffness,rotational_stiffness,nullspace_stiffness,velocity,f_x,f_y,f_z,tau_x,tau_x,tau_z,joint1,joint2,joint3,joint4,joint5,joint6,joint7
0.000000,-0.682654,-0.418873,0.826908,0.999093,0.004821,-0.038948,0.016542,-0.800000,-0.500000,0.800000,0.999669,0.004674,-0.024443,0.006535,200.000000,100.000000,0.000000,0.000040,0.000000,0.000000,0.000000,0.000000,0.000000,0.000000,1.312037,0.827869,0.971215,0.000008,-0.461101,1.301404,0.599159
0.001000,-0.682654,-0.418873,0.826908,0.999093,0.004821,-0.038948,0.016542,-0.800000,-0.500000,0.800000,0.999669,0.004674,-0.024443,0.006535,200.000000,100.000000,0.000000,0.000039,0.000000,0.000000,0.000000,0.000000,0.000000,0.000000,1.312037,0.827869,0.971215,0.000008,-0.461101,1.301404,0.599159
0.002000,-0.682654,-0.418873,0.826908,0.999093,0.004821,-0.038948,0.016542,-0.800000,-0.500000,0.800000,0.999669,0.004674,-0.024443,0.006535,200.000000,100.000000,0.000000,0.000040,0.000000,0.000000,0.000000,0.000000,0.000000,0.000000,1.312037,0.827869,0.971215,0.000008,-0.461101,1.301404,0.599159
0.003000,-0.682654,-0.418873,0.826908,0.999093,0.004821,-0.038948,0.016542,-0.800000,-0.500000,0.800000,0.999669,0.004674,-0.024443,0.006535,200.000000,100.000000,0.000000,0.000039,0.000000,0.000000,0.000000,0.000000,0.000000,0.000000,1.312037,0.827869,0.971215,0.000008,-0.461101,1.301404,0.599159
0.004000,-0.682654,-0.418873,0.826908,0.999093,0.004821,-0.038948,0.016542,-0.800000,-0.500000,0.800000,0.999669,0.004674,-0.024443,0.006535,200.000000,100.000000,0.000000,0.000040,0.000000,0.000000,0.000000,0.000000,0.000000,0.000000,1.312037,0.827869,0.971215,0.000008,-0.461101,1.301404,0.599159
0.005000,-0.682654,-0.418873,0.826908,0.999093,0.004821,-0.038948,0.016542,-0.800000,-0.500000,0.800000,0.999669,0.004674,-0.024443,0.006535,200.000000,100.000000,0.000000,0.000039,0.000000,0.000000,0.000000,0.000000,0.000000,0.000000,1.312037,0.827869,0.971215,0.000008,-0.461101,1.301404,0.599159
0.006000,-0.682654,-0.418873,0.826908,0.999093,0.004821,-0.038948,0.016542,-0.800000,-0.500000,0.800000,0.999669,0.004674,-0.024443,0.006535,200.000000,100.000000,0.000000,0.000040,0.000000,0.000000,0.000000,0.000000,0.000000,0.000000,1.312037,0.827869,0.971215,0.000008,-0.461101,1.301404,0.599159
0.007000,-0.682654,-0.418873,0.826908,0.999093,0.004821,-0.038948,0.016542,-0.682654,-0.418873,0.826908,0.999093,0.004821,-0.038948,0.016542,200.000000,100.000000,0.000000,0.000038,0.000000,0.000000,0.000000,0.000000,0.000000,0.000000,1.312037,0.827869,0.971215,0.000008,-0.461101,1.301404,0.599159
0.008000,-0.682654,-0.418873,0.826908,0.999093,0.004821,-0.038948,0.016542,-0.682654,-0.418872,0.826908,0.999093,0.004821,-0.038948,0.016542,200.000000,100.000000,0.000000,0.000040,0.000000,0.000000,0.000000,0.000000,0.000000,0.000000,1.312037,0.827869,0.971215,0.000008,-0.461101,1.301404,0.599159
0.009000,-0.682654,-0.418873,0.826908,0.999093,0.004821,-0.038948,0.016542,-0.682655,-0.418872,0.826908,0.999093,0.004821,-0.038948,0.016542,200.000000,100.000000,0.000000,0.000040,0.000000,0.000000,0.000000,0.000000,0.000000,0.000000,1.312037,0.827869,0.971215,0.000008,-0.461101,1.301404,0.599159
0.010000,-0.682654,-0.418873,0.826908,0.999093,0.004821,-0.038948,0.016542,-0.682655,-0.418871,0.826908,0.999093,0.004821,-0.038948,0.016542,200.000000,100.000000,0.000000,0.000040,0.000000,0.000000,0.000000,0.000000,0.000000,0.000000,1.312037,0.827869,0.971215,0.000008,-0.461101,1.301404,0.599159
0.011000,-0.682654,-0.418873,0.826908,0.999093,0.004821,-0.038948,0.016542,-0.682655,-0.418870,0.826908,0.999093,0.004821,-0.038948,0.016542,200.000000,100.000000,0.000000,0.000038,0.000000,0.000000,0.000000,0.000000,0.000000,0.000000,1.312037,0.827869,0.971215,0.000008,-0.461101,1.301404,0.599159
0.012000,-0.682654,-0.418873,0.826908,0.999093,0.004821,-0.038948,0.016542,-0.682655,-0.418869,0.826908,0.999093,0.004821,-0.038948,0.016542,200.000000,100.000000,0.000000,0.000040,0.000000,0.000000,0.000000,0.000000,0.000000,0.000000,1.312037,0.827869,0.971215,0.000008,-0.461101,1.301404,0.599159
0.012000,-0.682654,-0.418873,0.826908,0.999093,0.004821,-0.038948,0.016542,-0.682655,-0.418868,0.826908,0.999093,0.004821,-0.038948,0.016542,200.000000,100.000000,0.000000,0.000039,0.000000,0.000000,0.000000,0.000000,0.000000,0.000000,1.312037,0.827869,0.971215,0.000008,-0.461101,1.301404,0.599159
0.014000,-0.682654,-0.418873,0.826908,0.999093,0.004821,-0.038948,0.016542,-0.682655,-0.418866,0.826908,0.999093,0.004821,-0.038948,0.016542,200.000000,100.000000,0.000000,0.000040,0.000000,0.000000,0.000000,0.000000,0.000000,0.000000,1.312037,0.827869,0.971215,0.000008,-0.461101,1.301404,0.599159
0.015000,-0.682654,-0.418873,0.826908,0.999093,0.004821,-0.038948,0.016542,-0.682656,-0.418865,0.826908,0.999093,0.004821,-0.038948,0.016542,200.000000,100.000000,0.000000,0.000038,0.000000,0.000000,0.000000,0.000000,0.000000,0.000000,1.312037,0.827869,0.971215,0.000008,-0.461101,1.301404,0.599159
0.016000,-0.682654,-0.418873,0.826908,0.999093,0.004821,-0.038948,0.016542,-0.682656,-0.418863,0.826908,0.999093,0.004821,-0.038948,0.016542,200.000000,100.000000,0.000000,0.000040,0.000000,0.000000,0.000000,0.000000,0.000000,0.000000,1.312037,0.827869,0.971215,0.000008,-0.461101,1.301404,0.599159
0.017000,-0.682654,-0.418873,0.826908,0.999093,0.004821,-0.038948,0.016542,-0.682656,-0.418861,0.826908,0.999093,0.004821,-0.038948,0.016542,200.000000,100.000000,0.000000,0.000039,0.000000,0.000000,0.000000,0.000000,0.000000,0.000000,1.312037,0.827869,0.971215,0.000008,-0.461101,1.301404,0.599159
0.018000,-0.682654,-0.418873,0.826908,0.999093,0.004821,-0.038948,0.016542,-0.682656,-0.418859,0.826907,0.999093,0.004821,-0.038948,0.016542,200.000000,100.000000,0.000000,0.000040,0.000000,0.000000,0.000000,0.000000,0.000000,0.000000,1.312037,0.827869,0.971215,0.000008,-0.461101,1.301404,0.599159
0.019000,-0.682654,-0.418873,0.826908,0.999093,0.004821,-0.038948,0.016542,-0.682657,-0.418856,0.826907,0.999093,0.004821,-0.038948,0.016542,200.000000,100.000000,0.000000,0.000038,0.000000,0.000000,0.000000,0.000000,0.000000,0.000000,1.312037,0.827869,0.971215,0.000008,-0.461101,1.301404,0.599159
0.020000,-0.682654,-0.418873,0.826908,0.999093,0.004821,-0.038948,0.016542,-0.682657,-0.418856,0.826907,0.999093,0.004821,-0.038948,0.016542,200.000000,100.000000,0.000000,0.000040,0.000000,0.000000,0.000000,0.000000,0.000000,0.000000,1.312037,0.827869,0.971215,0.000008,-0.461101,1.301404,0.599159
0.021000,-0.682654,-0.418873,0.826908,0.999093,0.004821,-0.038948,0.016542,-0.682658,-0.418851,0.826907,0.999093,0.004821,-0.038948,0.016542,200.000000,100.000000,0.000000,0.000039,0.000000,0.000000,0.000000,0.000000,0.000000,0.000000,1.312037,0.827869,0.971215,0.000008,-0.461101,1.301404,0.599159
0.022000,-0.682654,-0.418873,0.826908,0.999093,0.004821,-0.038948,0.016542,-0.682658,-0.418847,0.826907,0.999093,0.004821,-0.038948,0.016542,200.000000,100.000000,0.000000,0.000040,0.000000,0.000000,0.000000,0.000000,0.000000,0.000000,1.312037,0.827869,0.971215,0.000008,-0.461101,1.301404,0.599159
0.023000,-0.682654,-0.418873,0.826908,0.999093,0.004821,-0.038948,0.016542,-0.682658,-0.418844,0.826907,0.999093,0.004821,-0.038948,0.016542,200.000000,100.000000,0.000000,0.000037,0.000000,0.000000,0.000000,0.000000,0.000000,0.000000,1.312037,0.827869,0.971216,0.000008,-0.461101,1.301404,0.599159
0.024000,-0.682654,-0.418873,0.826908,0.999093,0.004821,-0.038948,0.016542,-0.682659,-0.418841,0.826907,0.999093,0.004821,-0.038948,0.016542,200.000000,100.000000,0.000000,0.000041,0.000000,0.000000,0.000000,0.000000,0.000000,0.000000,1.312037,0.827869,0.971215,0.000008,-0.461101,1.301404,0.599159
0.025000,-0.682654,-0.418873,0.826908,0.999093,0.004821,-0.038948,0.016542,-0.682660,-0.418837,0.826907,0.999093,0.004821,-0.038948,0.016542,200.000000,100.000000,0.000000,0.000038,0.000000,0.000000,0.000000,0.000000,0.000000,0.000000,1.312037,0.827869,0.971216,0.000008,-0.461101,1.301404,0.599159
0.026000,-0.682654,-0.418873,0.826908,0.999093,0.004821,-0.038948,0.016542,-0.682660,-0.418833,0.826907,0.999093,0.004821,-0.038948,0.016542,200.000000,100.000000,0.000000,0.000041,0.000000,0.000000,0.000000,0.000000,0.000000,0.000000,1.312037,0.827869,0.971215,0.000008,-0.461101,1.301404,0.599159
0.027000,-0.682654,-0.418873,0.826908,0.999093,0.004821,-0.038948,0.016542,-0.682661,-0.418829,0.826906,0.999093,0.004821,-0.038948,0.016542,200.000000,100.000000,0.000000,0.000037,0.000000,0.000000,0.000000,0.000000,0.000000,0.000000,1.312037,0.827869,0.971216,0.000008,-0.461101,1.301404,0.599159
0.028000,-0.682654,-0.418873,0.826908,0.999093,0.004821,-0.038948,0.016542,-0.682661,-0.418825,0.826906,0.999093,0.004821,-0.038948,0.016542,200.000000,100.000000,0.000000,0.000042,0.000000,0.000000,0.000000,0.000000,0.000000,0.000000,1.312037,0.827869,0.971215,0.000008,-0.461101,1.301404,0.599159
0.029000,-0.682654,-0.418873,0.826908,0.999093,0.004821,-0.038948,0.016542,-0.682662,-0.418820,0.826906,0.999093,0.004821,-0.038948,0.016542,200.000000,100.000000,0.000000,0.000037,0.000000,0.000000,0.000000,0.000000,0.000000,0.000000,1.312037,0.827869,0.971216,0.000008,-0.461101,1.301404,0.599159
0.030000,-0.682654,-0.418873,0.826908,0.999093,0.004821,-0.038948,0.016542,-0.682663,-0.418816,0.826906,0.999093,0.004821,-0.038948,0.016542,200.000000,100.000000,0.000000,0.000043,0.000000,0.000000,0.000000,0.000000,0.000000,0.000000,1.312037,0.827869,0.971216,0.000008,-0.461101,1.301404,0.599159
0.031000,-0.682654,-0.418873,0.826908,0.999093,0.004821,-0.038948,0.016542,-0.682663,-0.418811,0.826906,0.999093,0.004821,-0.038948,0.016542,200.000000,100.000000,0.000000,0.000037,0.000000,0.000000,0.000000,0.000000,0.000000,0.000000,1.312037,0.827869,0.971216,0.000008,-0.461101,1.301404,0.599159
0.032000,-0.682654,-0.418873,0.826908,0.999093,0.004821,-0.038948,0.016542,-0.682664,-0.418806,0.826906,0.999093,0.004821,-0.038948,0.016542,200.000000,100.000000,0.000000,0.000044,0.000000,0.000000,0.000000,0.000000,0.000000,0.000000,1.312037,0.827869,0.971216,0.000008,-0.461101,1.301404,0.599159
0.033000,-0.682654,-0.418873,0.826908,0.999093,0.004821,-0.038948,0.016542,-0.682665,-0.418801,0.826906,0.999093,0.004821,-0.038948,0.016542,200.000000,100.000000,0.000000,0.000037,0.000000,0.000000,0.000000,0.000000,0.000000,0.000000,1.312037,0.827869,0.971216,0.000008,-0.461101,1.301404,0.599159
0.033000,-0.682654,-0.418873,0.826908,0.999093,0.004821,-0.038948,0.016542,-0.682665,-0.418795,0.826905,0.999093,0.004821,-0.038948,0.016542,200.000000,100.000000,0.000000,0.000046,0.000000,0.000000,0.000000,0.000000,0.000000,0.000000,1.312037,0.827869,0.971216,0.000008,-0.461101,1.301404,0.599159
0.035000,-0.682654,-0.418873,0.826908,0.999093,0.004821,-0.038948,0.016542,-0.682665,-0.418795,0.826905,0.999093,0.004821,-0.038948,0.016542,200.000000,100.000000,0.000000,0.000037,0.000000,0.000000,0.000000,0.000000,0.000000,0.000000,1.312037,0.827869,0.971216,0.000008,-0.461101,1.301404,0.599159
0.036000,-0.682654,-0.418873,0.826908,0.999093,0.004821,-0.038948,0.016542,-0.682667,-0.418784,0.826905,0.999093,0.004821,-0.038948,0.016542,200.000000,100.000000,0.000000,0.000048,0.000000,0.000000,0.000000,0.000000,0.000000,0.000000,1.312037,0.827869,0.971216,0.000008,-0.461101,1.301404,0.599159
0.037000,-0.682654,-0.418873,0.826908,0.999093,0.004821,-0.038948,0.016542,-0.682667,-0.418784,0.826905,0.999093,0.004821,-0.038948,0.016542,200.000000,100.000000,0.000000,0.000037,0.000000,0.000000,0.000000,0.000000,0.000000,0.000000,1.312037,0.827869,0.971216,0.000008,-0.461101,1.301404,0.599159
0.038000,-0.682654,-0.418873,0.826908,0.999093,0.004821,-0.038948,0.016542,-0.682669,-0.418771,0.826905,0.999093,0.004821,-0.038948,0.016542,200.000000,100.000000,0.000000,0.000050,0.000000,0.000000,0.000000,0.000000,0.000000,0.000000,1.312037,0.827869,0.971216,0.000008,-0.461102,1.301404,0.599159
0.039000,-0.682654,-0.418873,0.826908,0.999093,0.004821,-0.038948,0.016542,-0.682670,-0.418765,0.826904,0.999093,0.004821,-0.038948,0.016542,200.000000,100.000000,0.000000,0.000038,0.000000,0.000000,0.000000,0.000000,0.000000,0.000000,1.312037,0.827869,0.971216,0.000008,-0.461102,1.301404,0.599158
0.040000,-0.682654,-0.418873,0.826908,0.999093,0.004821,-0.038948,0.016542,-0.682671,-0.418758,0.826904,0.999093,0.004821,-0.038948,0.016542,200.000000,100.000000,0.000000,0.000053,0.000000,0.000000,0.000000,0.000000,0.000000,0.000000,1.312037,0.827869,0.971216,0.000008,-0.461102,1.301404,0.599158
0.041000,-0.682654,-0.418873,0.826908,0.999093,0.004821,-0.038948,0.016542,-0.682672,-0.418752,0.826904,0.999093,0.004821,-0.038948,0.016542,200.000000,100.000000,0.000000,0.000039,0.000000,0.000000,0.000000,0.000000,0.000000,0.000000,1.312037,0.827869,0.971216,0.000008,-0.461102,1.301404,0.599158
0.042000,-0.682654,-0.418873,0.826908,0.999093,0.004821,-0.038948,0.016542,-0.682673,-0.418745,0.826904,0.999093,0.004821,-0.038948,0.016542,200.000000,100.000000,0.000000,0.000056,0.000000,0.000000,0.000000,0.000000,0.000000,0.000000,1.312037,0.827869,0.971216,0.000008,-0.461102,1.301404,0.599158
0.043000,-0.682654,-0.418873,0.826908,0.999093,0.004821,-0.038948,0.016542,-0.682674,-0.418737,0.826903,0.999093,0.004821,-0.038948,0.016542,200.000000,100.000000,0.000000,0.000041,0.000000,0.000000,0.000000,0.000000,0.000000,0.000000,1.312037,0.827869,0.971216,0.000008,-0.461102,1.301405,0.599158
0.044000,-0.682654,-0.418873,0.826908,0.999093,0.004821,-0.038948,0.016542,-0.682674,-0.418737,0.826903,0.999093,0.004821,-0.038948,0.016542,200.000000,100.000000,0.000000,0.000060,0.000000,0.000000,0.000000,0.000000,0.000000,0.000000,1.312037,0.827869,0.971216,0.000008,-0.461102,1.301405,0.599158
0.045000,-0.682654,-0.418873,0.826908,0.999093,0.004821,-0.038948,0.016542,-0.682676,-0.418722,0.826903,0.999093,0.004821,-0.038948,0.016542,200.000000,100.000000,0.000000,0.000044,0.000000,0.000000,0.000000,0.000000,0.000000,0.000000,1.312037,0.827869,0.971216,0.000008,-0.461102,1.301405,0.599158
0.046000,-0.682654,-0.418873,0.826908,0.999093,0.004821,-0.038948,0.016542,-0.682677,-0.418714,0.826903,0.999093,0.004821,-0.038948,0.016542,200.000000,100.000000,0.000000,0.000064,0.000000,0.000000,0.000000,0.000000,0.000000,0.000000,1.312037,0.827869,0.971216,0.000008,-0.461102,1.301405,0.599158
0.047000,-0.682654,-0.418873,0.826908,0.999093,0.004821,-0.038948,0.016542,-0.682678,-0.418706,0.826902,0.999093,0.004821,-0.038948,0.016542,200.000000,100.000000,0.000000,0.000047,0.000000,0.000000,0.000000,0.000000,0.000000,0.000000,1.312037,0.827869,0.971216,0.000008,-0.461102,1.301405,0.599158
0.048000,-0.682655,-0.418872,0.826908,0.999093,0.004821,-0.038948,0.016542,-0.682678,-0.418706,0.826902,0.999093,0.004821,-0.038948,0.016542,200.000000,100.000000,0.000000,0.000070,0.000000,0.000000,0.000000,0.000000,0.000000,0.000000,1.312037,0.827869,0.971216,0.000009,-0.461102,1.301405,0.599158
0.049000,-0.682655,-0.418872,0.826908,0.999093,0.004821,-0.038948,0.016542,-0.682679,-0.418698,0.826902,0.999093,0.004821,-0.038948,0.016542,200.000000,100.000000,0.000000,0.000052,0.000000,0.000000,0.000000,0.000000,0.000000,0.000000,1.312037,0.827869,0.971216,0.000009,-0.461102,1.301405,0.599158
0.050000,-0.682655,-0.418872,0.826908,0.999093,0.004821,-0.038948,0.016542,-0.682682,-0.418681,0.826902,0.999093,0.004821,-0.038948,0.016542,200.000000,100.000000,0.000000,0.000075,0.000000,0.000000,0.000000,0.000000,0.000000,0.000000,1.312037,0.827869,0.971216,0.000009,-0.461102,1.301405,0.599158
0.051000,-0.682655,-0.418872,0.826908,0.999093,0.004821,-0.038948,0.016542,-0.682683,-0.418672,0.826901,0.999093,0.004821,-0.038948,0.016542,200.000000,100.000000,0.000000,0.000057,0.000000,0.000000,0.000000,0.000000,0.000000,0.000000,1.312037,0.827869,0.971216,0.000009,-0.461102,1.301405,0.599158
0.052000,-0.682655,-0.418872,0.826908,0.999093,0.004821,-0.038948,0.016542,-0.682684,-0.418663,0.826901,0.999093,0.004821,-0.038948,0.016542,200.000000,100.000000,0.000000,0.000082,0.000000,0.000000,0.000000,0.000000,0.000000,0.000000,1.312037,0.827869,0.971216,0.000009,-0.461102,1.301405,0.599158
0.053000,-0.682655,-0.418872,0.826908,0.999093,0.004821,-0.038948,0.016542,-0.682686,-0.418654,0.826901,0.999093,0.004821,-0.038948,0.016542,200.000000,100.000000,0.000000,0.000063,0.000000,0.000000,0.000000,0.000000,0.000000,0.000000,1.312037,0.827869,0.971216,0.000009,-0.461102,1.301405,0.599158
0.054000,-0.682655,-0.418872,0.826908,0.999093,0.004821,-0.038948,0.016542,-0.682687,-0.418645,0.826900,0.999093,0.004821,-0.038948,0.016542,200.000000,100.000000,0.000000,0.000089,0.000000,0.000000,0.000000,0.000000,0.000000,0.000000,1.312037,0.827869,0.971216,0.000009,-0.461102,1.301405,0.599158
0.055000,-0.682655,-0.418872,0.826908,0.999093,0.004821,-0.038948,0.016542,-0.682688,-0.418635,0.826900,0.999093,0.004821,-0.038948,0.016542,200.000000,100.000000,0.000000,0.000070,0.000000,0.000000,0.000000,0.000000,0.000000,0.000000,1.312036,0.827869,0.971216,0.000009,-0.461102,1.301405,0.599157
0.056000,-0.682655,-0.418872,0.826908,0.999093,0.004821,-0.038948,0.016542,-0.682690,-0.418625,0.826900,0.999093,0.004821,-0.038948,0.016542,200.000000,100.000000,0.000000,0.000097,0.000000,0.000000,0.000000,0.000000,0.000000,0.000000,1.312036,0.827870,0.971216,0.000009,-0.461102,1.301405,0.599157
0.057000,-0.682655,-0.418872,0.826908,0.999093,0.004821,-0.038948,0.016542,-0.682691,-0.418615,0.826899,0.999093,0.004821,-0.038948,0.016542,200.000000,100.000000,0.000000,0.000078,0.000000,0.000000,0.000000,0.000000,0.000000,0.000000,1.312036,0.827870,0.971216,0.000009,-0.461102,1.301405,0.599157
0.058000,-0.682655,-0.418872,0.826908,0.999093,0.004821,-0.038948,0.016541,-0.682693,-0.418605,0.826899,0.999093,0.004821,-0.038948,0.016542,200.000000,100.000000,0.000000,0.000107,0.000000,0.000000,0.000000,0.000000,0.000000,0.000000,1.312036,0.827870,0.971216,0.000009,-0.461102,1.301405,0.599157
0.059000,-0.682655,-0.418872,0.826908,0.999093,0.004821,-0.038948,0.016541,-0.682694,-0.418595,0.826899,0.999093,0.004821,-0.038948,0.016542,200.000000,100.000000,0.000000,0.000087,0.000000,0.000000,0.000000,0.000000,0.000000,0.000000,1.312036,0.827870,0.971216,0.000009,-0.461102,1.301405,0.599157
0.060000,-0.682655,-0.418872,0.826908,0.999093,0.004821,-0.038948,0.016541,-0.682696,-0.418584,0.826898,0.999093,0.004821,-0.038948,0.016542,200.000000,100.000000,0.000000,0.000116,0.000000,0.000000,0.000000,0.000000,0.000000,0.000000,1.312036,0.827870,0.971216,0.000010,-0.461102,1.301405,0.599157
0.061000,-0.682655,-0.418872,0.826908,0.999093,0.004821,-0.038948,0.016541,-0.682696,-0.418584,0.826898,0.999093,0.004821,-0.038948,0.016542,200.000000,100.000000,0.000000,0.000097,0.000000,0.000000,0.000000,0.000000,0.000000,0.000000,1.312036,0.827870,0.971216,0.000010,-0.461102,1.301406,0.599157
0.062000,-0.682655,-0.418872,0.826908,0.999093,0.004821,-0.038948,0.016541,-0.682699,-0.418563,0.826898,0.999093,0.004821,-0.038948,0.016542,200.000000,100.000000,0.000000,0.000127,0.000000,0.000000,0.000000,0.000000,0.000000,0.000000,1.312036,0.827870,0.971216,0.000010,-0.461102,1.301406,0.599157
0.063000,-0.682655,-0.418871,0.826908,0.999093,0.004821,-0.038948,0.016541,-0.682700,-0.418551,0.826897,0.999093,0.004821,-0.038948,0.016542,200.000000,100.000000,0.000000,0.000108,0.000000,0.000000,0.000000,0.000000,0.000000,0.000000,1.312036,0.827870,0.971216,0.000010,-0.461102,1.301406,0.599156
0.064000,-0.682655,-0.418871,0.826908,0.999093,0.004821,-0.038948,0.016541,-0.682702,-0.418540,0.826897,0.999093,0.004821,-0.038948,0.016542,200.000000,100.000000,0.000000,0.000138,0.000000,0.000000,0.000000,0.000000,0.000000,0.000000,1.312036,0.827870,0.971216,0.000010,-0.461102,1.301406,0.599156
0.065000,-0.682655,-0.418871,0.826908,0.999093,0.004821,-0.038948,0.016541,-0.682704,-0.418528,0.826897,0.999093,0.004821,-0.038948,0.016542,200.000000,100.000000,0.000000,0.000119,0.000000,0.000000,0.000000,0.000000,0.000000,0.000000,1.312036,0.827870,0.971217,0.000010,-0.461102,1.301406,0.599156
0.066000,-0.682655,-0.418871,0.826908,0.999093,0.004821,-0.038948,0.016541,-0.682705,-0.418517,0.826896,0.999093,0.004821,-0.038948,0.016542,200.000000,100.000000,0.000000,0.000150,0.000000,0.000000,0.000000,0.000000,0.000000,0.000000,1.312036,0.827871,0.971217,0.000010,-0.461102,1.301406,0.599156
0.067000,-0.682655,-0.418871,0.826908,0.999093,0.004821,-0.038948,0.016541,-0.682707,-0.418505,0.826896,0.999093,0.004821,-0.038948,0.016542,200.000000,100.000000,0.000000,0.000132,0.000000,0.000000,0.000000,0.000000,0.000000,0.000000,1.312036,0.827871,0.971217,0.000011,-0.461102,1.301406,0.599156
0.068000,-0.682655,-0.418871,0.826908,0.999093,0.004821,-0.038948,0.016541,-0.682709,-0.418492,0.826895,0.999093,0.004821,-0.038948,0.016542,200.000000,100.000000,0.000000,0.000163,0.000000,0.000000,0.000000,0.000000,0.000000,0.000000,1.312036,0.827871,0.971217,0.000011,-0.461102,1.301406,0.599156
0.069000,-0.682656,-0.418871,0.826908,0.999093,0.004821,-0.038948,0.016541,-0.682711,-0.418480,0.826895,0.999093,0.004821,-0.038948,0.016542,200.000000,100.000000,0.000000,0.000145,0.000000,0.000000,0.000000,0.000000,0.000000,0.000000,1.312035,0.827871,0.971217,0.000011,-0.461102,1.301406,0.599155
0.070000,-0.682656,-0.418871,0.826908,0.999093,0.004821,-0.038948,0.016541,-0.682712,-0.418468,0.826895,0.999093,0.004821,-0.038948,0.016542,200.000000,100.000000,0.000000,0.000178,0.000000,0.000000,0.000000,0.000000,0.000000,0.000000,1.312035,0.827871,0.971217,0.000011,-0.461102,1.301407,0.599155
0.071000,-0.682656,-0.418871,0.826908,0.999093,0.004821,-0.038948,0.016541,-0.682714,-0.418455,0.826894,0.999093,0.004821,-0.038948,0.016542,200.000000,100.000000,0.000000,0.000160,0.000000,0.000000,0.000000,0.000000,0.000000,0.000000,1.312035,0.827871,0.971217,0.000011,-0.461102,1.301407,0.599155
0.071000,-0.682656,-0.418870,0.826908,0.999093,0.004821,-0.038948,0.016541,-0.682714,-0.418455,0.826894,0.999093,0.004821,-0.038948,0.016542,200.000000,100.000000,0.000000,0.000192,0.000000,0.000000,0.000000,0.000000,0.000000,0.000000,1.312035,0.827872,0.971217,0.000012,-0.461102,1.301407,0.599155
0.073000,-0.682656,-0.418870,0.826908,0.999093,0.004821,-0.038948,0.016541,-0.682716,-0.418442,0.826894,0.999093,0.004821,-0.038948,0.016542,200.000000,100.000000,0.000000,0.000174,0.000000,0.000000,0.000000,0.000000,0.000000,0.000000,1.312035,0.827872,0.971217,0.000012,-0.461102,1.301407,0.599154
0.074000,-0.682656,-0.418870,0.826908,0.999093,0.004821,-0.038948,0.016541,-0.682720,-0.418415,0.826893,0.999093,0.004821,-0.038948,0.016542,200.000000,100.000000,0.000000,0.000207,0.000000,0.000000,0.000000,0.000000,0.000000,0.000000,1.312035,0.827872,0.971217,0.000012,-0.461102,1.301407,0.599154
0.075000,-0.682656,-0.418870,0.826908,0.999093,0.004821,-0.038948,0.016541,-0.682720,-0.418415,0.826893,0.999093,0.004821,-0.038948,0.016542,200.000000,100.000000,0.000000,0.000191,0.000000,0.000000,0.000000,0.000000,0.000000,0.000000,1.312035,0.827872,0.971217,0.000012,-0.461102,1.301407,0.599154
0.076000,-0.682656,-0.418870,0.826908,0.999093,0.004821,-0.038948,0.016541,-0.682724,-0.418388,0.826892,0.999093,0.004821,-0.038948,0.016542,200.000000,100.000000,0.000000,0.000224,0.000000,0.000000,0.000000,0.000000,0.000000,0.000000,1.312035,0.827872,0.971218,0.000012,-0.461102,1.301407,0.599154
0.077000,-0.682656,-0.418870,0.826908,0.999093,0.004821,-0.038948,0.016541,-0.682726,-0.418374,0.826892,0.999093,0.004821,-0.038948,0.016542,200.000000,100.000000,0.000000,0.000207,0.000000,0.000000,0.000000,0.000000,0.000000,0.000000,1.312034,0.827872,0.971218,0.000013,-0.461102,1.301408,0.599153
0.077000,-0.682656,-0.418869,0.826907,0.999093,0.004821,-0.038948,0.016541,-0.682726,-0.418374,0.826892,0.999093,0.004821,-0.038948,0.016542,200.000000,100.000000,0.000000,0.000242,0.000000,0.000000,0.000000,0.000000,0.000000,0.000000,1.312034,0.827873,0.971218,0.000013,-0.461102,1.301408,0.599153
0.077000,-0.682657,-0.418869,0.826908,0.999093,0.004821,-0.038948,0.016540,-0.682728,-0.418360,0.826891,0.999093,0.004821,-0.038948,0.016542,200.000000,100.000000,0.000000,0.000225,0.000000,0.000000,0.000000,0.000000,0.000000,0.000000,1.312034,0.827873,0.971218,0.000013,-0.461102,1.301408,0.599153
0.080000,-0.682657,-0.418869,0.826907,0.999093,0.004821,-0.038948,0.016540,-0.682732,-0.418331,0.826890,0.999093,0.004821,-0.038948,0.016542,200.000000,100.000000,0.000000,0.000260,0.000000,0.000000,0.000000,0.000000,0.000000,0.000000,1.312034,0.827873,0.971218,0.000014,-0.461103,1.301408,0.599152
0.081000,-0.682657,-0.418869,0.826908,0.999093,0.004821,-0.038948,0.016540,-0.682734,-0.418316,0.826890,0.999093,0.004821,-0.038948,0.016542,200.000000,100.000000,0.000000,0.000244,0.000000,0.000000,0.000000,0.000000,0.000000,0.000000,1.312034,0.827873,0.971218,0.000014,-0.461103,1.301408,0.599152
0.081000,-0.682657,-0.418868,0.826907,0.999093,0.004821,-0.038948,0.016540,-0.682736,-0.418301,0.826889,0.999093,0.004821,-0.038948,0.016542,200.000000,100.000000,0.000000,0.000280,0.000000,0.000000,0.000000,0.000000,0.000000,0.000000,1.312034,0.827874,0.971218,0.000014,-0.461103,1.301409,0.599152
0.083000,-0.682657,-0.418868,0.826907,0.999093,0.004821,-0.038948,0.016540,-0.682736,-0.418301,0.826889,0.999093,0.004821,-0.038948,0.016542,200.000000,100.000000,0.000000,0.000264,0.000000,0.000000,0.000000,0.000000,0.000000,0.000000,1.312033,0.827874,0.971218,0.000014,-0.461103,1.301409,0.599151
0.084000,-0.682657,-0.418868,0.826907,0.999093,0.004821,-0.038948,0.016540,-0.682741,-0.418271,0.826888,0.999093,0.004821,-0.038948,0.016542,200.000000,100.000000,0.000000,0.000300,0.000000,0.000000,0.000000,0.000000,0.000000,0.000000,1.312033,0.827874,0.971219,0.000015,-0.461103,1.301409,0.599151
0.085000,-0.682657,-0.418868,0.826907,0.999093,0.004821,-0.038948,0.016540,-0.682743,-0.418255,0.826888,0.999093,0.004821,-0.038948,0.016542,200.000000,100.000000,0.000000,0.000284,0.000000,0.000000,0.000000,0.000000,0.000000,0.000000,1.312033,0.827874,0.971219,0.000015,-0.461103,1.301409,0.599151
0.086000,-0.682658,-0.418867,0.826907,0.999093,0.004821,-0.038948,0.016540,-0.682745,-0.418240,0.826887,0.999093,0.004821,-0.038948,0.016542,200.000000,100.000000,0.000000,0.000322,0.000000,0.000000,0.000000,0.000000,0.000000,0.000000,1.312033,0.827875,0.971219,0.000016,-0.461103,1.301410,0.599150
0.087000,-0.682658,-0.418867,0.826907,0.999093,0.004821,-0.038948,0.016540,-0.682747,-0.418224,0.826887,0.999093,0.004821,-0.038948,0.016542,200.000000,100.000000,0.000000,0.000307,0.000000,0.000000,0.000000,0.000000,0.000000,0.000000,1.312033,0.827875,0.971219,0.000016,-0.461103,1.301410,0.599150
0.088000,-0.682658,-0.418867,0.826907,0.999093,0.004821,-0.038948,0.016540,-0.682747,-0.418224,0.826887,0.999093,0.004821,-0.038948,0.016542,200.000000,100.000000,0.000000,0.000344,0.000000,0.000000,0.000000,0.000000,0.000000,0.000000,1.312032,0.827875,0.971219,0.000016,-0.461103,1.301410,0.599149
0.089000,-0.682658,-0.418867,0.826907,0.999093,0.004821,-0.038948,0.016540,-0.682752,-0.418191,0.826886,0.999093,0.004821,-0.038948,0.016542,200.000000,100.000000,0.000000,0.000329,0.000000,0.000000,0.000000,0.000000,0.000000,0.000000,1.312032,0.827876,0.971219,0.000017,-0.461103,1.301410,0.599149
0.090000,-0.682658,-0.418866,0.826907,0.999093,0.004821,-0.038948,0.016540,-0.682754,-0.418175,0.826885,0.999093,0.004821,-0.038948,0.016542,200.000000,100.000000,0.000000,0.000368,0.000000,0.000000,0.000000,0.000000,0.000000,0.000000,1.312032,0.827876,0.971220,0.000017,-0.461103,1.301411,0.599148
0.091000,-0.682658,-0.418866,0.826907,0.999093,0.004821,-0.038948,0.016539,-0.682757,-0.418158,0.826884,0.999093,0.004821,-0.038948,0.016542,200.000000,100.000000,0.000000,0.000354,0.000000,0.000000,0.000000,0.000000,0.000000,0.000000,1.312032,0.827876,0.971220,0.000018,-0.461103,1.301411,0.599148
0.091000,-0.682659,-0.418866,0.826907,0.999093,0.004821,-0.038948,0.016539,-0.682759,-0.418141,0.826884,0.999093,0.004821,-0.038948,0.016542,200.000000,100.000000,0.000000,0.000392,0.000000,0.000000,0.000000,0.000000,0.000000,0.000000,1.312031,0.827877,0.971220,0.000018,-0.461103,1.301411,0.599147
0.093000,-0.682659,-0.418865,0.826907,0.999093,0.004821,-0.038948,0.016539,-0.682762,-0.418124,0.826883,0.999093,0.004821,-0.038948,0.016542,200.000000,100.000000,0.000000,0.000379,0.000000,0.000000,0.000000,0.000000,0.000000,0.000000,1.312031,0.827877,0.971220,0.000018,-0.461103,1.301411,0.599147
0.094000,-0.682659,-0.418865,0.826907,0.999093,0.004821,-0.038948,0.016539,-0.682764,-0.418107,0.826883,0.999093,0.004821,-0.038948,0.016542,200.000000,100.000000,0.000000,0.000419,0.000000,0.000000,0.000000,0.000000,0.000000,0.000000,1.312031,0.827878,0.971220,0.000019,-0.461103,1.301412,0.599146
0.095000,-0.682659,-0.418865,0.826907,0.999093,0.004821,-0.038948,0.016539,-0.682767,-0.418089,0.826882,0.999093,0.004821,-0.038948,0.016542,200.000000,100.000000,0.000000,0.000406,0.000000,0.000000,0.000000,0.000000,0.000000,0.000000,1.312031,0.827878,0.971221,0.000019,-0.461103,1.301412,0.599146
0.096000,-0.682660,-0.418864,0.826907,0.999093,0.004821,-0.038948,0.016539,-0.682769,-0.418071,0.826882,0.999093,0.004821,-0.038948,0.016542,200.000000,100.000000,0.000000,0.000445,0.000000,0.000000,0.000000,0.000000,0.000000,0.000000,1.312030,0.827878,0.971221,0.000020,-0.461103,1.301412,0.599145
0.097000,-0.682660,-0.418864,0.826907,0.999093,0.004821,-0.038948,0.016539,-0.682772,-0.418053,0.826881,0.999093,0.004821,-0.038948,0.016542,200.000000,100.000000,0.000000,0.000433,0.000000,0.000000,0.000000,0.000000,0.000000,0.000000,1.312030,0.827879,0.971221,0.000020,-0.461103,1.301413,0.599144
0.098000,-0.682660,-0.418864,0.826907,0.999093,0.004821,-0.038948,0.016539,-0.682774,-0.418035,0.826880,0.999093,0.004821,-0.038948,0.016542,200.000000,100.000000,0.000000,0.000474,0.000000,0.000000,0.000000,0.000000,0.000000,0.000000,1.312030,0.827879,0.971221,0.000021,-0.461103,1.301413,0.599144
0.099000,-0.682660,-0.418863,0.826907,0.999093,0.004821,-0.038948,0.016539,-0.682777,-0.418017,0.826880,0.999093,0.004821,-0.038948,0.016542,200.000000,100.000000,0.000000,0.000463,0.000000,0.000000,0.000000,0.000000,0.000000,0.000000,1.312029,0.827880,0.971222,0.000021,-0.461103,1.301414,0.599143
0.100000,-0.682661,-0.418863,0.826907,0.999093,0.004821,-0.038947,0.016538,-0.682780,-0.417999,0.826879,0.999093,0.004821,-0.038948,0.016542,200.000000,100.000000,0.000000,0.000503,0.000000,0.000000,0.000000,0.000000,0.000000,0.000000,1.312029,0.827880,0.971222,0.000022,-0.461103,1.301414,0.599143
0.101000,-0.682661,-0.418862,0.826907,0.999093,0.004821,-0.038948,0.016538,-0.682782,-0.417980,0.826879,0.999093,0.004821,-0.038948,0.016542,200.000000,100.000000,0.000000,0.000492,0.000000,0.000000,0.000000,0.000000,0.000000,0.000000,1.312029,0.827881,0.971222,0.000023,-0.461103,1.301414,0.599142
0.102000,-0.682661,-0.418862,0.826907,0.999093,0.004821,-0.038947,0.016538,-0.682785,-0.417961,0.826878,0.999093,0.004821,-0.038948,0.016542,200.000000,100.000000,0.000000,0.000534,0.000000,0.000000,0.000000,0.000000,0.000000,0.000000,1.312028,0.827881,0.971222,0.000023,-0.461103,1.301415,0.599141
0.103000,-0.682661,-0.418861,0.826907,0.999093,0.004821,-0.038947,0.016538,-0.682788,-0.417942,0.826877,0.999093,0.004821,-0.038948,0.016542,200.000000,100.000000,0.000000,0.000524,0.000000,0.000000,0.000000,0.000000,0.000000,0.000000,1.312028,0.827882,0.971223,0.000024,-0.461103,1.301415,0.599140
0.104000,-0.682662,-0.418861,0.826907,0.999093,0.004821,-0.038947,0.016538,-0.682791,-0.417923,0.826877,0.999093,0.004821,-0.038948,0.016542,200.000000,100.000000,0.000000,0.000565,0.000000,0.000000,0.000000,0.000000,0.000000,0.000000,1.312027,0.827882,0.971223,0.000025,-0.461103,1.301416,0.599140
0.105000,-0.682662,-0.418860,0.826907,0.999093,0.004821,-0.038947,0.016538,-0.682793,-0.417903,0.826876,0.999093,0.004821,-0.038948,0.016542,200.000000,100.000000,0.000000,0.000555,0.000000,0.000000,0.000000,0.000000,0.000000,0.000000,1.312027,0.827883,0.971223,0.000025,-0.461103,1.301416,0.599139
0.105000,-0.682662,-0.418860,0.826907,0.999093,0.004821,-0.038947,0.016538,-0.682796,-0.417883,0.826875,0.999093,0.004821,-0.038948,0.016542,200.000000,100.000000,0.000000,0.000599,0.000000,0.000000,0.000000,0.000000,0.000000,0.000000,1.312027,0.827883,0.971224,0.000026,-0.461104,1.301416,0.599138
0.107000,-0.682663,-0.418859,0.826907,0.999093,0.004821,-0.038947,0.016537,-0.682799,-0.417864,0.826875,0.999093,0.004821,-0.038948,0.016542,200.000000,100.000000,0.000000,0.000589,0.000000,0.000000,0.000000,0.000000,0.000000,0.000000,1.312026,0.827884,0.971224,0.000027,-0.461104,1.301417,0.599137
0.108000,-0.682663,-0.418859,0.826907,0.999093,0.004821,-0.038947,0.016537,-0.682802,-0.417843,0.826874,0.999093,0.004821,-0.038948,0.016542,200.000000,100.000000,0.000000,0.000632,0.000000,0.000000,0.000000,0.000000,0.000000,0.000000,1.312026,0.827885,0.971224,0.000027,-0.461104,1.301417,0.599136
0.109000,-0.682663,-0.418858,0.826907,0.999093,0.004821,-0.038947,0.016537,-0.682805,-0.417823,0.826873,0.999093,0.004821,-0.038948,0.016542,200.000000,100.000000,0.000000,0.000623,0.000000,0.000000,0.000000,0.000000,0.000000,0.000000,1.312025,0.827885,0.971225,0.000028,-0.461104,1.301418,0.599135
0.110000,-0.682664,-0.418858,0.826907,0.999093,0.004821,-0.038947,0.016537,-0.682808,-0.417803,0.826873,0.999093,0.004821,-0.038948,0.016542,200.000000,100.000000,0.000000,0.000668,0.000000,0.000000,0.000000,0.000000,0.000000,0.000000,1.312025,0.827886,0.971225,0.000029,-0.461104,1.301418,0.599135
0.111000,-0.682664,-0.418857,0.826907,0.999093,0.004821,-0.038947,0.016537,-0.682811,-0.417782,0.826872,0.999093,0.004821,-0.038948,0.016542,200.000000,100.000000,0.000000,0.000660,0.000000,0.000000,0.000000,0.000000,0.000000,0.000000,1.312024,0.827886,0.971225,0.000030,-0.461104,1.301419,0.599134
0.112000,-0.682664,-0.418857,0.826907,0.999093,0.004821,-0.038947,0.016537,-0.682814,-0.417761,0.826871,0.999093,0.004821,-0.038948,0.016542,200.000000,100.000000,0.000000,0.000704,0.000000,0.000000,0.000000,0.000000,0.000000,0.000000,1.312024,0.827887,0.971226,0.000030,-0.461104,1.301419,0.599133
0.113000,-0.682665,-0.418856,0.826907,0.999093,0.004821,-0.038947,0.016536,-0.682817,-0.417740,0.826871,0.999093,0.004821,-0.038948,0.016542,200.000000,100.000000,0.000000,0.000696,0.000000,0.000000,0.000000,0.000000,0.000000,0.000000,1.312023,0.827888,0.971226,0.000031,-0.461104,1.301420,0.599132
0.114000,-0.682665,-0.418855,0.826907,0.999093,0.004821,-0.038947,0.016536,-0.682820,-0.417719,0.826870,0.999093,0.004821,-0.038948,0.016542,200.000000,100.000000,0.000000,0.000742,0.000000,0.000000,0.000000,0.000000,0.000000,0.000000,1.312023,0.827889,0.971226,0.000032,-0.461104,1.301420,0.599131
0.114000,-0.682665,-0.418855,0.826907,0.999093,0.004821,-0.038947,0.016536,-0.682823,-0.417697,0.826869,0.999093,0.004821,-0.038948,0.016542,200.000000,100.000000,0.000000,0.000735,0.000000,0.000000,0.000000,0.000000,0.000000,0.000000,1.312022,0.827889,0.971227,0.000033,-0.461104,1.301421,0.599130
0.116000,-0.682666,-0.418854,0.826907,0.999093,0.004821,-0.038947,0.016536,-0.682823,-0.417697,0.826869,0.999093,0.004821,-0.038948,0.016542,200.000000,100.000000,0.000000,0.000781,0.000000,0.000000,0.000000,0.000000,0.000000,0.000000,1.312022,0.827890,0.971227,0.000034,-0.461104,1.301421,0.599129
0.117000,-0.682666,-0.418854,0.826907,0.999093,0.004821,-0.038947,0.016536,-0.682829,-0.417654,0.826868,0.999093,0.004821,-0.038948,0.016542,200.000000,100.000000,0.000000,0.000774,0.000000,0.000000,0.000000,0.000000,0.000000,0.000000,1.312021,0.827891,0.971227,0.000035,-0.461104,1.301422,0.599128
0.118000,-0.682667,-0.418853,0.826907,0.999093,0.004821,-0.038947,0.016535,-0.682832,-0.417632,0.826867,0.999093,0.004821,-0.038948,0.016542,200.000000,100.000000,0.000000,0.000821,0.000000,0.000000,0.000000,0.000000,0.000000,0.000000,1.312021,0.827892,0.971228,0.000036,-0.461104,1.301423,0.599126
0.119000,-0.682667,-0.418852,0.826907,0.999093,0.004821,-0.038947,0.016535,-0.682835,-0.417609,0.826866,0.999093,0.004821,-0.038948,0.016542,200.000000,100.000000,0.000000,0.000816,0.000000,0.000000,0.000000,0.000000,0.000000,0.000000,1.312020,0.827892,0.971228,0.000036,-0.461104,1.301423,0.599125
0.120000,-0.682668,-0.418851,0.826907,0.999093,0.004821,-0.038947,0.016535,-0.682835,-0.417609,0.826866,0.999093,0.004821,-0.038948,0.016542,200.000000,100.000000,0.000000,0.000862,0.000000,0.000000,0.000000,0.000000,0.000000,0.000000,1.312020,0.827893,0.971229,0.000037,-0.461104,1.301424,0.599124
0.121000,-0.682668,-0.418851,0.826907,0.999093,0.004821,-0.038947,0.016535,-0.682839,-0.417587,0.826866,0.999093,0.004821,-0.038948,0.016542,200.000000,100.000000,0.000000,0.000857,0.000000,0.000000,0.000000,0.000000,0.000000,0.000000,1.312019,0.827894,0.971229,0.000038,-0.461104,1.301424,0.599123
0.122000,-0.682669,-0.418850,0.826906,0.999093,0.004821,-0.038947,0.016535,-0.682845,-0.417541,0.826864,0.999093,0.004821,-0.038948,0.016542,200.000000,100.000000,0.000000,0.000905,0.000000,0.000000,0.000000,0.000000,0.000000,0.000000,1.312018,0.827895,0.971230,0.000039,-0.461104,1.301425,0.599122
0.123000,-0.682669,-0.418849,0.826906,0.999093,0.004821,-0.038947,0.016534,-0.682848,-0.417518,0.826863,0.999093,0.004821,-0.038948,0.016542,200.000000,100.000000,0.000000,0.000901,0.000000,0.000000,0.000000,0.000000,0.000000,0.000000,1.312018,0.827896,0.971230,0.000040,-0.461104,1.301426,0.599120
0.124000,-0.682670,-0.418848,0.826906,0.999093,0.004821,-0.038947,0.016534,-0.682852,-0.417495,0.826863,0.999093,0.004821,-0.038948,0.016542,200.000000,100.000000,0.000000,0.000949,0.000000,0.000000,0.000000,0.000000,0.000000,0.000000,1.312017,0.827897,0.971231,0.000042,-0.461104,1.301426,0.599119
0.125000,-0.682670,-0.418848,0.826906,0.999093,0.004821,-0.038947,0.016534,-0.682855,-0.417472,0.826862,0.999093,0.004821,-0.038948,0.016542,200.000000,100.000000,0.000000,0.000945,0.000000,0.000000,0.000000,0.000000,0.000000,0.000000,1.312016,0.827898,0.971231,0.000043,-0.461104,1.301427,0.599118
0.126000,-0.682671,-0.418847,0.826906,0.999093,0.004821,-0.038947,0.016534,-0.682855,-0.417472,0.826862,0.999093,0.004821,-0.038948,0.016542,200.000000,100.000000,0.000000,0.000995,0.000000,0.000000,0.000000,0.000000,0.000000,0.000000,1.312016,0.827899,0.971232,0.000044,-0.461104,1.301428,0.599116
0.127000,-0.682671,-0.418846,0.826906,0.999093,0.004821,-0.038947,0.016534,-0.682859,-0.417448,0.826861,0.999093,0.004821,-0.038948,0.016542,200.000000,100.000000,0.000000,0.000991,0.000000,0.000000,0.000000,0.000000,0.000000,0.000000,1.312015,0.827900,0.971232,0.000045,-0.461104,1.301429,0.599115
0.128000,-0.682672,-0.418845,0.826906,0.999093,0.004821,-0.038947,0.016533,-0.682865,-0.417400,0.826860,0.999093,0.004821,-0.038948,0.016542,200.000000,100.000000,0.000000,0.001040,0.000000,0.000000,0.000000,0.000000,0.000000,0.000000,1.312014,0.827901,0.971233,0.000046,-0.461104,1.301429,0.599114
0.129000,-0.682672,-0.418844,0.826906,0.999093,0.004821,-0.038947,0.016533,-0.682869,-0.417376,0.826859,0.999093,0.004821,-0.038948,0.016542,200.000000,100.000000,0.000000,0.001038,0.000000,0.000000,0.000000,0.000000,0.000000,0.000000,1.312013,0.827902,0.971233,0.000047,-0.461104,1.301430,0.599112
0.130000,-0.682673,-0.418843,0.826906,0.999093,0.004821,-0.038947,0.016533,-0.682869,-0.417376,0.826859,0.999093,0.004821,-0.038948,0.016542,200.000000,100.000000,0.000000,0.001089,0.000000,0.000000,0.000000,0.000000,0.000000,0.000000,1.312013,0.827903,0.971234,0.000048,-0.461104,1.301431,0.599111
0.131000,-0.682673,-0.418842,0.826906,0.999093,0.004821,-0.038947,0.016533,-0.682876,-0.417327,0.826857,0.999093,0.004821,-0.038948,0.016542,200.000000,100.000000,0.000000,0.001087,0.000000,0.000000,0.000000,0.000000,0.000000,0.000000,1.312012,0.827904,0.971234,0.000050,-0.461104,1.301432,0.599109
0.132000,-0.682674,-0.418841,0.826906,0.999093,0.004821,-0.038947,0.016532,-0.682879,-0.417302,0.826856,0.999093,0.004821,-0.038948,0.016542,200.000000,100.000000,0.000000,0.001138,0.000000,0.000000,0.000000,0.000000,0.000000,0.000000,1.312011,0.827905,0.971235,0.000051,-0.461104,1.301432,0.599108
0.133000,-0.682675,-0.418840,0.826906,0.999093,0.004821,-0.038947,0.016532,-0.682879,-0.417302,0.826856,0.999093,0.004821,-0.038948,0.016542,200.000000,100.000000,0.000000,0.001137,0.000000,0.000000,0.000000,0.000000,0.000000,0.000000,1.312010,0.827906,0.971235,0.000052,-0.461104,1.301433,0.599106
0.134000,-0.682675,-0.418839,0.826906,0.999093,0.004821,-0.038947,0.016532,-0.682883,-0.417277,0.826855,0.999093,0.004821,-0.038948,0.016542,200.000000,100.000000,0.000000,0.001189,0.000000,0.000000,0.000000,0.000000,0.000000,0.000000,1.312009,0.827907,0.971236,0.000054,-0.461104,1.301434,0.599104
0.135000,-0.682676,-0.418838,0.826906,0.999093,0.004821,-0.038947,0.016532,-0.682890,-0.417226,0.826854,0.999093,0.004821,-0.038948,0.016542,200.000000,100.000000,0.000000,0.001188,0.000000,0.000000,0.000000,0.000000,0.000000,0.000000,1.312008,0.827908,0.971237,0.000055,-0.461104,1.301435,0.599103
0.136000,-0.682676,-0.418837,0.826906,0.999093,0.004820,-0.038947,0.016531,-0.682894,-0.417201,0.826853,0.999093,0.004821,-0.038948,0.016542,200.000000,100.000000,0.000000,0.001241,0.000000,0.000000,0.000000,0.000000,0.000000,0.000000,1.312008,0.827909,0.971237,0.000056,-0.461104,1.301436,0.599101
0.137000,-0.682677,-0.418836,0.826906,0.999093,0.004820,-0.038947,0.016531,-0.682898,-0.417175,0.826852,0.999093,0.004821,-0.038948,0.016542,200.000000,100.000000,0.000000,0.001241,0.000000,0.000000,0.000000,0.000000,0.000000,0.000000,1.312007,0.827911,0.971238,0.000058,-0.461104,1.301437,0.599099
0.138000,-0.682678,-0.418835,0.826906,0.999093,0.004820,-0.038947,0.016531,-0.682901,-0.417149,0.826851,0.999093,0.004821,-0.038948,0.016542,200.000000,100.000000,0.000000,0.001295,0.000000,0.000000,0.000000,0.000000,0.000000,0.000000,1.312006,0.827912,0.971238,0.000059,-0.461104,1.301437,0.599098
0.139000,-0.682678,-0.418834,0.826905,0.999093,0.004820,-0.038947,0.016530,-0.682905,-0.417123,0.826850,0.999093,0.004821,-0.038948,0.016542,200.000000,100.000000,0.000000,0.001296,0.000000,0.000000,0.000000,0.000000,0.000000,0.000000,1.312005,0.827913,0.971239,0.000061,-0.461104,1.301438,0.599096
0.139000,-0.682679,-0.418833,0.826905,0.999093,0.004820,-0.038947,0.016530,-0.682909,-0.417096,0.826850,0.999093,0.004821,-0.038948,0.016542,200.000000,100.000000,0.000000,0.001350,0.000000,0.000000,0.000000,0.000000,0.000000,0.000000,1.312004,0.827914,0.971240,0.000062,-0.461104,1.301439,0.599094
0.141000,-0.682680,-0.418832,0.826905,0.999093,0.004820,-0.038947,0.016530,-0.682909,-0.417096,0.826850,0.999093,0.004821,-0.038948,0.016542,200.000000,100.000000,0.000000,0.001352,0.000000,0.000000,0.000000,0.000000,0.000000,0.000000,1.312003,0.827916,0.971241,0.000064,-0.461104,1.301440,0.599092
0.142000,-0.682681,-0.418831,0.826905,0.999093,0.004820,-0.038947,0.016530,-0.682917,-0.417043,0.826848,0.999093,0.004821,-0.038948,0.016542,200.000000,100.000000,0.000000,0.001407,0.000000,0.000000,0.000000,0.000000,0.000000,0.000000,1.312002,0.827917,0.971241,0.000065,-0.461104,1.301441,0.599090
0.143000,-0.682681,-0.418829,0.826905,0.999093,0.004820,-0.038947,0.016529,-0.682920,-0.417016,0.826847,0.999093,0.004821,-0.038948,0.016542,200.000000,100.000000,0.000000,0.001409,0.000000,0.000000,0.000000,0.000000,0.000000,0.000000,1.312001,0.827918,0.971242,0.000067,-0.461104,1.301442,0.599088
0.144000,-0.682682,-0.418828,0.826905,0.999093,0.004820,-0.038947,0.016529,-0.682924,-0.416989,0.826846,0.999093,0.004821,-0.038948,0.016542,200.000000,100.000000,0.000000,0.001465,0.000000,0.000000,0.000000,0.000000,0.000000,0.000000,1.312000,0.827920,0.971243,0.000068,-0.461103,1.301443,0.599086
0.145000,-0.682683,-0.418827,0.826905,0.999093,0.004820,-0.038947,0.016529,-0.682924,-0.416989,0.826846,0.999093,0.004821,-0.038948,0.016542,200.000000,100.000000,0.000000,0.001468,0.000000,0.000000,0.000000,0.000000,0.000000,0.000000,1.311999,0.827921,0.971243,0.000070,-0.461103,1.301444,0.599084
0.146000,-0.682684,-0.418826,0.826905,0.999093,0.004820,-0.038947,0.016528,-0.682932,-0.416934,0.826844,0.999093,0.004821,-0.038948,0.016542,200.000000,100.000000,0.000000,0.001524,0.000000,0.000000,0.000000,0.000000,0.000000,0.000000,1.311997,0.827923,0.971244,0.000072,-0.461103,1.301445,0.599082
0.147000,-0.682685,-0.418824,0.826905,0.999093,0.004820,-0.038947,0.016528,-0.682932,-0.416934,0.826844,0.999093,0.004821,-0.038948,0.016542,200.000000,100.000000,0.000000,0.001528,0.000000,0.000000,0.000000,0.000000,0.000000,0.000000,1.311996,0.827924,0.971245,0.000074,-0.461103,1.301446,0.599080
0.147000,-0.682685,-0.418823,0.826905,0.999093,0.004820,-0.038947,0.016528,-0.682940,-0.416878,0.826842,0.999093,0.004821,-0.038948,0.016542,200.000000,100.000000,0.000000,0.001585,0.000000,0.000000,0.000000,0.000000,0.000000,0.000000,1.311995,0.827926,0.971246,0.000075,-0.461103,1.301447,0.599078
0.149000,-0.682686,-0.418822,0.826905,0.999093,0.004820,-0.038947,0.016527,-0.682944,-0.416850,0.826841,0.999093,0.004821,-0.038948,0.016542,200.000000,100.000000,0.000000,0.001589,0.000000,0.000000,0.000000,0.000000,0.000000,0.000000,1.311994,0.827927,0.971247,0.000077,-0.461103,1.301448,0.599075
0.150000,-0.682687,-0.418820,0.826905,0.999093,0.004820,-0.038947,0.016527,-0.682948,-0.416821,0.826840,0.999093,0.004821,-0.038948,0.016542,200.000000,100.000000,0.000000,0.001648,0.000000,0.000000,0.000000,0.000000,0.000000,0.000000,1.311993,0.827929,0.971247,0.000079,-0.461103,1.301450,0.599073
0.151000,-0.682688,-0.418819,0.826905,0.999093,0.004820,-0.038947,0.016527,-0.682952,-0.416793,0.826840,0.999093,0.004821,-0.038948,0.016542,200.000000,100.000000,0.000000,0.001653,0.000000,0.000000,0.000000,0.000000,0.000000,0.000000,1.311992,0.827931,0.971248,0.000081,-0.461103,1.301451,0.599071
0.152000,-0.682689,-0.418817,0.826904,0.999093,0.004820,-0.038947,0.016526,-0.682957,-0.416764,0.826839,0.999093,0.004821,-0.038948,0.016542,200.000000,100.000000,0.000000,0.001712,0.000000,0.000000,0.000000,0.000000,0.000000,0.000000,1.311990,0.827932,0.971249,0.000083,-0.461103,1.301452,0.599068
0.153000,-0.682690,-0.418816,0.826904,0.999093,0.004820,-0.038947,0.016526,-0.682961,-0.416735,0.826838,0.999093,0.004821,-0.038948,0.016542,200.000000,100.000000,0.000000,0.001717,0.000000,0.000000,0.000000,0.000000,0.000000,0.000000,1.311989,0.827934,0.971250,0.000085,-0.461103,1.301453,0.599066
0.154000,-0.682691,-0.418814,0.826904,0.999093,0.004820,-0.038947,0.016526,-0.682965,-0.416706,0.826837,0.999093,0.004821,-0.038948,0.016542,200.000000,100.000000,0.000000,0.001778,0.000000,0.000000,0.000000,0.000000,0.000000,0.000000,1.311988,0.827936,0.971251,0.000086,-0.461103,1.301454,0.599063
0.155000,-0.682692,-0.418813,0.826904,0.999093,0.004820,-0.038947,0.016525,-0.682965,-0.416706,0.826837,0.999093,0.004821,-0.038948,0.016542,200.000000,100.000000,0.000000,0.001785,0.000000,0.000000,0.000000,0.000000,0.000000,0.000000,1.311986,0.827937,0.971252,0.000088,-0.461102,1.301455,0.599061
0.156000,-0.682693,-0.418811,0.826904,0.999093,0.004820,-0.038946,0.016525,-0.682973,-0.416647,0.826835,0.999093,0.004821,-0.038948,0.016542,200.000000,100.000000,0.000000,0.001844,0.000000,0.000000,0.000000,0.000000,0.000000,0.000000,1.311985,0.827939,0.971253,0.000090,-0.461102,1.301457,0.599058
0.157000,-0.682694,-0.418810,0.826904,0.999093,0.004820,-0.038946,0.016524,-0.682978,-0.416617,0.826834,0.999093,0.004821,-0.038948,0.016542,200.000000,100.000000,0.000000,0.001852,0.000000,0.000000,0.000000,0.000000,0.000000,0.000000,1.311984,0.827941,0.971254,0.000093,-0.461102,1.301458,0.599056
0.158000,-0.682695,-0.418808,0.826904,0.999093,0.004820,-0.038946,0.016524,-0.682982,-0.416587,0.826833,0.999093,0.004821,-0.038948,0.016542,200.000000,100.000000,0.000000,0.001913,0.000000,0.000000,0.000000,0.000000,0.000000,0.000000,1.311982,0.827943,0.971255,0.000095,-0.461102,1.301459,0.599053
0.159000,-0.682696,-0.418807,0.826904,0.999093,0.004820,-0.038946,0.016524,-0.682982,-0.416587,0.826833,0.999093,0.004821,-0.038948,0.016542,200.000000,100.000000,0.000000,0.001922,0.000000,0.000000,0.000000,0.000000,0.000000,0.000000,1.311981,0.827945,0.971256,0.000097,-0.461102,1.301460,0.599050
0.160000,-0.682697,-0.418805,0.826904,0.999093,0.004820,-0.038946,0.016523,-0.682991,-0.416526,0.826831,0.999093,0.004821,-0.038948,0.016542,200.000000,100.000000,0.000000,0.001983,0.000000,0.000000,0.000000,0.000000,0.000000,0.000000,1.311979,0.827947,0.971257,0.000099,-0.461102,1.301462,0.599048
0.161000,-0.682698,-0.418803,0.826903,0.999093,0.004820,-0.038946,0.016523,-0.682995,-0.416496,0.826830,0.999093,0.004821,-0.038948,0.016542,200.000000,100.000000,0.000000,0.001992,0.000000,0.000000,0.000000,0.000000,0.000000,0.000000,1.311978,0.827949,0.971258,0.000101,-0.461102,1.301463,0.599045
0.162000,-0.682699,-0.418801,0.826903,0.999093,0.004820,-0.038946,0.016522,-0.682999,-0.416465,0.826829,0.999093,0.004821,-0.038948,0.016542,200.000000,100.000000,0.000000,0.002055,0.000000,0.000000,0.000000,0.000000,0.000000,0.000000,1.311976,0.827951,0.971259,0.000103,-0.461102,1.301464,0.599042
0.163000,-0.682700,-0.418800,0.826903,0.999093,0.004820,-0.038946,0.016522,-0.682999,-0.416465,0.826829,0.999093,0.004821,-0.038948,0.016542,200.000000,100.000000,0.000000,0.002065,0.000000,0.000000,0.000000,0.000000,0.000000,0.000000,1.311975,0.827953,0.971260,0.000106,-0.461101,1.301466,0.599039
0.164000,-0.682701,-0.418798,0.826903,0.999093,0.004820,-0.038946,0.016522,-0.683008,-0.416403,0.826827,0.999093,0.004821,-0.038948,0.016542,200.000000,100.000000,0.000000,0.002127,0.000000,0.000000,0.000000,0.000000,0.000000,0.000000,1.311973,0.827955,0.971261,0.000108,-0.461101,1.301467,0.599036
0.165000,-0.682702,-0.418796,0.826903,0.999093,0.004820,-0.038946,0.016521,-0.683013,-0.416372,0.826826,0.999093,0.004821,-0.038948,0.016542,200.000000,100.000000,0.000000,0.002138,0.000000,0.000000,0.000000,0.000000,0.000000,0.000000,1.311972,0.827957,0.971262,0.000110,-0.461101,1.301468,0.599033
0.166000,-0.682703,-0.418794,0.826903,0.999093,0.004820,-0.038946,0.016521,-0.683017,-0.416340,0.826825,0.999093,0.004821,-0.038948,0.016542,200.000000,100.000000,0.000000,0.002203,0.000000,0.000000,0.000000,0.000000,0.000000,0.000000,1.311970,0.827959,0.971263,0.000113,-0.461101,1.301470,0.599030
0.167000,-0.682705,-0.418792,0.826903,0.999093,0.004820,-0.038946,0.016520,-0.683022,-0.416308,0.826824,0.999093,0.004821,-0.038948,0.016542,200.000000,100.000000,0.000000,0.002214,0.000000,0.000000,0.000000,0.000000,0.000000,0.000000,1.311968,0.827961,0.971264,0.000115,-0.461101,1.301471,0.599027
0.167000,-0.682706,-0.418790,0.826903,0.999093,0.004820,-0.038946,0.016520,-0.683022,-0.416308,0.826824,0.999093,0.004821,-0.038948,0.016542,200.000000,100.000000,0.000000,0.002279,0.000000,0.000000,0.000000,0.000000,0.000000,0.000000,1.311967,0.827963,0.971265,0.000118,-0.461100,1.301473,0.599024
0.167000,-0.682707,-0.418789,0.826902,0.999093,0.004820,-0.038946,0.016520,-0.683026,-0.416276,0.826823,0.999093,0.004821,-0.038948,0.016542,200.000000,100.000000,0.000000,0.002290,0.000000,0.000000,0.000000,0.000000,0.000000,0.000000,1.311965,0.827966,0.971266,0.000120,-0.461100,1.301474,0.599021
0.170000,-0.682708,-0.418787,0.826902,0.999093,0.004820,-0.038946,0.016519,-0.683031,-0.416244,0.826822,0.999093,0.004821,-0.038948,0.016542,200.000000,100.000000,0.000000,0.002356,0.000000,0.000000,0.000000,0.000000,0.000000,0.000000,1.311963,0.827968,0.971267,0.000123,-0.461100,1.301476,0.599017
0.170000,-0.682710,-0.418785,0.826902,0.999093,0.004820,-0.038946,0.016519,-0.683040,-0.416179,0.826819,0.999093,0.004821,-0.038948,0.016542,200.000000,100.000000,0.000000,0.002369,0.000000,0.000000,0.000000,0.000000,0.000000,0.000000,1.311961,0.827970,0.971269,0.000125,-0.461100,1.301477,0.599014
0.170000,-0.682711,-0.418783,0.826902,0.999093,0.004820,-0.038946,0.016518,-0.683040,-0.416179,0.826819,0.999093,0.004821,-0.038948,0.016542,200.000000,100.000000,0.000000,0.002435,0.000000,0.000000,0.000000,0.000000,0.000000,0.000000,1.311960,0.827973,0.971270,0.000128,-0.461099,1.301479,0.599011
0.173000,-0.682712,-0.418780,0.826902,0.999093,0.004820,-0.038946,0.016518,-0.683040,-0.416179,0.826819,0.999093,0.004821,-0.038948,0.016542,200.000000,100.000000,0.000000,0.002448,0.000000,0.000000,0.000000,0.000000,0.000000,0.000000,1.311958,0.827975,0.971271,0.000131,-0.461099,1.301480,0.599007
0.174000,-0.682714,-0.418778,0.826902,0.999093,0.004820,-0.038946,0.016517,-0.683040,-0.416179,0.826819,0.999093,0.004821,-0.038948,0.016542,200.000000,100.000000,0.000000,0.002515,0.000000,0.000000,0.000000,0.000000,0.000000,0.000000,1.311956,0.827977,0.971272,0.000133,-0.461099,1.301482,0.599004
0.175000,-0.682715,-0.418776,0.826902,0.999093,0.004819,-0.038946,0.016517,-0.683059,-0.416047,0.826815,0.999093,0.004821,-0.038948,0.016542,200.000000,100.000000,0.000000,0.002527,0.000000,0.000000,0.000000,0.000000,0.000000,0.000000,1.311954,0.827980,0.971274,0.000136,-0.461099,1.301484,0.599000
0.175000,-0.682716,-0.418774,0.826901,0.999093,0.004819,-0.038946,0.016516,-0.683059,-0.416047,0.826815,0.999093,0.004821,-0.038948,0.016542,200.000000,100.000000,0.000000,0.002595,0.000000,0.000000,0.000000,0.000000,0.000000,0.000000,1.311952,0.827982,0.971275,0.000139,-0.461098,1.301485,0.598996
0.176000,-0.682718,-0.418772,0.826901,0.999093,0.004819,-0.038946,0.016516,-0.683059,-0.416047,0.826815,0.999093,0.004821,-0.038948,0.016542,200.000000,100.000000,0.000000,0.002610,0.000000,0.000000,0.000000,0.000000,0.000000,0.000000,1.311950,0.827985,0.971276,0.000142,-0.461098,1.301487,0.598993
0.178000,-0.682719,-0.418770,0.826901,0.999093,0.004819,-0.038946,0.016515,-0.683059,-0.416047,0.826815,0.999093,0.004821,-0.038948,0.016542,200.000000,100.000000,0.000000,0.002678,0.000000,0.000000,0.000000,0.000000,0.000000,0.000000,1.311948,0.827988,0.971278,0.000145,-0.461098,1.301489,0.598989
0.179000,-0.682721,-0.418767,0.826901,0.999093,0.004819,-0.038946,0.016515,-0.683059,-0.416047,0.826815,0.999093,0.004821,-0.038948,0.016542,200.000000,100.000000,0.000000,0.002692,0.000000,0.000000,0.000000,0.000000,0.000000,0.000000,1.311946,0.827990,0.971279,0.000148,-0.461098,1.301490,0.598985
0.180000,-0.682722,-0.418765,0.826901,0.999093,0.004819,-0.038945,0.016514,-0.683084,-0.415877,0.826809,0.999093,0.004821,-0.038948,0.016542,200.000000,100.000000,0.000000,0.002759,0.000000,0.000000,0.000000,0.000000,0.000000,0.000000,1.311944,0.827993,0.971280,0.000151,-0.461097,1.301492,0.598981
0.181000,-0.682724,-0.418763,0.826901,0.999093,0.004819,-0.038945,0.016514,-0.683084,-0.415877,0.826809,0.999093,0.004821,-0.038948,0.016542,200.000000,100.000000,0.000000,0.002776,0.000000,0.000000,0.000000,0.000000,0.000000,0.000000,1.311942,0.827996,0.971282,0.000154,-0.461097,1.301494,0.598977
0.182000,-0.682725,-0.418760,0.826900,0.999093,0.004819,-0.038945,0.016513,-0.683094,-0.415808,0.826807,0.999093,0.004821,-0.038948,0.016542,200.000000,100.000000,0.000000,0.002847,0.000000,0.000000,0.000000,0.000000,0.000000,0.000000,1.311940,0.827998,0.971283,0.000157,-0.461097,1.301496,0.598973
0.183000,-0.682727,-0.418758,0.826900,0.999093,0.004819,-0.038945,0.016513,-0.683099,-0.415773,0.826806,0.999093,0.004821,-0.038948,0.016542,200.000000,100.000000,0.000000,0.002864,0.000000,0.000000,0.000000,0.000000,0.000000,0.000000,1.311938,0.828001,0.971285,0.000160,-0.461096,1.301497,0.598969
0.184000,-0.682728,-0.418755,0.826900,0.999093,0.004819,-0.038945,0.016512,-0.683104,-0.415738,0.826805,0.999093,0.004821,-0.038948,0.016542,200.000000,100.000000,0.000000,0.002936,0.000000,0.000000,0.000000,0.000000,0.000000,0.000000,1.311935,0.828004,0.971286,0.000163,-0.461096,1.301499,0.598965
0.185000,-0.682730,-0.418753,0.826900,0.999093,0.004819,-0.038945,0.016512,-0.683104,-0.415738,0.826805,0.999093,0.004821,-0.038948,0.016542,200.000000,100.000000,0.000000,0.002954,0.000000,0.000000,0.000000,0.000000,0.000000,0.000000,1.311933,0.828007,0.971288,0.000166,-0.461095,1.301501,0.598961
0.186000,-0.682731,-0.418750,0.826900,0.999093,0.004819,-0.038945,0.016511,-0.683114,-0.415667,0.826803,0.999093,0.004821,-0.038948,0.016542,200.000000,100.000000,0.000000,0.003027,0.000000,0.000000,0.000000,0.000000,0.000000,0.000000,1.311931,0.828010,0.971289,0.000169,-0.461095,1.301503,0.598957
0.187000,-0.682733,-0.418748,0.826900,0.999093,0.004819,-0.038945,0.016511,-0.683119,-0.415632,0.826801,0.999093,0.004821,-0.038948,0.016542,200.000000,100.000000,0.000000,0.003046,0.000000,0.000000,0.000000,0.000000,0.000000,0.000000,1.311929,0.828013,0.971291,0.000173,-0.461095,1.301505,0.598953
0.188000,-0.682735,-0.418745,0.826899,0.999093,0.004819,-0.038945,0.016510,-0.683124,-0.415596,0.826800,0.999093,0.004821,-0.038948,0.016542,200.000000,100.000000,0.000000,0.003120,0.000000,0.000000,0.000000,0.000000,0.000000,0.000000,1.311926,0.828016,0.971292,0.000176,-0.461094,1.301507,0.598948
0.189000,-0.682736,-0.418742,0.826899,0.999093,0.004819,-0.038945,0.016510,-0.683124,-0.415596,0.826800,0.999093,0.004821,-0.038948,0.016542,200.000000,100.000000,0.000000,0.003140,0.000000,0.000000,0.000000,0.000000,0.000000,0.000000,1.311924,0.828019,0.971294,0.000179,-0.461094,1.301509,0.598944
0.190000,-0.682738,-0.418740,0.826899,0.999093,0.004819,-0.038945,0.016509,-0.683134,-0.415523,0.826798,0.999093,0.004821,-0.038948,0.016542,200.000000,100.000000,0.000000,0.003214,0.000000,0.000000,0.000000,0.000000,0.000000,0.000000,1.311921,0.828022,0.971295,0.000183,-0.461094,1.301511,0.598939
0.191000,-0.682740,-0.418737,0.826899,0.999093,0.004819,-0.038945,0.016508,-0.683140,-0.415487,0.826797,0.999093,0.004821,-0.038948,0.016542,200.000000,100.000000,0.000000,0.003235,0.000000,0.000000,0.000000,0.000000,0.000000,0.000000,1.311919,0.828025,0.971297,0.000186,-0.461093,1.301513,0.598935
0.191000,-0.682741,-0.418734,0.826899,0.999093,0.004819,-0.038945,0.016508,-0.683145,-0.415450,0.826795,0.999093,0.004821,-0.038948,0.016542,200.000000,100.000000,0.000000,0.003310,0.000000,0.000000,0.000000,0.000000,0.000000,0.000000,1.311916,0.828028,0.971299,0.000190,-0.461093,1.301515,0.598930
0.193000,-0.682743,-0.418731,0.826898,0.999093,0.004819,-0.038945,0.016507,-0.683145,-0.415450,0.826795,0.999093,0.004821,-0.038948,0.016542,200.000000,100.000000,0.000000,0.003331,0.000000,0.000000,0.000000,0.000000,0.000000,0.000000,1.311914,0.828032,0.971300,0.000193,-0.461092,1.301517,0.598925
0.194000,-0.682745,-0.418729,0.826898,0.999093,0.004819,-0.038945,0.016507,-0.683155,-0.415376,0.826793,0.999093,0.004821,-0.038948,0.016542,200.000000,100.000000,0.000000,0.003407,0.000000,0.000000,0.000000,0.000000,0.000000,0.000000,1.311911,0.828035,0.971302,0.000197,-0.461092,1.301519,0.598921
0.195000,-0.682747,-0.418726,0.826898,0.999093,0.004819,-0.038945,0.016506,-0.683161,-0.415339,0.826792,0.999093,0.004821,-0.038948,0.016542,200.000000,100.000000,0.000000,0.003431,0.000000,0.000000,0.000000,0.000000,0.000000,0.000000,1.311909,0.828038,0.971304,0.000201,-0.461091,1.301521,0.598916
0.196000,-0.682749,-0.418723,0.826898,0.999093,0.004819,-0.038945,0.016505,-0.683166,-0.415301,0.826791,0.999093,0.004821,-0.038948,0.016542,200.000000,100.000000,0.000000,0.003504,0.000000,0.000000,0.000000,0.000000,0.000000,0.000000,1.311906,0.828042,0.971306,0.000204,-0.461091,1.301523,0.598911
0.197000,-0.682751,-0.418720,0.826897,0.999093,0.004819,-0.038944,0.016505,-0.683172,-0.415263,0.826789,0.999093,0.004821,-0.038948,0.016542,200.000000,100.000000,0.000000,0.003535,0.000000,0.000000,0.000000,0.000000,0.000000,0.000000,1.311903,0.828045,0.971307,0.000208,-0.461090,1.301525,0.598906
0.198000,-0.682753,-0.418717,0.826897,0.999093,0.004819,-0.038944,0.016504,-0.683172,-0.415263,0.826789,0.999093,0.004821,-0.038948,0.016542,200.000000,100.000000,0.000000,0.003591,0.000000,0.000000,0.000000,0.000000,0.000000,0.000000,1.311901,0.828049,0.971309,0.000212,-0.461090,1.301527,0.598901
0.199000,-0.682755,-0.418714,0.826897,0.999093,0.004818,-0.038944,0.016504,-0.683182,-0.415187,0.826787,0.999093,0.004821,-0.038948,0.016542,200.000000,100.000000,0.000000,0.003644,0.000000,0.000000,0.000000,0.000000,0.000000,0.000000,1.311898,0.828052,0.971311,0.000216,-0.461089,1.301529,0.598896
0.200000,-0.682757,-0.418710,0.826897,0.999093,0.004818,-0.038944,0.016503,-0.683188,-0.415149,0.826786,0.999093,0.004821,-0.038948,0.016542,200.000000,100.000000,0.000000,0.003695,0.000000,0.000000,0.000000,0.000000,0.000000,0.000000,1.311895,0.828056,0.971313,0.000220,-0.461089,1.301532,0.598890
0.201000,-0.682759,-0.418707,0.826897,0.999093,0.004818,-0.038944,0.016502,-0.683193,-0.415111,0.826784,0.999093,0.004821,-0.038948,0.016542,200.000000,100.000000,0.000000,0.003747,0.000000,0.000000,0.000000,0.000000,0.000000,0.000000,1.311892,0.828059,0.971315,0.000224,-0.461088,1.301534,0.598885
0.202000,-0.682761,-0.418704,0.826896,0.999094,0.004818,-0.038944,0.016502,-0.683199,-0.415072,0.826783,0.999093,0.004821,-0.038948,0.016542,200.000000,100.000000,0.000000,0.003802,0.000000,0.000000,0.000000,0.000000,0.000000,0.000000,1.311889,0.828063,0.971317,0.000228,-0.461088,1.301536,0.598880
0.203000,-0.682763,-0.418701,0.826896,0.999094,0.004818,-0.038944,0.016501,-0.683199,-0.415072,0.826783,0.999093,0.004821,-0.038948,0.016542,200.000000,100.000000,0.000000,0.003852,0.000000,0.000000,0.000000,0.000000,0.000000,0.000000,1.311886,0.828067,0.971319,0.000232,-0.461087,1.301539,0.598874
0.204000,-0.682765,-0.418698,0.826896,0.999094,0.004818,-0.038944,0.016500,-0.683210,-0.414994,0.826780,0.999093,0.004821,-0.038948,0.016542,200.000000,100.000000,0.000000,0.003926,0.000000,0.000000,0.000000,0.000000,0.000000,0.000000,1.311883,0.828071,0.971321,0.000236,-0.461086,1.301541,0.598869
0.205000,-0.682767,-0.418694,0.826896,0.999094,0.004818,-0.038944,0.016500,-0.683216,-0.414955,0.826779,0.999093,0.004821,-0.038948,0.016542,200.000000,100.000000,0.000000,0.003950,0.000000,0.000000,0.000000,0.000000,0.000000,0.000000,1.311880,0.828075,0.971323,0.000240,-0.461086,1.301543,0.598863
0.206000,-0.682769,-0.418691,0.826895,0.999094,0.004818,-0.038944,0.016499,-0.683221,-0.414915,0.826778,0.999093,0.004821,-0.038948,0.016542,200.000000,100.000000,0.000000,0.004033,0.000000,0.000000,0.000000,0.000000,0.000000,0.000000,1.311877,0.828079,0.971325,0.000244,-0.461085,1.301546,0.598858
0.207000,-0.682771,-0.418687,0.826895,0.999094,0.004818,-0.038944,0.016498,-0.683227,-0.414876,0.826777,0.999093,0.004821,-0.038948,0.016542,200.000000,100.000000,0.000000,0.004059,0.000000,0.000000,0.000000,0.000000,0.000000,0.000000,1.311874,0.828082,0.971327,0.000249,-0.461085,1.301548,0.598852
0.208000,-0.682773,-0.418684,0.826895,0.999094,0.004818,-0.038944,0.016498,-0.683233,-0.414836,0.826775,0.999093,0.004821,-0.038948,0.016542,200.000000,100.000000,0.000000,0.004142,0.000000,0.000000,0.000000,0.000000,0.000000,0.000000,1.311871,0.828087,0.971329,0.000253,-0.461084,1.301550,0.598846
0.209000,-0.682776,-0.418680,0.826895,0.999094,0.004818,-0.038944,0.016497,-0.683233,-0.414836,0.826775,0.999093,0.004821,-0.038948,0.016542,200.000000,100.000000,0.000000,0.004169,0.000000,0.000000,0.000000,0.000000,0.000000,0.000000,1.311868,0.828091,0.971331,0.000258,-0.461083,1.301553,0.598840
0.210000,-0.682778,-0.418677,0.826894,0.999094,0.004818,-0.038943,0.016496,-0.683239,-0.414796,0.826774,0.999093,0.004821,-0.038948,0.016542,200.000000,100.000000,0.000000,0.004251,0.000000,0.000000,0.000000,0.000000,0.000000,0.000000,1.311864,0.828095,0.971333,0.000262,-0.461083,1.301555,0.598834
0.211000,-0.682780,-0.418673,0.826894,0.999094,0.004818,-0.038943,0.016496,-0.683244,-0.414755,0.826773,0.999093,0.004821,-0.038948,0.016542,200.000000,100.000000,0.000000,0.004280,0.000000,0.000000,0.000000,0.000000,0.000000,0.000000,1.311861,0.828099,0.971335,0.000267,-0.461082,1.301558,0.598828
0.212000,-0.682782,-0.418670,0.826894,0.999094,0.004818,-0.038943,0.016495,-0.683256,-0.414674,0.826770,0.999093,0.004821,-0.038948,0.016542,200.000000,100.000000,0.000000,0.004362,0.000000,0.000000,0.000000,0.000000,0.000000,0.000000,1.311858,0.828103,0.971337,0.000271,-0.461081,1.301561,0.598822
0.212000,-0.682785,-0.418666,0.826893,0.999094,0.004818,-0.038943,0.016494,-0.683262,-0.414633,0.826769,0.999093,0.004821,-0.038948,0.016542,200.000000,100.000000,0.000000,0.004391,0.000000,0.000000,0.000000,0.000000,0.000000,0.000000,1.311854,0.828107,0.971339,0.000276,-0.461080,1.301563,0.598816
0.214000,-0.682787,-0.418662,0.826893,0.999094,0.004818,-0.038943,0.016493,-0.683262,-0.414633,0.826769,0.999093,0.004821,-0.038948,0.016542,200.000000,100.000000,0.000000,0.004476,0.000000,0.000000,0.000000,0.000000,0.000000,0.000000,1.311851,0.828112,0.971342,0.000280,-0.461080,1.301566,0.598809
0.215000,-0.682790,-0.418658,0.826893,0.999094,0.004818,-0.038943,0.016493,-0.683262,-0.414633,0.826769,0.999093,0.004821,-0.038948,0.016542,200.000000,100.000000,0.000000,0.004506,0.000000,0.000000,0.000000,0.000000,0.000000,0.000000,1.311847,0.828116,0.971344,0.000285,-0.461079,1.301568,0.598803
0.216000,-0.682792,-0.418654,0.826892,0.999094,0.004818,-0.038943,0.016492,-0.683280,-0.414510,0.826765,0.999093,0.004821,-0.038948,0.016542,200.000000,100.000000,0.000000,0.004588,0.000000,0.000000,0.000000,0.000000,0.000000,0.000000,1.311844,0.828121,0.971346,0.000290,-0.461078,1.301571,0.598796
0.217000,-0.682795,-0.418650,0.826892,0.999094,0.004818,-0.038943,0.016491,-0.683286,-0.414468,0.826763,0.999093,0.004821,-0.038948,0.016542,200.000000,100.000000,0.000000,0.004622,0.000000,0.000000,0.000000,0.000000,0.000000,0.000000,1.311840,0.828125,0.971349,0.000295,-0.461077,1.301574,0.598790
0.217000,-0.682797,-0.418647,0.826892,0.999094,0.004817,-0.038943,0.016491,-0.683286,-0.414468,0.826763,0.999093,0.004821,-0.038948,0.016542,200.000000,100.000000,0.000000,0.004707,0.000000,0.000000,0.000000,0.000000,0.000000,0.000000,1.311836,0.828130,0.971351,0.000300,-0.461077,1.301576,0.598783
0.219000,-0.682800,-0.418643,0.826892,0.999094,0.004817,-0.038943,0.016490,-0.683286,-0.414468,0.826763,0.999093,0.004821,-0.038948,0.016542,200.000000,100.000000,0.000000,0.004739,0.000000,0.000000,0.000000,0.000000,0.000000,0.000000,1.311833,0.828134,0.971353,0.000305,-0.461076,1.301579,0.598777
0.220000,-0.682802,-0.418638,0.826891,0.999094,0.004817,-0.038942,0.016489,-0.683298,-0.414384,0.826760,0.999093,0.004821,-0.038948,0.016542,200.000000,100.000000,0.000000,0.004826,0.000000,0.000000,0.000000,0.000000,0.000000,0.000000,1.311829,0.828139,0.971356,0.000310,-0.461075,1.301582,0.598770
0.221000,-0.682805,-0.418634,0.826891,0.999094,0.004817,-0.038942,0.016488,-0.683310,-0.414299,0.826758,0.999093,0.004821,-0.038948,0.016542,200.000000,100.000000,0.000000,0.004858,0.000000,0.000000,0.000000,0.000000,0.000000,0.000000,1.311825,0.828144,0.971358,0.000315,-0.461074,1.301585,0.598763
0.222000,-0.682807,-0.418630,0.826891,0.999094,0.004817,-0.038942,0.016488,-0.683316,-0.414257,0.826756,0.999093,0.004821,-0.038948,0.016542,200.000000,100.000000,0.000000,0.004946,0.000000,0.000000,0.000000,0.000000,0.000000,0.000000,1.311821,0.828149,0.971361,0.000320,-0.461073,1.301588,0.598756
0.223000,-0.682810,-0.418626,0.826890,0.999094,0.004817,-0.038942,0.016487,-0.683322,-0.414214,0.826755,0.999093,0.004821,-0.038948,0.016542,200.000000,100.000000,0.000000,0.004980,0.000000,0.000000,0.000000,0.000000,0.000000,0.000000,1.311818,0.828153,0.971363,0.000325,-0.461072,1.301590,0.598749
0.224000,-0.682813,-0.418622,0.826890,0.999094,0.004817,-0.038942,0.016486,-0.683328,-0.414171,0.826753,0.999093,0.004821,-0.038948,0.016542,200.000000,100.000000,0.000000,0.005071,0.000000,0.000000,0.000000,0.000000,0.000000,0.000000,1.311814,0.828158,0.971366,0.000330,-0.461071,1.301593,0.598742
0.224000,-0.682816,-0.418617,0.826890,0.999094,0.004817,-0.038942,0.016485,-0.683334,-0.414128,0.826752,0.999093,0.004821,-0.038948,0.016542,200.000000,100.000000,0.000000,0.005106,0.000000,0.000000,0.000000,0.000000,0.000000,0.000000,1.311810,0.828163,0.971368,0.000336,-0.461070,1.301596,0.598734
0.224000,-0.682818,-0.418613,0.826889,0.999094,0.004817,-0.038942,0.016484,-0.683334,-0.414128,0.826752,0.999093,0.004821,-0.038948,0.016542,200.000000,100.000000,0.000000,0.005195,0.000000,0.000000,0.000000,0.000000,0.000000,0.000000,1.311806,0.828168,0.971371,0.000341,-0.461069,1.301599,0.598727
0.227000,-0.682821,-0.418609,0.826889,0.999094,0.004817,-0.038942,0.016484,-0.683334,-0.414128,0.826752,0.999093,0.004821,-0.038948,0.016542,200.000000,100.000000,0.000000,0.005231,0.000000,0.000000,0.000000,0.000000,0.000000,0.000000,1.311801,0.828174,0.971374,0.000347,-0.461068,1.301602,0.598720
0.228000,-0.682824,-0.418604,0.826888,0.999094,0.004817,-0.038942,0.016483,-0.683353,-0.413997,0.826748,0.999093,0.004821,-0.038948,0.016542,200.000000,100.000000,0.000000,0.005321,0.000000,0.000000,0.000000,0.000000,0.000000,0.000000,1.311797,0.828179,0.971376,0.000352,-0.461067,1.301605,0.598712
0.229000,-0.682827,-0.418600,0.826888,0.999094,0.004817,-0.038942,0.016482,-0.683359,-0.413953,0.826746,0.999093,0.004821,-0.038948,0.016542,200.000000,100.000000,0.000000,0.005358,0.000000,0.000000,0.000000,0.000000,0.000000,0.000000,1.311793,0.828184,0.971379,0.000358,-0.461066,1.301608,0.598705
0.230000,-0.682830,-0.418595,0.826888,0.999094,0.004817,-0.038941,0.016481,-0.683366,-0.413909,0.826745,0.999093,0.004821,-0.038948,0.016542,200.000000,100.000000,0.000000,0.005449,0.000000,0.000000,0.000000,0.000000,0.000000,0.000000,1.311789,0.828189,0.971382,0.000363,-0.461065,1.301611,0.598697
0.231000,-0.682833,-0.418590,0.826887,0.999094,0.004817,-0.038941,0.016480,-0.683372,-0.413864,0.826743,0.999093,0.004821,-0.038948,0.016542,200.000000,100.000000,0.000000,0.005487,0.000000,0.000000,0.000000,0.000000,0.000000,0.000000,1.311785,0.828195,0.971385,0.000369,-0.461064,1.301614,0.598689
0.232000,-0.682836,-0.418586,0.826887,0.999094,0.004817,-0.038941,0.016479,-0.683379,-0.413819,0.826742,0.999093,0.004821,-0.038948,0.016542,200.000000,100.000000,0.000000,0.005582,0.000000,0.000000,0.000000,0.000000,0.000000,0.000000,1.311780,0.828200,0.971387,0.000375,-0.461063,1.301618,0.598681
0.233000,-0.682839,-0.418581,0.826887,0.999094,0.004816,-0.038941,0.016479,-0.683385,-0.413775,0.826740,0.999093,0.004821,-0.038948,0.016542,200.000000,100.000000,0.000000,0.005620,0.000000,0.000000,0.000000,0.000000,0.000000,0.000000,1.311776,0.828205,0.971390,0.000380,-0.461062,1.301621,0.598673
0.234000,-0.682842,-0.418576,0.826886,0.999094,0.004816,-0.038941,0.016478,-0.683385,-0.413775,0.826740,0.999093,0.004821,-0.038948,0.016542,200.000000,100.000000,0.000000,0.005714,0.000000,0.000000,0.000000,0.000000,0.000000,0.000000,1.311771,0.828211,0.971393,0.000386,-0.461061,1.301624,0.598665
0.235000,-0.682845,-0.418571,0.826886,0.999094,0.004816,-0.038941,0.016477,-0.683398,-0.413684,0.826737,0.999093,0.004821,-0.038948,0.016542,200.000000,100.000000,0.000000,0.005753,0.000000,0.000000,0.000000,0.000000,0.000000,0.000000,1.311767,0.828217,0.971396,0.000392,-0.461060,1.301627,0.598657
0.236000,-0.682848,-0.418566,0.826885,0.999094,0.004816,-0.038941,0.016476,-0.683398,-0.413684,0.826737,0.999093,0.004821,-0.038948,0.016542,200.000000,100.000000,0.000000,0.005846,0.000000,0.000000,0.000000,0.000000,0.000000,0.000000,1.311762,0.828222,0.971399,0.000398,-0.461059,1.301630,0.598649
0.237000,-0.682851,-0.418561,0.826885,0.999094,0.004816,-0.038941,0.016475,-0.683411,-0.413593,0.826734,0.999093,0.004821,-0.038948,0.016542,200.000000,100.000000,0.000000,0.005886,0.000000,0.000000,0.000000,0.000000,0.000000,0.000000,1.311758,0.828228,0.971402,0.000404,-0.461058,1.301634,0.598640
0.238000,-0.682854,-0.418556,0.826885,0.999094,0.004816,-0.038940,0.016474,-0.683411,-0.413593,0.826734,0.999093,0.004821,-0.038948,0.016542,200.000000,100.000000,0.000000,0.005982,0.000000,0.000000,0.000000,0.000000,0.000000,0.000000,1.311753,0.828234,0.971405,0.000410,-0.461057,1.301637,0.598632
0.239000,-0.682857,-0.418551,0.826884,0.999094,0.004816,-0.038940,0.016473,-0.683424,-0.413502,0.826731,0.999093,0.004821,-0.038948,0.016542,200.000000,100.000000,0.000000,0.006022,0.000000,0.000000,0.000000,0.000000,0.000000,0.000000,1.311748,0.828240,0.971408,0.000417,-0.461055,1.301640,0.598623
0.240000,-0.682861,-0.418546,0.826884,0.999094,0.004816,-0.038940,0.016473,-0.683431,-0.413455,0.826730,0.999093,0.004821,-0.038948,0.016542,200.000000,100.000000,0.000000,0.006117,0.000000,0.000000,0.000000,0.000000,0.000000,0.000000,1.311743,0.828246,0.971411,0.000423,-0.461054,1.301644,0.598615
0.241000,-0.682864,-0.418541,0.826883,0.999094,0.004816,-0.038940,0.016472,-0.683437,-0.413409,0.826728,0.999093,0.004821,-0.038948,0.016542,200.000000,100.000000,0.000000,0.006160,0.000000,0.000000,0.000000,0.000000,0.000000,0.000000,1.311738,0.828252,0.971414,0.000429,-0.461053,1.301647,0.598606
0.242000,-0.682867,-0.418536,0.826883,0.999094,0.004816,-0.038940,0.016471,-0.683444,-0.413362,0.826727,0.999093,0.004821,-0.038948,0.016542,200.000000,100.000000,0.000000,0.006259,0.000000,0.000000,0.000000,0.000000,0.000000,0.000000,1.311734,0.828258,0.971417,0.000436,-0.461052,1.301651,0.598597
0.243000,-0.682871,-0.418530,0.826882,0.999094,0.004816,-0.038940,0.016470,-0.683451,-0.413316,0.826725,0.999093,0.004821,-0.038948,0.016542,200.000000,100.000000,0.000000,0.006302,0.000000,0.000000,0.000000,0.000000,0.000000,0.000000,1.311729,0.828264,0.971420,0.000442,-0.461050,1.301654,0.598588
0.244000,-0.682874,-0.418525,0.826882,0.999094,0.004816,-0.038940,0.016469,-0.683457,-0.413269,0.826724,0.999093,0.004821,-0.038948,0.016542,200.000000,100.000000,0.000000,0.006400,0.000000,0.000000,0.000000,0.000000,0.000000,0.000000,1.311724,0.828270,0.971424,0.000449,-0.461049,1.301658,0.598579
0.244000,-0.682878,-0.418520,0.826882,0.999094,0.004816,-0.038939,0.016468,-0.683464,-0.413221,0.826722,0.999093,0.004821,-0.038948,0.016542,200.000000,100.000000,0.000000,0.006443,0.000000,0.000000,0.000000,0.000000,0.000000,0.000000,1.311718,0.828276,0.971427,0.000455,-0.461048,1.301661,0.598570
0.246000,-0.682881,-0.418514,0.826881,0.999094,0.004815,-0.038939,0.016467,-0.683464,-0.413221,0.826722,0.999093,0.004821,-0.038948,0.016542,200.000000,100.000000,0.000000,0.006542,0.000000,0.000000,0.000000,0.000000,0.000000,0.000000,1.311713,0.828283,0.971430,0.000462,-0.461046,1.301665,0.598561
0.247000,-0.682885,-0.418509,0.826881,0.999094,0.004815,-0.038939,0.016466,-0.683478,-0.413126,0.826719,0.999093,0.004821,-0.038948,0.016542,200.000000,100.000000,0.000000,0.006585,0.000000,0.000000,0.000000,0.000000,0.000000,0.000000,1.311708,0.828289,0.971434,0.000469,-0.461045,1.301668,0.598551
0.248000,-0.682888,-0.418503,0.826880,0.999094,0.004815,-0.038939,0.016465,-0.683485,-0.413079,0.826718,0.999093,0.004821,-0.038948,0.016542,200.000000,100.000000,0.000000,0.006687,0.000000,0.000000,0.000000,0.000000,0.000000,0.000000,1.311703,0.828296,0.971437,0.000475,-0.461044,1.301672,0.598542
0.249000,-0.682892,-0.418497,0.826880,0.999094,0.004815,-0.038939,0.016464,-0.683492,-0.413031,0.826716,0.999093,0.004821,-0.038948,0.016542,200.000000,100.000000,0.000000,0.006732,0.000000,0.000000,0.000000,0.000000,0.000000,0.000000,1.311697,0.828302,0.971440,0.000482,-0.461042,1.301675,0.598532
0.249000,-0.682895,-0.418492,0.826879,0.999094,0.004815,-0.038939,0.016463,-0.683498,-0.412982,0.826714,0.999093,0.004821,-0.038948,0.016542,200.000000,100.000000,0.000000,0.006834,0.000000,0.000000,0.000000,0.000000,0.000000,0.000000,1.311692,0.828309,0.971444,0.000489,-0.461041,1.301679,0.598523
0.251000,-0.682899,-0.418486,0.826879,0.999094,0.004815,-0.038939,0.016462,-0.683498,-0.412982,0.826714,0.999093,0.004821,-0.038948,0.016542,200.000000,100.000000,0.000000,0.006880,0.000000,0.000000,0.000000,0.000000,0.000000,0.000000,1.311687,0.828316,0.971447,0.000496,-0.461039,1.301683,0.598513
0.252000,-0.682903,-0.418480,0.826878,0.999094,0.004815,-0.038938,0.016461,-0.683512,-0.412886,0.826711,0.999093,0.004821,-0.038948,0.016542,200.000000,100.000000,0.000000,0.006981,0.000000,0.000000,0.000000,0.000000,0.000000,0.000000,1.311681,0.828323,0.971451,0.000503,-0.461038,1.301687,0.598503
0.253000,-0.682907,-0.418474,0.826878,0.999094,0.004815,-0.038938,0.016460,-0.683519,-0.412837,0.826710,0.999093,0.004821,-0.038948,0.016542,200.000000,100.000000,0.000000,0.007028,0.000000,0.000000,0.000000,0.000000,0.000000,0.000000,1.311675,0.828329,0.971454,0.000510,-0.461036,1.301690,0.598493
0.254000,-0.682910,-0.418468,0.826877,0.999094,0.004815,-0.038938,0.016459,-0.683526,-0.412788,0.826708,0.999093,0.004821,-0.038948,0.016542,200.000000,100.000000,0.000000,0.007130,0.000000,0.000000,0.000000,0.000000,0.000000,0.000000,1.311670,0.828336,0.971458,0.000517,-0.461035,1.301694,0.598483
0.255000,-0.682914,-0.418462,0.826877,0.999094,0.004815,-0.038938,0.016458,-0.683533,-0.412739,0.826706,0.999093,0.004821,-0.038948,0.016542,200.000000,100.000000,0.000000,0.007178,0.000000,0.000000,0.000000,0.000000,0.000000,0.000000,1.311664,0.828343,0.971462,0.000525,-0.461033,1.301698,0.598473
0.255000,-0.682918,-0.418456,0.826876,0.999095,0.004815,-0.038938,0.016457,-0.683540,-0.412689,0.826705,0.999093,0.004821,-0.038948,0.016542,200.000000,100.000000,0.000000,0.007283,0.000000,0.000000,0.000000,0.000000,0.000000,0.000000,1.311658,0.828350,0.971465,0.000532,-0.461032,1.301702,0.598462
0.257000,-0.682922,-0.418450,0.826876,0.999095,0.004814,-0.038938,0.016456,-0.683540,-0.412689,0.826705,0.999093,0.004821,-0.038948,0.016542,200.000000,100.000000,0.000000,0.007332,0.000000,0.000000,0.000000,0.000000,0.000000,0.000000,1.311652,0.828358,0.971469,0.000539,-0.461030,1.301706,0.598452
0.258000,-0.682926,-0.418443,0.826875,0.999095,0.004814,-0.038937,0.016455,-0.683548,-0.412640,0.826703,0.999093,0.004821,-0.038948,0.016542,200.000000,100.000000,0.000000,0.007437,0.000000,0.000000,0.000000,0.000000,0.000000,0.000000,1.311646,0.828365,0.971473,0.000547,-0.461028,1.301710,0.598441
0.259000,-0.682930,-0.418437,0.826874,0.999095,0.004814,-0.038937,0.016454,-0.683562,-0.412540,0.826700,0.999093,0.004821,-0.038948,0.016542,200.000000,100.000000,0.000000,0.007485,0.000000,0.000000,0.000000,0.000000,0.000000,0.000000,1.311640,0.828372,0.971476,0.000555,-0.461027,1.301714,0.598431
0.260000,-0.682934,-0.418431,0.826874,0.999095,0.004814,-0.038937,0.016453,-0.683562,-0.412540,0.826700,0.999093,0.004821,-0.038948,0.016542,200.000000,100.000000,0.000000,0.007590,0.000000,0.000000,0.000000,0.000000,0.000000,0.000000,1.311634,0.828379,0.971480,0.000562,-0.461025,1.301718,0.598420
0.261000,-0.682938,-0.418424,0.826873,0.999095,0.004814,-0.038937,0.016452,-0.683576,-0.412439,0.826697,0.999093,0.004821,-0.038948,0.016542,200.000000,100.000000,0.000000,0.007640,0.000000,0.000000,0.000000,0.000000,0.000000,0.000000,1.311628,0.828387,0.971484,0.000570,-0.461023,1.301722,0.598409
0.262000,-0.682942,-0.418418,0.826873,0.999095,0.004814,-0.038937,0.016451,-0.683584,-0.412389,0.826695,0.999093,0.004821,-0.038948,0.016542,200.000000,100.000000,0.000000,0.007745,0.000000,0.000000,0.000000,0.000000,0.000000,0.000000,1.311622,0.828394,0.971488,0.000578,-0.461021,1.301726,0.598398
0.262000,-0.682947,-0.418411,0.826872,0.999095,0.004814,-0.038937,0.016450,-0.683584,-0.412389,0.826695,0.999093,0.004821,-0.038948,0.016542,200.000000,100.000000,0.000000,0.007797,0.000000,0.000000,0.000000,0.000000,0.000000,0.000000,1.311616,0.828402,0.971492,0.000585,-0.461020,1.301730,0.598387
0.264000,-0.682951,-0.418405,0.826872,0.999095,0.004814,-0.038936,0.016449,-0.683591,-0.412338,0.826693,0.999093,0.004821,-0.038948,0.016542,200.000000,100.000000,0.000000,0.007905,0.000000,0.000000,0.000000,0.000000,0.000000,0.000000,1.311610,0.828410,0.971496,0.000593,-0.461018,1.301734,0.598376
0.265000,-0.682955,-0.418398,0.826871,0.999095,0.004814,-0.038936,0.016448,-0.683605,-0.412236,0.826690,0.999093,0.004821,-0.038948,0.016542,200.000000,100.000000,0.000000,0.007956,0.000000,0.000000,0.000000,0.000000,0.000000,0.000000,1.311603,0.828417,0.971500,0.000601,-0.461016,1.301739,0.598364
0.266000,-0.682959,-0.418391,0.826870,0.999095,0.004814,-0.038936,0.016447,-0.683605,-0.412236,0.826690,0.999093,0.004821,-0.038948,0.016542,200.000000,100.000000,0.000000,0.008064,0.000000,0.000000,0.000000,0.000000,0.000000,0.000000,1.311597,0.828425,0.971504,0.000609,-0.461014,1.301743,0.598353
0.267000,-0.682964,-0.418384,0.826870,0.999095,0.004814,-0.038936,0.016446,-0.683620,-0.412133,0.826686,0.999093,0.004821,-0.038948,0.016542,200.000000,100.000000,0.000000,0.008116,0.000000,0.000000,0.000000,0.000000,0.000000,0.000000,1.311590,0.828433,0.971508,0.000618,-0.461012,1.301747,0.598341
0.268000,-0.682968,-0.418377,0.826869,0.999095,0.004813,-0.038936,0.016445,-0.683620,-0.412133,0.826686,0.999093,0.004821,-0.038948,0.016542,200.000000,100.000000,0.000000,0.008225,0.000000,0.000000,0.000000,0.000000,0.000000,0.000000,1.311584,0.828441,0.971512,0.000626,-0.461010,1.301751,0.598330
0.269000,-0.682973,-0.418370,0.826869,0.999095,0.004813,-0.038935,0.016444,-0.683635,-0.412029,0.826683,0.999093,0.004821,-0.038948,0.016542,200.000000,100.000000,0.000000,0.008278,0.000000,0.000000,0.000000,0.000000,0.000000,0.000000,1.311577,0.828449,0.971517,0.000634,-0.461009,1.301756,0.598318
0.270000,-0.682977,-0.418363,0.826868,0.999095,0.004813,-0.038935,0.016442,-0.683643,-0.411977,0.826681,0.999093,0.004821,-0.038948,0.016542,200.000000,100.000000,0.000000,0.008390,0.000000,0.000000,0.000000,0.000000,0.000000,0.000000,1.311570,0.828457,0.971521,0.000642,-0.461007,1.301760,0.598306
0.271000,-0.682982,-0.418356,0.826867,0.999095,0.004813,-0.038935,0.016441,-0.683650,-0.411925,0.826680,0.999093,0.004821,-0.038948,0.016542,200.000000,100.000000,0.000000,0.008445,0.000000,0.000000,0.000000,0.000000,0.000000,0.000000,1.311564,0.828466,0.971525,0.000651,-0.461005,1.301764,0.598294
0.272000,-0.682986,-0.418349,0.826867,0.999095,0.004813,-0.038935,0.016440,-0.683658,-0.411872,0.826678,0.999093,0.004821,-0.038948,0.016542,200.000000,100.000000,0.000000,0.008556,0.000000,0.000000,0.000000,0.000000,0.000000,0.000000,1.311557,0.828474,0.971529,0.000659,-0.461003,1.301769,0.598282
0.273000,-0.682991,-0.418342,0.826866,0.999095,0.004813,-0.038935,0.016439,-0.683665,-0.411820,0.826676,0.999093,0.004821,-0.038948,0.016542,200.000000,100.000000,0.000000,0.008611,0.000000,0.000000,0.000000,0.000000,0.000000,0.000000,1.311550,0.828482,0.971534,0.000668,-0.461001,1.301773,0.598270
0.273000,-0.682995,-0.418334,0.826865,0.999095,0.004813,-0.038934,0.016438,-0.683673,-0.411767,0.826674,0.999093,0.004821,-0.038948,0.016542,200.000000,100.000000,0.000000,0.008722,0.000000,0.000000,0.000000,0.000000,0.000000,0.000000,1.311543,0.828491,0.971538,0.000676,-0.460998,1.301778,0.598257
0.275000,-0.683000,-0.418327,0.826865,0.999095,0.004813,-0.038934,0.016437,-0.683673,-0.411767,0.826674,0.999093,0.004821,-0.038948,0.016542,200.000000,100.000000,0.000000,0.008780,0.000000,0.000000,0.000000,0.000000,0.000000,0.000000,1.311536,0.828499,0.971543,0.000685,-0.460996,1.301782,0.598245
0.276000,-0.683005,-0.418320,0.826864,0.999095,0.004813,-0.038934,0.016436,-0.683673,-0.411767,0.826674,0.999093,0.004821,-0.038948,0.016542,200.000000,100.000000,0.000000,0.008893,0.000000,0.000000,0.000000,0.000000,0.000000,0.000000,1.311528,0.828508,0.971547,0.000694,-0.460994,1.301787,0.598232
0.277000,-0.683010,-0.418312,0.826863,0.999095,0.004812,-0.038934,0.016435,-0.683673,-0.411767,0.826674,0.999093,0.004821,-0.038948,0.016542,200.000000,100.000000,0.000000,0.008947,0.000000,0.000000,0.000000,0.000000,0.000000,0.000000,1.311521,0.828517,0.971552,0.000703,-0.460992,1.301791,0.598219
0.278000,-0.683015,-0.418304,0.826863,0.999095,0.004812,-0.038934,0.016433,-0.683696,-0.411607,0.826669,0.999093,0.004821,-0.038948,0.016542,200.000000,100.000000,0.000000,0.009058,0.000000,0.000000,0.000000,0.000000,0.000000,0.000000,1.311514,0.828526,0.971556,0.000712,-0.460990,1.301796,0.598207
0.279000,-0.683019,-0.418297,0.826862,0.999095,0.004812,-0.038933,0.016432,-0.683703,-0.411553,0.826667,0.999093,0.004821,-0.038948,0.016542,200.000000,100.000000,0.000000,0.009116,0.000000,0.000000,0.000000,0.000000,0.000000,0.000000,1.311507,0.828534,0.971561,0.000721,-0.460988,1.301801,0.598194
0.280000,-0.683024,-0.418289,0.826861,0.999095,0.004812,-0.038933,0.016431,-0.683719,-0.411445,0.826664,0.999093,0.004821,-0.038948,0.016542,200.000000,100.000000,0.000000,0.009228,0.000000,0.000000,0.000000,0.000000,0.000000,0.000000,1.311499,0.828543,0.971566,0.000730,-0.460985,1.301805,0.598181
0.281000,-0.683029,-0.418281,0.826861,0.999095,0.004812,-0.038933,0.016430,-0.683727,-0.411391,0.826662,0.999093,0.004821,-0.038948,0.016542,200.000000,100.000000,0.000000,0.009288,0.000000,0.000000,0.000000,0.000000,0.000000,0.000000,1.311492,0.828552,0.971570,0.000739,-0.460983,1.301810,0.598167
0.282000,-0.683034,-0.418273,0.826860,0.999095,0.004812,-0.038933,0.016429,-0.683734,-0.411336,0.826660,0.999093,0.004821,-0.038948,0.016542,200.000000,100.000000,0.000000,0.009405,0.000000,0.000000,0.000000,0.000000,0.000000,0.000000,1.311484,0.828562,0.971575,0.000748,-0.460981,1.301815,0.598154
0.283000,-0.683039,-0.418265,0.826859,0.999095,0.004812,-0.038933,0.016427,-0.683734,-0.411336,0.826660,0.999093,0.004821,-0.038948,0.016542,200.000000,100.000000,0.000000,0.009465,0.000000,0.000000,0.000000,0.000000,0.000000,0.000000,1.311476,0.828571,0.971580,0.000758,-0.460979,1.301820,0.598140
0.284000,-0.683045,-0.418257,0.826858,0.999095,0.004812,-0.038932,0.016426,-0.683742,-0.411281,0.826658,0.999093,0.004821,-0.038948,0.016542,200.000000,100.000000,0.000000,0.009580,0.000000,0.000000,0.000000,0.000000,0.000000,0.000000,1.311469,0.828580,0.971585,0.000767,-0.460976,1.301825,0.598127
0.284000,-0.683050,-0.418249,0.826858,0.999095,0.004812,-0.038932,0.016425,-0.683750,-0.411227,0.826657,0.999093,0.004821,-0.038948,0.016542,200.000000,100.000000,0.000000,0.009640,0.000000,0.000000,0.000000,0.000000,0.000000,0.000000,1.311461,0.828590,0.971590,0.000777,-0.460974,1.301829,0.598113
0.286000,-0.683055,-0.418241,0.826857,0.999095,0.004811,-0.038932,0.016424,-0.683750,-0.411227,0.826657,0.999093,0.004821,-0.038948,0.016542,200.000000,100.000000,0.000000,0.009755,0.000000,0.000000,0.000000,0.000000,0.000000,0.000000,1.311453,0.828599,0.971595,0.000786,-0.460971,1.301834,0.598099
0.287000,-0.683060,-0.418233,0.826856,0.999095,0.004811,-0.038932,0.016423,-0.683758,-0.411171,0.826655,0.999093,0.004821,-0.038948,0.016542,200.000000,100.000000,0.000000,0.009815,0.000000,0.000000,0.000000,0.000000,0.000000,0.000000,1.311445,0.828609,0.971600,0.000796,-0.460969,1.301839,0.598085
0.288000,-0.683066,-0.418224,0.826855,0.999095,0.004811,-0.038931,0.016421,-0.683782,-0.411005,0.826649,0.999093,0.004821,-0.038948,0.016542,200.000000,100.000000,0.000000,0.009932,0.000000,0.000000,0.000000,0.000000,0.000000,0.000000,1.311437,0.828618,0.971605,0.000806,-0.460966,1.301844,0.598071
0.289000,-0.683071,-0.418216,0.826855,0.999095,0.004811,-0.038931,0.016420,-0.683790,-0.410949,0.826648,0.999093,0.004821,-0.038948,0.016542,200.000000,100.000000,0.000000,0.009995,0.000000,0.000000,0.000000,0.000000,0.000000,0.000000,1.311429,0.828628,0.971610,0.000815,-0.460964,1.301849,0.598057
0.290000,-0.683076,-0.418207,0.826854,0.999095,0.004811,-0.038931,0.016419,-0.683790,-0.410949,0.826648,0.999093,0.004821,-0.038948,0.016542,200.000000,100.000000,0.000000,0.010116,0.000000,0.000000,0.000000,0.000000,0.000000,0.000000,1.311421,0.828638,0.971615,0.000825,-0.460961,1.301854,0.598043
0.291000,-0.683082,-0.418199,0.826853,0.999095,0.004811,-0.038931,0.016418,-0.683806,-0.410837,0.826644,0.999093,0.004821,-0.038948,0.016542,200.000000,100.000000,0.000000,0.010177,0.000000,0.000000,0.000000,0.000000,0.000000,0.000000,1.311412,0.828648,0.971620,0.000835,-0.460959,1.301859,0.598028
0.292000,-0.683087,-0.418190,0.826852,0.999095,0.004811,-0.038930,0.016416,-0.683814,-0.410780,0.826642,0.999093,0.004821,-0.038948,0.016542,200.000000,100.000000,0.000000,0.010298,0.000000,0.000000,0.000000,0.000000,0.000000,0.000000,1.311404,0.828658,0.971625,0.000845,-0.460956,1.301865,0.598013
0.293000,-0.683093,-0.418181,0.826852,0.999096,0.004811,-0.038930,0.016415,-0.683822,-0.410723,0.826640,0.999093,0.004821,-0.038948,0.016542,200.000000,100.000000,0.000000,0.010362,0.000000,0.000000,0.000000,0.000000,0.000000,0.000000,1.311395,0.828668,0.971631,0.000855,-0.460953,1.301870,0.597999
0.294000,-0.683098,-0.418173,0.826851,0.999096,0.004810,-0.038930,0.016414,-0.683830,-0.410667,0.826638,0.999093,0.004821,-0.038948,0.016542,200.000000,100.000000,0.000000,0.010482,0.000000,0.000000,0.000000,0.000000,0.000000,0.000000,1.311387,0.828678,0.971636,0.000866,-0.460951,1.301875,0.597984
0.295000,-0.683104,-0.418164,0.826850,0.999096,0.004810,-0.038930,0.016413,-0.683830,-0.410667,0.826638,0.999093,0.004821,-0.038948,0.016542,200.000000,100.000000,0.000000,0.010548,0.000000,0.000000,0.000000,0.000000,0.000000,0.000000,1.311378,0.828688,0.971641,0.000876,-0.460948,1.301880,0.597969
0.296000,-0.683110,-0.418155,0.826849,0.999096,0.004810,-0.038929,0.016411,-0.683847,-0.410552,0.826634,0.999093,0.004821,-0.038948,0.016542,200.000000,100.000000,0.000000,0.010671,0.000000,0.000000,0.000000,0.000000,0.000000,0.000000,1.311370,0.828699,0.971647,0.000886,-0.460945,1.301885,0.597954
0.297000,-0.683116,-0.418146,0.826848,0.999096,0.004810,-0.038929,0.016410,-0.683855,-0.410495,0.826633,0.999093,0.004821,-0.038948,0.016542,200.000000,100.000000,0.000000,0.010736,0.000000,0.000000,0.000000,0.000000,0.000000,0.000000,1.311361,0.828709,0.971652,0.000897,-0.460942,1.301891,0.597938
0.297000,-0.683121,-0.418137,0.826847,0.999096,0.004810,-0.038929,0.016409,-0.683863,-0.410437,0.826631,0.999093,0.004821,-0.038948,0.016542,200.000000,100.000000,0.000000,0.010859,0.000000,0.000000,0.000000,0.000000,0.000000,0.000000,1.311352,0.828720,0.971658,0.000907,-0.460940,1.301896,0.597923
0.299000,-0.683127,-0.418127,0.826846,0.999096,0.004810,-0.038929,0.016407,-0.683863,-0.410437,0.826631,0.999093,0.004821,-0.038948,0.016542,200.000000,100.000000,0.000000,0.010926,0.000000,0.000000,0.000000,0.000000,0.000000,0.000000,1.311343,0.828730,0.971663,0.000918,-0.460937,1.301901,0.597907
0.300000,-0.683133,-0.418118,0.826846,0.999096,0.004810,-0.038928,0.016406,-0.683880,-0.410321,0.826627,0.999093,0.004821,-0.038948,0.016542,200.000000,100.000000,0.000000,0.011048,0.000000,0.000000,0.000000,0.000000,0.000000,0.000000,1.311334,0.828741,0.971669,0.000929,-0.460934,1.301907,0.597892
0.301000,-0.683139,-0.418109,0.826845,0.999096,0.004810,-0.038928,0.016405,-0.683888,-0.410263,0.826625,0.999093,0.004821,-0.038948,0.016542,200.000000,100.000000,0.000000,0.011116,0.000000,0.000000,0.000000,0.000000,0.000000,0.000000,1.311325,0.828752,0.971675,0.000939,-0.460931,1.301912,0.597876
0.302000,-0.683145,-0.418099,0.826844,0.999096,0.004809,-0.038928,0.016403,-0.683897,-0.410204,0.826623,0.999093,0.004821,-0.038948,0.016542,200.000000,100.000000,0.000000,0.011241,0.000000,0.000000,0.000000,0.000000,0.000000,0.000000,1.311316,0.828763,0.971680,0.000950,-0.460928,1.301918,0.597860
0.303000,-0.683151,-0.418090,0.826843,0.999096,0.004809,-0.038928,0.016402,-0.683905,-0.410146,0.826621,0.999093,0.004821,-0.038948,0.016542,200.000000,100.000000,0.000000,0.011311,0.000000,0.000000,0.000000,0.000000,0.000000,0.000000,1.311307,0.828774,0.971686,0.000961,-0.460925,1.301923,0.597844
0.304000,-0.683157,-0.418080,0.826842,0.999096,0.004809,-0.038927,0.016401,-0.683913,-0.410087,0.826619,0.999093,0.004821,-0.038948,0.016542,200.000000,100.000000,0.000000,0.011437,0.000000,0.000000,0.000000,0.000000,0.000000,0.000000,1.311297,0.828785,0.971692,0.000972,-0.460922,1.301929,0.597827
0.304000,-0.683163,-0.418071,0.826841,0.999096,0.004809,-0.038927,0.016399,-0.683922,-0.410028,0.826617,0.999093,0.004821,-0.038948,0.016542,200.000000,100.000000,0.000000,0.011506,0.000000,0.000000,0.000000,0.000000,0.000000,0.000000,1.311288,0.828796,0.971698,0.000983,-0.460919,1.301934,0.597811
0.305000,-0.683170,-0.418061,0.826840,0.999096,0.004809,-0.038927,0.016398,-0.683922,-0.410028,0.826617,0.999093,0.004821,-0.038948,0.016542,200.000000,100.000000,0.000000,0.011633,0.000000,0.000000,0.000000,0.000000,0.000000,0.000000,1.311278,0.828807,0.971704,0.000995,-0.460916,1.301940,0.597794
0.307000,-0.683176,-0.418051,0.826839,0.999096,0.004809,-0.038926,0.016397,-0.683930,-0.409968,0.826615,0.999093,0.004821,-0.038948,0.016542,200.000000,100.000000,0.000000,0.011702,0.000000,0.000000,0.000000,0.000000,0.000000,0.000000,1.311269,0.828819,0.971710,0.001006,-0.460913,1.301946,0.597778
0.307000,-0.683182,-0.418041,0.826838,0.999096,0.004809,-0.038926,0.016395,-0.683939,-0.409909,0.826613,0.999093,0.004821,-0.038948,0.016542,200.000000,100.000000,0.000000,0.011827,0.000000,0.000000,0.000000,0.000000,0.000000,0.000000,1.311259,0.828830,0.971716,0.001017,-0.460910,1.301951,0.597761
0.309000,-0.683189,-0.418031,0.826837,0.999096,0.004808,-0.038926,0.016394,-0.683947,-0.409849,0.826611,0.999093,0.004821,-0.038948,0.016542,200.000000,100.000000,0.000000,0.011898,0.000000,0.000000,0.000000,0.000000,0.000000,0.000000,1.311249,0.828842,0.971722,0.001029,-0.460906,1.301957,0.597744
0.310000,-0.683195,-0.418021,0.826836,0.999096,0.004808,-0.038926,0.016392,-0.683965,-0.409729,0.826607,0.999093,0.004821,-0.038948,0.016542,200.000000,100.000000,0.000000,0.012027,0.000000,0.000000,0.000000,0.000000,0.000000,0.000000,1.311239,0.828854,0.971728,0.001040,-0.460903,1.301963,0.597727
0.311000,-0.683202,-0.418011,0.826835,0.999096,0.004808,-0.038925,0.016391,-0.683973,-0.409669,0.826605,0.999093,0.004821,-0.038948,0.016542,200.000000,100.000000,0.000000,0.012098,0.000000,0.000000,0.000000,0.000000,0.000000,0.000000,1.311229,0.828865,0.971734,0.001052,-0.460900,1.301969,0.597710
0.312000,-0.683208,-0.418000,0.826834,0.999096,0.004808,-0.038925,0.016390,-0.683982,-0.409609,0.826603,0.999093,0.004821,-0.038948,0.016542,200.000000,100.000000,0.000000,0.012227,0.000000,0.000000,0.000000,0.000000,0.000000,0.000000,1.311219,0.828877,0.971740,0.001064,-0.460896,1.301975,0.597692
0.313000,-0.683215,-0.417990,0.826833,0.999096,0.004808,-0.038925,0.016388,-0.683991,-0.409548,0.826602,0.999093,0.004821,-0.038948,0.016542,200.000000,100.000000,0.000000,0.012300,0.000000,0.000000,0.000000,0.000000,0.000000,0.000000,1.311209,0.828889,0.971747,0.001076,-0.460893,1.301980,0.597675
0.314000,-0.683221,-0.417980,0.826832,0.999096,0.004808,-0.038924,0.016387,-0.683999,-0.409487,0.826600,0.999093,0.004821,-0.038948,0.016542,200.000000,100.000000,0.000000,0.012429,0.000000,0.000000,0.000000,0.000000,0.000000,0.000000,1.311199,0.828901,0.971753,0.001087,-0.460890,1.301986,0.597657
0.315000,-0.683228,-0.417969,0.826831,0.999096,0.004808,-0.038924,0.016385,-0.684008,-0.409426,0.826597,0.999093,0.004821,-0.038948,0.016542,200.000000,100.000000,0.000000,0.012504,0.000000,0.000000,0.000000,0.000000,0.000000,0.000000,1.311189,0.828913,0.971759,0.001099,-0.460886,1.301992,0.597639
0.316000,-0.683235,-0.417958,0.826830,0.999096,0.004807,-0.038924,0.016384,-0.684017,-0.409365,0.826595,0.999093,0.004821,-0.038948,0.016542,200.000000,100.000000,0.000000,0.012636,0.000000,0.000000,0.000000,0.000000,0.000000,0.000000,1.311178,0.828926,0.971766,0.001111,-0.460883,1.301998,0.597621
0.317000,-0.683242,-0.417948,0.826829,0.999096,0.004807,-0.038923,0.016383,-0.684026,-0.409304,0.826593,0.999093,0.004821,-0.038948,0.016542,200.000000,100.000000,0.000000,0.012711,0.000000,0.000000,0.000000,0.000000,0.000000,0.000000,1.311168,0.828938,0.971772,0.001124,-0.460879,1.302004,0.597603
0.318000,-0.683248,-0.417937,0.826828,0.999096,0.004807,-0.038923,0.016381,-0.684035,-0.409242,0.826591,0.999093,0.004821,-0.038948,0.016542,200.000000,100.000000,0.000000,0.012843,0.000000,0.000000,0.000000,0.000000,0.000000,0.000000,1.311157,0.828950,0.971779,0.001136,-0.460876,1.302011,0.597585
0.319000,-0.683255,-0.417926,0.826827,0.999096,0.004807,-0.038923,0.016380,-0.684043,-0.409180,0.826589,0.999093,0.004821,-0.038948,0.016542,200.000000,100.000000,0.000000,0.012918,0.000000,0.000000,0.000000,0.000000,0.000000,0.000000,1.311146,0.828963,0.971785,0.001148,-0.460872,1.302017,0.597566
0.320000,-0.683262,-0.417915,0.826826,0.999096,0.004807,-0.038922,0.016378,-0.684043,-0.409180,0.826589,0.999093,0.004821,-0.038948,0.016542,200.000000,100.000000,0.000000,0.013050,0.000000,0.000000,0.000000,0.000000,0.000000,0.000000,1.311136,0.828976,0.971792,0.001161,-0.460869,1.302023,0.597548
0.321000,-0.683269,-0.417904,0.826825,0.999096,0.004807,-0.038922,0.016377,-0.684052,-0.409118,0.826587,0.999093,0.004821,-0.038948,0.016542,200.000000,100.000000,0.000000,0.013125,0.000000,0.000000,0.000000,0.000000,0.000000,0.000000,1.311125,0.828988,0.971799,0.001173,-0.460865,1.302029,0.597529
0.322000,-0.683276,-0.417893,0.826824,0.999097,0.004807,-0.038922,0.016375,-0.684070,-0.408993,0.826583,0.999093,0.004821,-0.038948,0.016542,200.000000,100.000000,0.000000,0.013258,0.000000,0.000000,0.000000,0.000000,0.000000,0.000000,1.311114,0.829001,0.971806,0.001186,-0.460861,1.302035,0.597510
0.323000,-0.683284,-0.417882,0.826823,0.999097,0.004806,-0.038922,0.016374,-0.684079,-0.408931,0.826581,0.999093,0.004821,-0.038948,0.016542,200.000000,100.000000,0.000000,0.013336,0.000000,0.000000,0.000000,0.000000,0.000000,0.000000,1.311103,0.829014,0.971812,0.001198,-0.460857,1.302041,0.597491
0.324000,-0.683291,-0.417870,0.826822,0.999097,0.004806,-0.038921,0.016372,-0.684079,-0.408931,0.826581,0.999093,0.004821,-0.038948,0.016542,200.000000,100.000000,0.000000,0.013472,0.000000,0.000000,0.000000,0.000000,0.000000,0.000000,1.311092,0.829027,0.971819,0.001211,-0.460854,1.302048,0.597472
0.325000,-0.683298,-0.417859,0.826821,0.999097,0.004806,-0.038921,0.016371,-0.684097,-0.408805,0.826577,0.999093,0.004821,-0.038948,0.016542,200.000000,100.000000,0.000000,0.013548,0.000000,0.000000,0.000000,0.000000,0.000000,0.000000,1.311081,0.829041,0.971826,0.001224,-0.460850,1.302054,0.597453
0.326000,-0.683305,-0.417848,0.826820,0.999097,0.004806,-0.038920,0.016369,-0.684106,-0.408742,0.826575,0.999093,0.004821,-0.038948,0.016542,200.000000,100.000000,0.000000,0.013683,0.000000,0.000000,0.000000,0.000000,0.000000,0.000000,1.311069,0.829054,0.971833,0.001237,-0.460846,1.302060,0.597433
0.327000,-0.683313,-0.417836,0.826818,0.999097,0.004806,-0.038920,0.016368,-0.684115,-0.408678,0.826573,0.999093,0.004821,-0.038948,0.016542,200.000000,100.000000,0.000000,0.013762,0.000000,0.000000,0.000000,0.000000,0.000000,0.000000,1.311058,0.829067,0.971840,0.001250,-0.460842,1.302067,0.597414
0.328000,-0.683320,-0.417824,0.826817,0.999097,0.004806,-0.038920,0.016366,-0.684124,-0.408615,0.826571,0.999093,0.004821,-0.038948,0.016542,200.000000,100.000000,0.000000,0.013897,0.000000,0.000000,0.000000,0.000000,0.000000,0.000000,1.311046,0.829081,0.971847,0.001263,-0.460838,1.302073,0.597394
0.329000,-0.683328,-0.417813,0.826816,0.999097,0.004805,-0.038919,0.016365,-0.684134,-0.408551,0.826569,0.999093,0.004821,-0.038948,0.016542,200.000000,100.000000,0.000000,0.013977,0.000000,0.000000,0.000000,0.000000,0.000000,0.000000,1.311035,0.829094,0.971855,0.001276,-0.460834,1.302080,0.597374
0.330000,-0.683335,-0.417801,0.826815,0.999097,0.004805,-0.038919,0.016363,-0.684134,-0.408551,0.826569,0.999093,0.004821,-0.038948,0.016542,200.000000,100.000000,0.000000,0.014115,0.000000,0.000000,0.000000,0.000000,0.000000,0.000000,1.311023,0.829108,0.971862,0.001290,-0.460830,1.302086,0.597354
0.331000,-0.683343,-0.417789,0.826814,0.999097,0.004805,-0.038919,0.016362,-0.684152,-0.408423,0.826565,0.999093,0.004821,-0.038948,0.016542,200.000000,100.000000,0.000000,0.014195,0.000000,0.000000,0.000000,0.000000,0.000000,0.000000,1.311011,0.829122,0.971869,0.001303,-0.460826,1.302093,0.597334
0.332000,-0.683351,-0.417777,0.826813,0.999097,0.004805,-0.038918,0.016360,-0.684161,-0.408358,0.826562,0.999093,0.004821,-0.038948,0.016542,200.000000,100.000000,0.000000,0.014334,0.000000,0.000000,0.000000,0.000000,0.000000,0.000000,1.310999,0.829136,0.971876,0.001317,-0.460822,1.302100,0.597313
