matthias-mayr/cartesian_trajectory_generator/generated_logs/long_trajectory3.txt
time,position_x,position_y,position_z,orientation_x,orientation_y,orientation_z,orientation_w,position_d_x,position_d_y,position_d_z,orientation_d_x,orientation_d_y,orientation_d_z,orientation_d_w,translational_stiffness,rotational_stiffness,nullspace_stiffness,velocity,f_x,f_y,f_z,tau_x,tau_x,tau_z,joint1,joint2,joint3,joint4,joint5,joint6,joint7
0.000000,-0.500006,-0.499962,0.799989,0.999797,0.004866,-0.016970,0.009754,-0.500000,-0.498185,0.800000,0.999796,0.004867,-0.016969,0.009765,200.000000,100.000000,0.000000,0.001339,0.000000,0.000000,0.000000,0.000000,0.000000,0.000000,1.341181,0.397495,0.538961,-0.847496,-0.062737,0.868414,0.866109
0.001000,-0.500006,-0.499961,0.799988,0.999797,0.004866,-0.016970,0.009753,-0.500000,-0.498185,0.800000,0.999796,0.004867,-0.016969,0.009765,200.000000,100.000000,0.000000,0.001335,0.000000,0.000000,0.000000,0.000000,0.000000,0.000000,1.341179,0.397494,0.538960,-0.847500,-0.062734,0.868411,0.866107
0.002000,-0.500006,-0.499960,0.799988,0.999797,0.004866,-0.016970,0.009753,-0.500000,-0.498185,0.800000,0.999796,0.004867,-0.016969,0.009765,200.000000,100.000000,0.000000,0.001399,0.000000,0.000000,0.000000,0.000000,0.000000,0.000000,1.341177,0.397493,0.538959,-0.847504,-0.062732,0.868409,0.866104
0.003000,-0.500006,-0.499959,0.799988,0.999797,0.004866,-0.016970,0.009753,-0.500000,-0.497840,0.800000,0.999796,0.004867,-0.016969,0.009765,200.000000,100.000000,0.000000,0.001395,0.000000,0.000000,0.000000,0.000000,0.000000,0.000000,1.341175,0.397492,0.538959,-0.847509,-0.062729,0.868406,0.866102
0.004000,-0.500006,-0.499957,0.799987,0.999797,0.004866,-0.016970,0.009752,-0.500000,-0.497840,0.800000,0.999796,0.004867,-0.016969,0.009765,200.000000,100.000000,0.000000,0.001462,0.000000,0.000000,0.000000,0.000000,0.000000,0.000000,1.341172,0.397491,0.538958,-0.847513,-0.062726,0.868404,0.866100
0.005000,-0.500007,-0.499956,0.799987,0.999797,0.004866,-0.016970,0.009752,-0.500000,-0.497840,0.800000,0.999796,0.004867,-0.016969,0.009765,200.000000,100.000000,0.000000,0.001467,0.000000,0.000000,0.000000,0.000000,0.000000,0.000000,1.341170,0.397490,0.538957,-0.847517,-0.062723,0.868401,0.866097
0.006000,-0.500007,-0.499954,0.799986,0.999797,0.004866,-0.016970,0.009751,-0.500000,-0.497840,0.800000,0.999796,0.004867,-0.016969,0.009765,200.000000,100.000000,0.000000,0.001539,0.000000,0.000000,0.000000,0.000000,0.000000,0.000000,1.341167,0.397489,0.538956,-0.847522,-0.062720,0.868398,0.866095
0.007000,-0.500007,-0.499953,0.799986,0.999797,0.004866,-0.016971,0.009751,-0.500000,-0.497840,0.800000,0.999796,0.004867,-0.016969,0.009765,200.000000,100.000000,0.000000,0.001542,0.000000,0.000000,0.000000,0.000000,0.000000,0.000000,1.341165,0.397488,0.538955,-0.847526,-0.062716,0.868396,0.866092
0.008000,-0.500007,-0.499951,0.799985,0.999797,0.004866,-0.016971,0.009751,-0.500000,-0.497840,0.800000,0.999796,0.004867,-0.016969,0.009765,200.000000,100.000000,0.000000,0.001611,0.000000,0.000000,0.000000,0.000000,0.000000,0.000000,1.341162,0.397487,0.538954,-0.847531,-0.062713,0.868393,0.866090
0.009000,-0.500008,-0.499950,0.799985,0.999797,0.004866,-0.016971,0.009750,-0.500000,-0.497840,0.800000,0.999796,0.004867,-0.016969,0.009765,200.000000,100.000000,0.000000,0.001613,0.000000,0.000000,0.000000,0.000000,0.000000,0.000000,1.341160,0.397485,0.538953,-0.847536,-0.062710,0.868390,0.866087
0.010000,-0.500008,-0.499948,0.799985,0.999797,0.004866,-0.016971,0.009750,-0.500000,-0.497840,0.800000,0.999796,0.004867,-0.016969,0.009765,200.000000,100.000000,0.000000,0.001682,0.000000,0.000000,0.000000,0.000000,0.000000,0.000000,1.341157,0.397484,0.538952,-0.847541,-0.062706,0.868387,0.866084
0.011000,-0.500008,-0.499947,0.799984,0.999797,0.004866,-0.016971,0.009750,-0.500000,-0.497840,0.800000,0.999796,0.004867,-0.016969,0.009765,200.000000,100.000000,0.000000,0.001684,0.000000,0.000000,0.000000,0.000000,0.000000,0.000000,1.341154,0.397483,0.538952,-0.847546,-0.062703,0.868384,0.866081
0.012000,-0.500008,-0.499945,0.799984,0.999797,0.004866,-0.016971,0.009749,-0.500000,-0.497465,0.800000,0.999796,0.004867,-0.016969,0.009765,200.000000,100.000000,0.000000,0.001752,0.000000,0.000000,0.000000,0.000000,0.000000,0.000000,1.341152,0.397482,0.538951,-0.847551,-0.062699,0.868381,0.866078
0.013000,-0.500009,-0.499943,0.799983,0.999797,0.004866,-0.016971,0.009749,-0.500000,-0.497465,0.800000,0.999796,0.004867,-0.016969,0.009765,200.000000,100.000000,0.000000,0.001759,0.000000,0.000000,0.000000,0.000000,0.000000,0.000000,1.341149,0.397480,0.538950,-0.847557,-0.062696,0.868378,0.866076
0.014000,-0.500009,-0.499941,0.799983,0.999797,0.004866,-0.016971,0.009748,-0.500000,-0.497465,0.800000,0.999796,0.004867,-0.016969,0.009765,200.000000,100.000000,0.000000,0.001836,0.000000,0.000000,0.000000,0.000000,0.000000,0.000000,1.341146,0.397479,0.538949,-0.847562,-0.062692,0.868375,0.866073
0.014000,-0.500009,-0.499940,0.799982,0.999797,0.004866,-0.016971,0.009748,-0.500000,-0.497465,0.800000,0.999796,0.004867,-0.016969,0.009765,200.000000,100.000000,0.000000,0.001846,0.000000,0.000000,0.000000,0.000000,0.000000,0.000000,1.341143,0.397477,0.538948,-0.847567,-0.062688,0.868371,0.866069
0.016000,-0.500009,-0.499938,0.799981,0.999797,0.004866,-0.016971,0.009747,-0.500000,-0.497465,0.800000,0.999796,0.004867,-0.016969,0.009765,200.000000,100.000000,0.000000,0.001921,0.000000,0.000000,0.000000,0.000000,0.000000,0.000000,1.341140,0.397476,0.538947,-0.847573,-0.062684,0.868368,0.866066
0.017000,-0.500010,-0.499936,0.799981,0.999797,0.004866,-0.016971,0.009747,-0.500000,-0.497465,0.800000,0.999796,0.004867,-0.016969,0.009765,200.000000,100.000000,0.000000,0.001930,0.000000,0.000000,0.000000,0.000000,0.000000,0.000000,1.341137,0.397475,0.538946,-0.847579,-0.062680,0.868364,0.866063
0.018000,-0.500010,-0.499934,0.799980,0.999797,0.004866,-0.016971,0.009746,-0.500000,-0.497465,0.800000,0.999796,0.004867,-0.016969,0.009765,200.000000,100.000000,0.000000,0.002004,0.000000,0.000000,0.000000,0.000000,0.000000,0.000000,1.341133,0.397473,0.538945,-0.847585,-0.062676,0.868361,0.866060
0.019000,-0.500010,-0.499932,0.799980,0.999797,0.004866,-0.016971,0.009746,-0.500000,-0.497465,0.800000,0.999796,0.004867,-0.016969,0.009765,200.000000,100.000000,0.000000,0.002011,0.000000,0.000000,0.000000,0.000000,0.000000,0.000000,1.341130,0.397472,0.538944,-0.847591,-0.062672,0.868357,0.866056
0.020000,-0.500011,-0.499930,0.799979,0.999797,0.004866,-0.016971,0.009745,-0.500000,-0.497465,0.800000,0.999796,0.004867,-0.016969,0.009765,200.000000,100.000000,0.000000,0.002086,0.000000,0.000000,0.000000,0.000000,0.000000,0.000000,1.341127,0.397470,0.538942,-0.847597,-0.062668,0.868354,0.866053
0.021000,-0.500011,-0.499928,0.799979,0.999797,0.004866,-0.016971,0.009745,-0.500000,-0.497465,0.800000,0.999796,0.004867,-0.016969,0.009765,200.000000,100.000000,0.000000,0.002092,0.000000,0.000000,0.000000,0.000000,0.000000,0.000000,1.341123,0.397468,0.538941,-0.847603,-0.062663,0.868350,0.866049
0.022000,-0.500011,-0.499926,0.799978,0.999797,0.004866,-0.016971,0.009744,-0.500000,-0.497060,0.800000,0.999796,0.004867,-0.016969,0.009765,200.000000,100.000000,0.000000,0.002165,0.000000,0.000000,0.000000,0.000000,0.000000,0.000000,1.341120,0.397467,0.538940,-0.847610,-0.062659,0.868346,0.866046
0.023000,-0.500011,-0.499924,0.799977,0.999797,0.004866,-0.016971,0.009744,-0.500000,-0.497060,0.800000,0.999796,0.004867,-0.016969,0.009765,200.000000,100.000000,0.000000,0.002177,0.000000,0.000000,0.000000,0.000000,0.000000,0.000000,1.341116,0.397465,0.538939,-0.847616,-0.062655,0.868342,0.866042
0.024000,-0.500012,-0.499922,0.799977,0.999797,0.004866,-0.016971,0.009743,-0.500000,-0.497060,0.800000,0.999796,0.004867,-0.016969,0.009765,200.000000,100.000000,0.000000,0.002260,0.000000,0.000000,0.000000,0.000000,0.000000,0.000000,1.341113,0.397463,0.538938,-0.847623,-0.062650,0.868338,0.866039
0.025000,-0.500012,-0.499920,0.799976,0.999797,0.004866,-0.016971,0.009743,-0.500000,-0.497060,0.800000,0.999796,0.004867,-0.016969,0.009765,200.000000,100.000000,0.000000,0.002275,0.000000,0.000000,0.000000,0.000000,0.000000,0.000000,1.341109,0.397462,0.538937,-0.847630,-0.062645,0.868334,0.866035
0.026000,-0.500012,-0.499918,0.799976,0.999797,0.004866,-0.016971,0.009742,-0.500000,-0.497060,0.800000,0.999796,0.004867,-0.016969,0.009765,200.000000,100.000000,0.000000,0.002356,0.000000,0.000000,0.000000,0.000000,0.000000,0.000000,1.341105,0.397460,0.538936,-0.847637,-0.062640,0.868330,0.866031
0.027000,-0.500013,-0.499915,0.799975,0.999797,0.004866,-0.016971,0.009742,-0.500000,-0.497060,0.800000,0.999796,0.004867,-0.016969,0.009765,200.000000,100.000000,0.000000,0.002370,0.000000,0.000000,0.000000,0.000000,0.000000,0.000000,1.341101,0.397458,0.538934,-0.847644,-0.062635,0.868326,0.866027
0.028000,-0.500013,-0.499913,0.799974,0.999797,0.004866,-0.016971,0.009741,-0.500000,-0.497060,0.800000,0.999796,0.004867,-0.016969,0.009765,200.000000,100.000000,0.000000,0.002450,0.000000,0.000000,0.000000,0.000000,0.000000,0.000000,1.341097,0.397456,0.538933,-0.847651,-0.062631,0.868321,0.866023
0.029000,-0.500014,-0.499911,0.799974,0.999797,0.004866,-0.016971,0.009741,-0.500000,-0.497060,0.800000,0.999796,0.004867,-0.016969,0.009765,200.000000,100.000000,0.000000,0.002463,0.000000,0.000000,0.000000,0.000000,0.000000,0.000000,1.341093,0.397454,0.538932,-0.847659,-0.062625,0.868317,0.866019
0.030000,-0.500014,-0.499908,0.799973,0.999797,0.004866,-0.016971,0.009740,-0.500000,-0.497060,0.800000,0.999796,0.004867,-0.016969,0.009765,200.000000,100.000000,0.000000,0.002542,0.000000,0.000000,0.000000,0.000000,0.000000,0.000000,1.341089,0.397453,0.538931,-0.847666,-0.062620,0.868312,0.866014
0.031000,-0.500014,-0.499906,0.799972,0.999797,0.004866,-0.016971,0.009740,-0.500000,-0.497060,0.800000,0.999796,0.004867,-0.016969,0.009765,200.000000,100.000000,0.000000,0.002554,0.000000,0.000000,0.000000,0.000000,0.000000,0.000000,1.341084,0.397451,0.538929,-0.847674,-0.062615,0.868308,0.866010
0.032000,-0.500015,-0.499903,0.799971,0.999797,0.004866,-0.016971,0.009739,-0.500000,-0.496625,0.800000,0.999796,0.004867,-0.016969,0.009765,200.000000,100.000000,0.000000,0.002632,0.000000,0.000000,0.000000,0.000000,0.000000,0.000000,1.341080,0.397449,0.538928,-0.847682,-0.062610,0.868303,0.866006
0.033000,-0.500015,-0.499901,0.799971,0.999797,0.004866,-0.016972,0.009738,-0.500000,-0.496625,0.800000,0.999796,0.004867,-0.016969,0.009765,200.000000,100.000000,0.000000,0.002649,0.000000,0.000000,0.000000,0.000000,0.000000,0.000000,1.341076,0.397447,0.538927,-0.847690,-0.062604,0.868298,0.866001
0.034000,-0.500015,-0.499898,0.799970,0.999797,0.004866,-0.016972,0.009738,-0.500000,-0.496625,0.800000,0.999796,0.004867,-0.016969,0.009765,200.000000,100.000000,0.000000,0.002738,0.000000,0.000000,0.000000,0.000000,0.000000,0.000000,1.341071,0.397445,0.538925,-0.847698,-0.062598,0.868293,0.865997
0.035000,-0.500016,-0.499896,0.799969,0.999797,0.004866,-0.016972,0.009737,-0.500000,-0.496625,0.800000,0.999796,0.004867,-0.016969,0.009765,200.000000,100.000000,0.000000,0.002759,0.000000,0.000000,0.000000,0.000000,0.000000,0.000000,1.341067,0.397442,0.538924,-0.847706,-0.062593,0.868288,0.865992
0.036000,-0.500016,-0.499893,0.799968,0.999797,0.004866,-0.016972,0.009737,-0.500000,-0.496625,0.800000,0.999796,0.004867,-0.016969,0.009765,200.000000,100.000000,0.000000,0.002846,0.000000,0.000000,0.000000,0.000000,0.000000,0.000000,1.341062,0.397440,0.538923,-0.847715,-0.062587,0.868283,0.865987
0.037000,-0.500017,-0.499890,0.799968,0.999797,0.004865,-0.016972,0.009736,-0.500000,-0.496625,0.800000,0.999796,0.004867,-0.016969,0.009765,200.000000,100.000000,0.000000,0.002865,0.000000,0.000000,0.000000,0.000000,0.000000,0.000000,1.341057,0.397438,0.538921,-0.847724,-0.062581,0.868278,0.865983
0.038000,-0.500017,-0.499887,0.799967,0.999797,0.004865,-0.016972,0.009735,-0.500000,-0.496625,0.800000,0.999796,0.004867,-0.016969,0.009765,200.000000,100.000000,0.000000,0.002950,0.000000,0.000000,0.000000,0.000000,0.000000,0.000000,1.341052,0.397436,0.538920,-0.847732,-0.062575,0.868273,0.865978
0.039000,-0.500017,-0.499885,0.799966,0.999797,0.004865,-0.016972,0.009735,-0.500000,-0.496625,0.800000,0.999796,0.004867,-0.016969,0.009765,200.000000,100.000000,0.000000,0.002969,0.000000,0.000000,0.000000,0.000000,0.000000,0.000000,1.341047,0.397434,0.538919,-0.847741,-0.062569,0.868267,0.865973
0.040000,-0.500018,-0.499882,0.799965,0.999797,0.004865,-0.016972,0.009734,-0.500000,-0.496625,0.800000,0.999796,0.004867,-0.016969,0.009765,200.000000,100.000000,0.000000,0.003053,0.000000,0.000000,0.000000,0.000000,0.000000,0.000000,1.341042,0.397431,0.538917,-0.847750,-0.062562,0.868262,0.865968
0.041000,-0.500018,-0.499879,0.799964,0.999797,0.004865,-0.016972,0.009733,-0.500000,-0.496625,0.800000,0.999796,0.004867,-0.016969,0.009765,200.000000,100.000000,0.000000,0.003070,0.000000,0.000000,0.000000,0.000000,0.000000,0.000000,1.341037,0.397429,0.538916,-0.847760,-0.062556,0.868256,0.865962
0.042000,-0.500019,-0.499876,0.799963,0.999797,0.004865,-0.016972,0.009733,-0.500000,-0.496160,0.800000,0.999796,0.004867,-0.016969,0.009765,200.000000,100.000000,0.000000,0.003154,0.000000,0.000000,0.000000,0.000000,0.000000,0.000000,1.341032,0.397427,0.538914,-0.847769,-0.062549,0.868250,0.865957
0.043000,-0.500019,-0.499873,0.799962,0.999797,0.004865,-0.016972,0.009732,-0.500000,-0.496160,0.800000,0.999796,0.004867,-0.016969,0.009765,200.000000,100.000000,0.000000,0.003177,0.000000,0.000000,0.000000,0.000000,0.000000,0.000000,1.341026,0.397424,0.538913,-0.847779,-0.062543,0.868245,0.865952
0.044000,-0.500020,-0.499870,0.799962,0.999797,0.004865,-0.016972,0.009731,-0.500000,-0.496160,0.800000,0.999796,0.004867,-0.016969,0.009765,200.000000,100.000000,0.000000,0.003272,0.000000,0.000000,0.000000,0.000000,0.000000,0.000000,1.341021,0.397422,0.538911,-0.847789,-0.062536,0.868239,0.865946
0.045000,-0.500020,-0.499867,0.799961,0.999797,0.004865,-0.016972,0.009731,-0.500000,-0.496160,0.800000,0.999796,0.004867,-0.016969,0.009765,200.000000,100.000000,0.000000,0.003299,0.000000,0.000000,0.000000,0.000000,0.000000,0.000000,1.341015,0.397419,0.538910,-0.847799,-0.062529,0.868233,0.865941
0.046000,-0.500021,-0.499863,0.799960,0.999797,0.004865,-0.016972,0.009730,-0.500000,-0.496160,0.800000,0.999796,0.004867,-0.016969,0.009765,200.000000,100.000000,0.000000,0.003391,0.000000,0.000000,0.000000,0.000000,0.000000,0.000000,1.341010,0.397417,0.538908,-0.847809,-0.062522,0.868226,0.865935
0.047000,-0.500021,-0.499860,0.799959,0.999797,0.004865,-0.016972,0.009729,-0.500000,-0.496160,0.800000,0.999796,0.004867,-0.016969,0.009765,200.000000,100.000000,0.000000,0.003416,0.000000,0.000000,0.000000,0.000000,0.000000,0.000000,1.341004,0.397414,0.538907,-0.847819,-0.062515,0.868220,0.865929
0.048000,-0.500022,-0.499857,0.799958,0.999797,0.004865,-0.016972,0.009728,-0.500000,-0.496160,0.800000,0.999796,0.004867,-0.016969,0.009765,200.000000,100.000000,0.000000,0.003507,0.000000,0.000000,0.000000,0.000000,0.000000,0.000000,1.340998,0.397411,0.538905,-0.847830,-0.062508,0.868214,0.865923
0.049000,-0.500022,-0.499853,0.799957,0.999797,0.004865,-0.016972,0.009728,-0.500000,-0.496160,0.800000,0.999796,0.004867,-0.016969,0.009765,200.000000,100.000000,0.000000,0.003531,0.000000,0.000000,0.000000,0.000000,0.000000,0.000000,1.340992,0.397409,0.538904,-0.847840,-0.062501,0.868207,0.865917
0.050000,-0.500023,-0.499850,0.799956,0.999797,0.004865,-0.016972,0.009727,-0.500000,-0.496160,0.800000,0.999796,0.004867,-0.016969,0.009765,200.000000,100.000000,0.000000,0.003620,0.000000,0.000000,0.000000,0.000000,0.000000,0.000000,1.340986,0.397406,0.538902,-0.847851,-0.062493,0.868201,0.865911
0.051000,-0.500023,-0.499846,0.799955,0.999797,0.004865,-0.016972,0.009726,-0.500000,-0.496160,0.800000,0.999796,0.004867,-0.016969,0.009765,200.000000,100.000000,0.000000,0.003644,0.000000,0.000000,0.000000,0.000000,0.000000,0.000000,1.340980,0.397403,0.538900,-0.847862,-0.062485,0.868194,0.865905
0.052000,-0.500024,-0.499843,0.799954,0.999797,0.004865,-0.016973,0.009725,-0.500000,-0.495665,0.800000,0.999796,0.004867,-0.016969,0.009765,200.000000,100.000000,0.000000,0.003732,0.000000,0.000000,0.000000,0.000000,0.000000,0.000000,1.340974,0.397400,0.538899,-0.847873,-0.062478,0.868187,0.865899
0.053000,-0.500024,-0.499839,0.799953,0.999797,0.004865,-0.016973,0.009725,-0.500000,-0.495665,0.800000,0.999796,0.004867,-0.016969,0.009765,200.000000,100.000000,0.000000,0.003761,0.000000,0.000000,0.000000,0.000000,0.000000,0.000000,1.340967,0.397397,0.538897,-0.847885,-0.062470,0.868180,0.865893
0.054000,-0.500025,-0.499836,0.799952,0.999797,0.004865,-0.016973,0.009724,-0.500000,-0.495665,0.800000,0.999796,0.004867,-0.016969,0.009765,200.000000,100.000000,0.000000,0.003862,0.000000,0.000000,0.000000,0.000000,0.000000,0.000000,1.340961,0.397395,0.538895,-0.847896,-0.062462,0.868173,0.865886
0.055000,-0.500026,-0.499832,0.799951,0.999797,0.004865,-0.016973,0.009723,-0.500000,-0.495665,0.800000,0.999796,0.004867,-0.016969,0.009765,200.000000,100.000000,0.000000,0.003895,0.000000,0.000000,0.000000,0.000000,0.000000,0.000000,1.340954,0.397391,0.538894,-0.847908,-0.062454,0.868166,0.865879
0.056000,-0.500026,-0.499828,0.799950,0.999797,0.004865,-0.016973,0.009722,-0.500000,-0.495665,0.800000,0.999796,0.004867,-0.016969,0.009765,200.000000,100.000000,0.000000,0.003993,0.000000,0.000000,0.000000,0.000000,0.000000,0.000000,1.340947,0.397389,0.538892,-0.847920,-0.062446,0.868159,0.865873
0.057000,-0.500027,-0.499824,0.799949,0.999797,0.004865,-0.016973,0.009721,-0.500000,-0.495665,0.800000,0.999796,0.004867,-0.016969,0.009765,200.000000,100.000000,0.000000,0.004024,0.000000,0.000000,0.000000,0.000000,0.000000,0.000000,1.340940,0.397385,0.538890,-0.847932,-0.062437,0.868151,0.865866
0.058000,-0.500027,-0.499820,0.799947,0.999797,0.004865,-0.016973,0.009721,-0.500000,-0.495665,0.800000,0.999796,0.004867,-0.016969,0.009765,200.000000,100.000000,0.000000,0.004121,0.000000,0.000000,0.000000,0.000000,0.000000,0.000000,1.340933,0.397382,0.538888,-0.847945,-0.062429,0.868144,0.865859
0.059000,-0.500028,-0.499816,0.799946,0.999797,0.004865,-0.016973,0.009720,-0.500000,-0.495665,0.800000,0.999796,0.004867,-0.016969,0.009765,200.000000,100.000000,0.000000,0.004150,0.000000,0.000000,0.000000,0.000000,0.000000,0.000000,1.340926,0.397379,0.538887,-0.847957,-0.062420,0.868136,0.865852
0.060000,-0.500028,-0.499812,0.799945,0.999797,0.004865,-0.016973,0.009719,-0.500000,-0.495665,0.800000,0.999796,0.004867,-0.016969,0.009765,200.000000,100.000000,0.000000,0.004246,0.000000,0.000000,0.000000,0.000000,0.000000,0.000000,1.340919,0.397376,0.538885,-0.847970,-0.062411,0.868129,0.865845
0.061000,-0.500029,-0.499808,0.799944,0.999797,0.004864,-0.016973,0.009718,-0.500000,-0.495665,0.800000,0.999796,0.004867,-0.016969,0.009765,200.000000,100.000000,0.000000,0.004274,0.000000,0.000000,0.000000,0.000000,0.000000,0.000000,1.340911,0.397373,0.538883,-0.847983,-0.062402,0.868121,0.865838
0.062000,-0.500030,-0.499804,0.799943,0.999797,0.004864,-0.016973,0.009717,-0.500000,-0.495140,0.800000,0.999796,0.004867,-0.016969,0.009765,200.000000,100.000000,0.000000,0.004369,0.000000,0.000000,0.000000,0.000000,0.000000,0.000000,1.340904,0.397369,0.538881,-0.847996,-0.062393,0.868113,0.865830
0.063000,-0.500030,-0.499800,0.799942,0.999797,0.004864,-0.016973,0.009716,-0.500000,-0.495140,0.800000,0.999796,0.004867,-0.016969,0.009765,200.000000,100.000000,0.000000,0.004404,0.000000,0.000000,0.000000,0.000000,0.000000,0.000000,1.340896,0.397366,0.538880,-0.848010,-0.062384,0.868104,0.865823
0.064000,-0.500031,-0.499796,0.799940,0.999797,0.004864,-0.016973,0.009715,-0.500000,-0.495140,0.800000,0.999796,0.004867,-0.016969,0.009765,200.000000,100.000000,0.000000,0.004510,0.000000,0.000000,0.000000,0.000000,0.000000,0.000000,1.340889,0.397362,0.538878,-0.848023,-0.062375,0.868096,0.865815
0.065000,-0.500032,-0.499791,0.799939,0.999797,0.004864,-0.016973,0.009715,-0.500000,-0.495140,0.800000,0.999796,0.004867,-0.016969,0.009765,200.000000,100.000000,0.000000,0.004550,0.000000,0.000000,0.000000,0.000000,0.000000,0.000000,1.340881,0.397359,0.538876,-0.848037,-0.062365,0.868088,0.865807
0.066000,-0.500032,-0.499787,0.799938,0.999797,0.004864,-0.016973,0.009714,-0.500000,-0.495140,0.800000,0.999796,0.004867,-0.016969,0.009765,200.000000,100.000000,0.000000,0.004654,0.000000,0.000000,0.000000,0.000000,0.000000,0.000000,1.340873,0.397355,0.538874,-0.848051,-0.062356,0.868079,0.865799
0.067000,-0.500033,-0.499783,0.799937,0.999797,0.004864,-0.016973,0.009713,-0.500000,-0.495140,0.800000,0.999796,0.004867,-0.016969,0.009765,200.000000,100.000000,0.000000,0.004691,0.000000,0.000000,0.000000,0.000000,0.000000,0.000000,1.340865,0.397352,0.538872,-0.848066,-0.062346,0.868070,0.865791
0.068000,-0.500034,-0.499778,0.799935,0.999797,0.004864,-0.016974,0.009712,-0.500000,-0.495140,0.800000,0.999796,0.004867,-0.016969,0.009765,200.000000,100.000000,0.000000,0.004793,0.000000,0.000000,0.000000,0.000000,0.000000,0.000000,1.340856,0.397348,0.538870,-0.848080,-0.062336,0.868062,0.865783
0.069000,-0.500034,-0.499773,0.799934,0.999797,0.004864,-0.016974,0.009711,-0.500000,-0.495140,0.800000,0.999796,0.004867,-0.016969,0.009765,200.000000,100.000000,0.000000,0.004829,0.000000,0.000000,0.000000,0.000000,0.000000,0.000000,1.340848,0.397344,0.538868,-0.848095,-0.062326,0.868053,0.865775
0.070000,-0.500035,-0.499769,0.799933,0.999797,0.004864,-0.016974,0.009710,-0.500000,-0.495140,0.800000,0.999796,0.004867,-0.016969,0.009765,200.000000,100.000000,0.000000,0.004930,0.000000,0.000000,0.000000,0.000000,0.000000,0.000000,1.340839,0.397341,0.538866,-0.848110,-0.062316,0.868044,0.865767
0.071000,-0.500036,-0.499764,0.799931,0.999797,0.004864,-0.016974,0.009709,-0.500000,-0.495140,0.800000,0.999796,0.004867,-0.016969,0.009765,200.000000,100.000000,0.000000,0.004964,0.000000,0.000000,0.000000,0.000000,0.000000,0.000000,1.340831,0.397337,0.538864,-0.848125,-0.062305,0.868034,0.865758
0.072000,-0.500037,-0.499759,0.799930,0.999797,0.004864,-0.016974,0.009708,-0.500000,-0.494585,0.800000,0.999796,0.004867,-0.016969,0.009765,200.000000,100.000000,0.000000,0.005064,0.000000,0.000000,0.000000,0.000000,0.000000,0.000000,1.340822,0.397333,0.538862,-0.848140,-0.062295,0.868025,0.865750
0.073000,-0.500037,-0.499754,0.799929,0.999797,0.004864,-0.016974,0.009707,-0.500000,-0.494585,0.800000,0.999796,0.004867,-0.016969,0.009765,200.000000,100.000000,0.000000,0.005105,0.000000,0.000000,0.000000,0.000000,0.000000,0.000000,1.340813,0.397329,0.538861,-0.848156,-0.062284,0.868016,0.865741
0.074000,-0.500038,-0.499749,0.799927,0.999797,0.004864,-0.016974,0.009706,-0.500000,-0.494585,0.800000,0.999796,0.004867,-0.016969,0.009765,200.000000,100.000000,0.000000,0.005218,0.000000,0.000000,0.000000,0.000000,0.000000,0.000000,1.340804,0.397325,0.538858,-0.848172,-0.062273,0.868006,0.865732
0.075000,-0.500039,-0.499744,0.799926,0.999797,0.004864,-0.016974,0.009705,-0.500000,-0.494585,0.800000,0.999796,0.004867,-0.016969,0.009765,200.000000,100.000000,0.000000,0.005264,0.000000,0.000000,0.000000,0.000000,0.000000,0.000000,1.340795,0.397321,0.538857,-0.848188,-0.062262,0.867996,0.865723
0.076000,-0.500040,-0.499739,0.799924,0.999797,0.004864,-0.016974,0.009704,-0.500000,-0.494585,0.800000,0.999796,0.004867,-0.016969,0.009765,200.000000,100.000000,0.000000,0.005373,0.000000,0.000000,0.000000,0.000000,0.000000,0.000000,1.340786,0.397317,0.538854,-0.848204,-0.062251,0.867986,0.865714
0.077000,-0.500040,-0.499734,0.799923,0.999797,0.004864,-0.016974,0.009703,-0.500000,-0.494585,0.800000,0.999796,0.004867,-0.016969,0.009765,200.000000,100.000000,0.000000,0.005417,0.000000,0.000000,0.000000,0.000000,0.000000,0.000000,1.340776,0.397313,0.538852,-0.848220,-0.062240,0.867976,0.865705
0.077000,-0.500041,-0.499729,0.799921,0.999797,0.004864,-0.016974,0.009702,-0.500000,-0.494585,0.800000,0.999796,0.004867,-0.016969,0.009765,200.000000,100.000000,0.000000,0.005525,0.000000,0.000000,0.000000,0.000000,0.000000,0.000000,1.340766,0.397308,0.538850,-0.848237,-0.062228,0.867966,0.865695
0.079000,-0.500042,-0.499723,0.799920,0.999797,0.004863,-0.016974,0.009701,-0.500000,-0.494585,0.800000,0.999796,0.004867,-0.016969,0.009765,200.000000,100.000000,0.000000,0.005566,0.000000,0.000000,0.000000,0.000000,0.000000,0.000000,1.340757,0.397304,0.538848,-0.848254,-0.062217,0.867955,0.865686
0.080000,-0.500043,-0.499718,0.799918,0.999797,0.004863,-0.016974,0.009700,-0.500000,-0.494585,0.800000,0.999796,0.004867,-0.016969,0.009765,200.000000,100.000000,0.000000,0.005673,0.000000,0.000000,0.000000,0.000000,0.000000,0.000000,1.340747,0.397300,0.538846,-0.848271,-0.062205,0.867945,0.865676
0.081000,-0.500044,-0.499713,0.799917,0.999797,0.004863,-0.016975,0.009699,-0.500000,-0.494585,0.800000,0.999796,0.004867,-0.016969,0.009765,200.000000,100.000000,0.000000,0.005714,0.000000,0.000000,0.000000,0.000000,0.000000,0.000000,1.340737,0.397295,0.538844,-0.848289,-0.062193,0.867934,0.865667
0.082000,-0.500045,-0.499707,0.799915,0.999797,0.004863,-0.016975,0.009698,-0.500000,-0.494000,0.800000,0.999796,0.004867,-0.016969,0.009765,200.000000,100.000000,0.000000,0.005818,0.000000,0.000000,0.000000,0.000000,0.000000,0.000000,1.340726,0.397291,0.538842,-0.848306,-0.062181,0.867923,0.865657
0.083000,-0.500045,-0.499701,0.799914,0.999797,0.004863,-0.016975,0.009696,-0.500000,-0.494000,0.800000,0.999796,0.004867,-0.016969,0.009765,200.000000,100.000000,0.000000,0.005866,0.000000,0.000000,0.000000,0.000000,0.000000,0.000000,1.340716,0.397286,0.538840,-0.848325,-0.062169,0.867912,0.865647
0.084000,-0.500046,-0.499696,0.799912,0.999797,0.004863,-0.016975,0.009695,-0.500000,-0.494000,0.800000,0.999796,0.004867,-0.016969,0.009765,200.000000,100.000000,0.000000,0.005985,0.000000,0.000000,0.000000,0.000000,0.000000,0.000000,1.340706,0.397282,0.538838,-0.848343,-0.062156,0.867901,0.865636
0.085000,-0.500047,-0.499690,0.799910,0.999797,0.004863,-0.016975,0.009694,-0.500000,-0.494000,0.800000,0.999796,0.004867,-0.016969,0.009765,200.000000,100.000000,0.000000,0.006038,0.000000,0.000000,0.000000,0.000000,0.000000,0.000000,1.340695,0.397277,0.538836,-0.848361,-0.062143,0.867890,0.865626
0.086000,-0.500048,-0.499684,0.799909,0.999797,0.004863,-0.016975,0.009693,-0.500000,-0.494000,0.800000,0.999796,0.004867,-0.016969,0.009765,200.000000,100.000000,0.000000,0.006153,0.000000,0.000000,0.000000,0.000000,0.000000,0.000000,1.340684,0.397272,0.538833,-0.848380,-0.062131,0.867879,0.865616
0.087000,-0.500049,-0.499678,0.799907,0.999797,0.004863,-0.016975,0.009692,-0.500000,-0.494000,0.800000,0.999796,0.004867,-0.016969,0.009765,200.000000,100.000000,0.000000,0.006203,0.000000,0.000000,0.000000,0.000000,0.000000,0.000000,1.340673,0.397268,0.538831,-0.848399,-0.062118,0.867867,0.865605
0.088000,-0.500050,-0.499672,0.799905,0.999797,0.004863,-0.016975,0.009691,-0.500000,-0.494000,0.800000,0.999796,0.004867,-0.016969,0.009765,200.000000,100.000000,0.000000,0.006317,0.000000,0.000000,0.000000,0.000000,0.000000,0.000000,1.340662,0.397263,0.538829,-0.848418,-0.062105,0.867855,0.865594
0.089000,-0.500051,-0.499666,0.799904,0.999797,0.004863,-0.016975,0.009690,-0.500000,-0.494000,0.800000,0.999796,0.004867,-0.016969,0.009765,200.000000,100.000000,0.000000,0.006365,0.000000,0.000000,0.000000,0.000000,0.000000,0.000000,1.340650,0.397258,0.538827,-0.848438,-0.062091,0.867843,0.865583
0.090000,-0.500052,-0.499660,0.799902,0.999797,0.004863,-0.016975,0.009688,-0.500000,-0.494000,0.800000,0.999796,0.004867,-0.016969,0.009765,200.000000,100.000000,0.000000,0.006477,0.000000,0.000000,0.000000,0.000000,0.000000,0.000000,1.340639,0.397253,0.538825,-0.848457,-0.062078,0.867831,0.865572
0.091000,-0.500053,-0.499654,0.799900,0.999797,0.004863,-0.016975,0.009687,-0.500000,-0.494000,0.800000,0.999796,0.004867,-0.016969,0.009765,200.000000,100.000000,0.000000,0.006523,0.000000,0.000000,0.000000,0.000000,0.000000,0.000000,1.340627,0.397248,0.538822,-0.848477,-0.062064,0.867819,0.865561
0.092000,-0.500054,-0.499648,0.799898,0.999797,0.004863,-0.016975,0.009686,-0.500000,-0.493385,0.800000,0.999796,0.004867,-0.016969,0.009765,200.000000,100.000000,0.000000,0.006634,0.000000,0.000000,0.000000,0.000000,0.000000,0.000000,1.340616,0.397243,0.538820,-0.848497,-0.062050,0.867806,0.865550
0.093000,-0.500055,-0.499641,0.799897,0.999797,0.004862,-0.016975,0.009685,-0.500000,-0.493385,0.800000,0.999796,0.004867,-0.016969,0.009765,200.000000,100.000000,0.000000,0.006688,0.000000,0.000000,0.000000,0.000000,0.000000,0.000000,1.340604,0.397237,0.538818,-0.848518,-0.062036,0.867794,0.865538
0.094000,-0.500056,-0.499635,0.799895,0.999797,0.004862,-0.016976,0.009684,-0.500000,-0.493385,0.800000,0.999796,0.004867,-0.016969,0.009765,200.000000,100.000000,0.000000,0.006813,0.000000,0.000000,0.000000,0.000000,0.000000,0.000000,1.340592,0.397232,0.538816,-0.848539,-0.062022,0.867781,0.865527
0.095000,-0.500057,-0.499628,0.799893,0.999797,0.004862,-0.016976,0.009682,-0.500000,-0.493385,0.800000,0.999796,0.004867,-0.016969,0.009765,200.000000,100.000000,0.000000,0.006872,0.000000,0.000000,0.000000,0.000000,0.000000,0.000000,1.340579,0.397227,0.538813,-0.848560,-0.062008,0.867768,0.865515
0.096000,-0.500058,-0.499621,0.799891,0.999797,0.004862,-0.016976,0.009681,-0.500000,-0.493385,0.800000,0.999796,0.004867,-0.016969,0.009765,200.000000,100.000000,0.000000,0.006994,0.000000,0.000000,0.000000,0.000000,0.000000,0.000000,1.340567,0.397221,0.538811,-0.848581,-0.061993,0.867755,0.865503
0.097000,-0.500059,-0.499615,0.799889,0.999797,0.004862,-0.016976,0.009680,-0.500000,-0.493385,0.800000,0.999796,0.004867,-0.016969,0.009765,200.000000,100.000000,0.000000,0.007049,0.000000,0.000000,0.000000,0.000000,0.000000,0.000000,1.340554,0.397216,0.538809,-0.848603,-0.061978,0.867742,0.865491
0.097000,-0.500060,-0.499608,0.799887,0.999797,0.004862,-0.016976,0.009679,-0.500000,-0.493385,0.800000,0.999796,0.004867,-0.016969,0.009765,200.000000,100.000000,0.000000,0.007169,0.000000,0.000000,0.000000,0.000000,0.000000,0.000000,1.340541,0.397210,0.538806,-0.848625,-0.061963,0.867728,0.865478
0.097000,-0.500061,-0.499601,0.799885,0.999797,0.004862,-0.016976,0.009677,-0.500000,-0.493385,0.800000,0.999796,0.004867,-0.016969,0.009765,200.000000,100.000000,0.000000,0.007223,0.000000,0.000000,0.000000,0.000000,0.000000,0.000000,1.340528,0.397205,0.538804,-0.848647,-0.061948,0.867715,0.865466
0.100000,-0.500062,-0.499594,0.799883,0.999797,0.004862,-0.016976,0.009676,-0.500000,-0.493385,0.800000,0.999796,0.004867,-0.016969,0.009765,200.000000,100.000000,0.000000,0.007341,0.000000,0.000000,0.000000,0.000000,0.000000,0.000000,1.340515,0.397199,0.538802,-0.848669,-0.061933,0.867701,0.865453
0.101000,-0.500063,-0.499587,0.799881,0.999797,0.004862,-0.016976,0.009675,-0.500000,-0.493385,0.800000,0.999796,0.004867,-0.016969,0.009765,200.000000,100.000000,0.000000,0.007394,0.000000,0.000000,0.000000,0.000000,0.000000,0.000000,1.340502,0.397193,0.538799,-0.848692,-0.061918,0.867687,0.865441
0.102000,-0.500064,-0.499580,0.799879,0.999797,0.004862,-0.016976,0.009673,-0.500000,-0.492740,0.800000,0.999796,0.004867,-0.016969,0.009765,200.000000,100.000000,0.000000,0.007510,0.000000,0.000000,0.000000,0.000000,0.000000,0.000000,1.340489,0.397188,0.538797,-0.848715,-0.061902,0.867673,0.865428
0.102000,-0.500065,-0.499573,0.799877,0.999797,0.004862,-0.016976,0.009672,-0.500000,-0.492740,0.800000,0.999796,0.004867,-0.016969,0.009765,200.000000,100.000000,0.000000,0.007570,0.000000,0.000000,0.000000,0.000000,0.000000,0.000000,1.340475,0.397182,0.538795,-0.848738,-0.061886,0.867659,0.865415
0.104000,-0.500066,-0.499565,0.799875,0.999797,0.004861,-0.016976,0.009671,-0.500000,-0.492740,0.800000,0.999796,0.004867,-0.016969,0.009765,200.000000,100.000000,0.000000,0.007702,0.000000,0.000000,0.000000,0.000000,0.000000,0.000000,1.340461,0.397176,0.538792,-0.848762,-0.061870,0.867644,0.865402
0.105000,-0.500067,-0.499558,0.799873,0.999797,0.004861,-0.016977,0.009669,-0.500000,-0.492740,0.800000,0.999796,0.004867,-0.016969,0.009765,200.000000,100.000000,0.000000,0.007767,0.000000,0.000000,0.000000,0.000000,0.000000,0.000000,1.340447,0.397170,0.538790,-0.848786,-0.061854,0.867629,0.865388
0.106000,-0.500069,-0.499550,0.799871,0.999797,0.004861,-0.016977,0.009668,-0.500000,-0.492740,0.800000,0.999796,0.004867,-0.016969,0.009765,200.000000,100.000000,0.000000,0.007895,0.000000,0.000000,0.000000,0.000000,0.000000,0.000000,1.340433,0.397163,0.538788,-0.848810,-0.061837,0.867615,0.865375
0.107000,-0.500070,-0.499543,0.799869,0.999797,0.004861,-0.016977,0.009667,-0.500000,-0.492740,0.800000,0.999796,0.004867,-0.016969,0.009765,200.000000,100.000000,0.000000,0.007957,0.000000,0.000000,0.000000,0.000000,0.000000,0.000000,1.340418,0.397157,0.538785,-0.848834,-0.061821,0.867599,0.865361
0.108000,-0.500071,-0.499535,0.799867,0.999797,0.004861,-0.016977,0.009665,-0.500000,-0.492740,0.800000,0.999796,0.004867,-0.016969,0.009765,200.000000,100.000000,0.000000,0.008083,0.000000,0.000000,0.000000,0.000000,0.000000,0.000000,1.340404,0.397151,0.538783,-0.848859,-0.061804,0.867584,0.865347
0.109000,-0.500072,-0.499527,0.799865,0.999797,0.004861,-0.016977,0.009664,-0.500000,-0.492740,0.800000,0.999796,0.004867,-0.016969,0.009765,200.000000,100.000000,0.000000,0.008143,0.000000,0.000000,0.000000,0.000000,0.000000,0.000000,1.340389,0.397145,0.538780,-0.848884,-0.061787,0.867569,0.865333
0.110000,-0.500073,-0.499519,0.799863,0.999797,0.004861,-0.016977,0.009662,-0.500000,-0.492740,0.800000,0.999796,0.004867,-0.016969,0.009765,200.000000,100.000000,0.000000,0.008267,0.000000,0.000000,0.000000,0.000000,0.000000,0.000000,1.340374,0.397138,0.538778,-0.848909,-0.061769,0.867553,0.865319
0.111000,-0.500075,-0.499511,0.799861,0.999797,0.004861,-0.016977,0.009661,-0.500000,-0.492740,0.800000,0.999796,0.004867,-0.016969,0.009765,200.000000,100.000000,0.000000,0.008326,0.000000,0.000000,0.000000,0.000000,0.000000,0.000000,1.340359,0.397132,0.538775,-0.848935,-0.061752,0.867537,0.865304
0.112000,-0.500076,-0.499503,0.799858,0.999797,0.004861,-0.016977,0.009660,-0.500000,-0.492065,0.800000,0.999796,0.004867,-0.016969,0.009765,200.000000,100.000000,0.000000,0.008447,0.000000,0.000000,0.000000,0.000000,0.000000,0.000000,1.340344,0.397125,0.538773,-0.848961,-0.061734,0.867521,0.865290
0.113000,-0.500077,-0.499495,0.799856,0.999797,0.004861,-0.016977,0.009658,-0.500000,-0.492065,0.800000,0.999796,0.004867,-0.016969,0.009765,200.000000,100.000000,0.000000,0.008513,0.000000,0.000000,0.000000,0.000000,0.000000,0.000000,1.340328,0.397118,0.538771,-0.848987,-0.061716,0.867505,0.865275
0.114000,-0.500078,-0.499487,0.799854,0.999797,0.004861,-0.016977,0.009657,-0.500000,-0.492065,0.800000,0.999796,0.004867,-0.016969,0.009765,200.000000,100.000000,0.000000,0.008652,0.000000,0.000000,0.000000,0.000000,0.000000,0.000000,1.340312,0.397112,0.538768,-0.849014,-0.061698,0.867489,0.865260
0.115000,-0.500080,-0.499479,0.799852,0.999797,0.004860,-0.016977,0.009655,-0.500000,-0.492065,0.800000,0.999796,0.004867,-0.016969,0.009765,200.000000,100.000000,0.000000,0.008724,0.000000,0.000000,0.000000,0.000000,0.000000,0.000000,1.340296,0.397105,0.538766,-0.849041,-0.061680,0.867472,0.865245
0.116000,-0.500081,-0.499470,0.799849,0.999797,0.004860,-0.016978,0.009654,-0.500000,-0.492065,0.800000,0.999796,0.004867,-0.016969,0.009765,200.000000,100.000000,0.000000,0.008858,0.000000,0.000000,0.000000,0.000000,0.000000,0.000000,1.340280,0.397098,0.538763,-0.849068,-0.061662,0.867456,0.865230
0.117000,-0.500082,-0.499462,0.799847,0.999797,0.004860,-0.016978,0.009652,-0.500000,-0.492065,0.800000,0.999796,0.004867,-0.016969,0.009765,200.000000,100.000000,0.000000,0.008926,0.000000,0.000000,0.000000,0.000000,0.000000,0.000000,1.340264,0.397091,0.538761,-0.849095,-0.061643,0.867439,0.865215
0.118000,-0.500083,-0.499453,0.799844,0.999797,0.004860,-0.016978,0.009651,-0.500000,-0.492065,0.800000,0.999796,0.004867,-0.016969,0.009765,200.000000,100.000000,0.000000,0.009058,0.000000,0.000000,0.000000,0.000000,0.000000,0.000000,1.340247,0.397084,0.538758,-0.849123,-0.061624,0.867421,0.865199
0.119000,-0.500085,-0.499444,0.799842,0.999797,0.004860,-0.016978,0.009649,-0.500000,-0.492065,0.800000,0.999796,0.004867,-0.016969,0.009765,200.000000,100.000000,0.000000,0.009124,0.000000,0.000000,0.000000,0.000000,0.000000,0.000000,1.340231,0.397077,0.538756,-0.849151,-0.061605,0.867404,0.865183
0.120000,-0.500086,-0.499436,0.799840,0.999798,0.004860,-0.016978,0.009648,-0.500000,-0.492065,0.800000,0.999796,0.004867,-0.016969,0.009765,200.000000,100.000000,0.000000,0.009254,0.000000,0.000000,0.000000,0.000000,0.000000,0.000000,1.340214,0.397070,0.538753,-0.849180,-0.061586,0.867387,0.865167
0.121000,-0.500088,-0.499427,0.799837,0.999798,0.004860,-0.016978,0.009646,-0.500000,-0.492065,0.800000,0.999796,0.004867,-0.016969,0.009765,200.000000,100.000000,0.000000,0.009319,0.000000,0.000000,0.000000,0.000000,0.000000,0.000000,1.340197,0.397062,0.538751,-0.849209,-0.061566,0.867369,0.865151
0.122000,-0.500089,-0.499418,0.799835,0.999798,0.004860,-0.016978,0.009645,-0.500000,-0.491360,0.800000,0.999796,0.004867,-0.016969,0.009765,200.000000,100.000000,0.000000,0.009446,0.000000,0.000000,0.000000,0.000000,0.000000,0.000000,1.340179,0.397055,0.538748,-0.849238,-0.061546,0.867351,0.865135
0.123000,-0.500090,-0.499409,0.799832,0.999798,0.004860,-0.016978,0.009643,-0.500000,-0.491360,0.800000,0.999796,0.004867,-0.016969,0.009765,200.000000,100.000000,0.000000,0.009519,0.000000,0.000000,0.000000,0.000000,0.000000,0.000000,1.340162,0.397047,0.538745,-0.849267,-0.061526,0.867333,0.865118
0.124000,-0.500092,-0.499399,0.799830,0.999798,0.004859,-0.016978,0.009641,-0.500000,-0.491360,0.800000,0.999796,0.004867,-0.016969,0.009765,200.000000,100.000000,0.000000,0.009663,0.000000,0.000000,0.000000,0.000000,0.000000,0.000000,1.340144,0.397040,0.538743,-0.849297,-0.061506,0.867314,0.865102
0.125000,-0.500093,-0.499390,0.799827,0.999798,0.004859,-0.016978,0.009640,-0.500000,-0.491360,0.800000,0.999796,0.004867,-0.016969,0.009765,200.000000,100.000000,0.000000,0.009742,0.000000,0.000000,0.000000,0.000000,0.000000,0.000000,1.340126,0.397032,0.538740,-0.849327,-0.061486,0.867296,0.865085
0.126000,-0.500095,-0.499381,0.799825,0.999798,0.004859,-0.016979,0.009638,-0.500000,-0.491360,0.800000,0.999796,0.004867,-0.016969,0.009765,200.000000,100.000000,0.000000,0.009882,0.000000,0.000000,0.000000,0.000000,0.000000,0.000000,1.340108,0.397025,0.538738,-0.849357,-0.061465,0.867277,0.865068
0.127000,-0.500096,-0.499371,0.799822,0.999798,0.004859,-0.016979,0.009637,-0.500000,-0.491360,0.800000,0.999796,0.004867,-0.016969,0.009765,200.000000,100.000000,0.000000,0.009956,0.000000,0.000000,0.000000,0.000000,0.000000,0.000000,1.340090,0.397017,0.538735,-0.849388,-0.061444,0.867258,0.865050
0.128000,-0.500098,-0.499361,0.799819,0.999798,0.004859,-0.016979,0.009635,-0.500000,-0.491360,0.800000,0.999796,0.004867,-0.016969,0.009765,200.000000,100.000000,0.000000,0.010094,0.000000,0.000000,0.000000,0.000000,0.000000,0.000000,1.340071,0.397009,0.538733,-0.849419,-0.061423,0.867239,0.865033
0.129000,-0.500099,-0.499352,0.799817,0.999798,0.004859,-0.016979,0.009633,-0.500000,-0.491360,0.800000,0.999796,0.004867,-0.016969,0.009765,200.000000,100.000000,0.000000,0.010167,0.000000,0.000000,0.000000,0.000000,0.000000,0.000000,1.340052,0.397001,0.538730,-0.849451,-0.061402,0.867219,0.865015
0.130000,-0.500101,-0.499342,0.799814,0.999798,0.004859,-0.016979,0.009632,-0.500000,-0.491360,0.800000,0.999796,0.004867,-0.016969,0.009765,200.000000,100.000000,0.000000,0.010302,0.000000,0.000000,0.000000,0.000000,0.000000,0.000000,1.340033,0.396993,0.538728,-0.849482,-0.061380,0.867200,0.864998
0.131000,-0.500102,-0.499332,0.799811,0.999798,0.004859,-0.016979,0.009630,-0.500000,-0.491360,0.800000,0.999796,0.004867,-0.016969,0.009765,200.000000,100.000000,0.000000,0.010373,0.000000,0.000000,0.000000,0.000000,0.000000,0.000000,1.340014,0.396984,0.538725,-0.849515,-0.061358,0.867180,0.864980
0.132000,-0.500104,-0.499322,0.799809,0.999798,0.004858,-0.016979,0.009628,-0.500000,-0.490625,0.800000,0.999796,0.004867,-0.016969,0.009765,200.000000,100.000000,0.000000,0.010506,0.000000,0.000000,0.000000,0.000000,0.000000,0.000000,1.339995,0.396976,0.538722,-0.849547,-0.061336,0.867160,0.864961
0.133000,-0.500105,-0.499312,0.799806,0.999798,0.004858,-0.016979,0.009627,-0.500000,-0.490625,0.800000,0.999796,0.004867,-0.016969,0.009765,200.000000,100.000000,0.000000,0.010585,0.000000,0.000000,0.000000,0.000000,0.000000,0.000000,1.339975,0.396968,0.538720,-0.849580,-0.061314,0.867139,0.864943
0.134000,-0.500107,-0.499302,0.799803,0.999798,0.004858,-0.016979,0.009625,-0.500000,-0.490625,0.800000,0.999796,0.004867,-0.016969,0.009765,200.000000,100.000000,0.000000,0.010736,0.000000,0.000000,0.000000,0.000000,0.000000,0.000000,1.339955,0.396960,0.538717,-0.849613,-0.061292,0.867119,0.864924
0.135000,-0.500108,-0.499291,0.799800,0.999798,0.004858,-0.016979,0.009623,-0.500000,-0.490625,0.800000,0.999796,0.004867,-0.016969,0.009765,200.000000,100.000000,0.000000,0.010822,0.000000,0.000000,0.000000,0.000000,0.000000,0.000000,1.339935,0.396951,0.538715,-0.849646,-0.061269,0.867098,0.864906
0.136000,-0.500110,-0.499281,0.799798,0.999798,0.004858,-0.016980,0.009622,-0.500000,-0.490625,0.800000,0.999796,0.004867,-0.016969,0.009765,200.000000,100.000000,0.000000,0.010967,0.000000,0.000000,0.000000,0.000000,0.000000,0.000000,1.339914,0.396942,0.538712,-0.849680,-0.061246,0.867077,0.864887
0.137000,-0.500112,-0.499270,0.799795,0.999798,0.004858,-0.016980,0.009620,-0.500000,-0.490625,0.800000,0.999796,0.004867,-0.016969,0.009765,200.000000,100.000000,0.000000,0.011048,0.000000,0.000000,0.000000,0.000000,0.000000,0.000000,1.339894,0.396934,0.538710,-0.849714,-0.061223,0.867056,0.864867
0.138000,-0.500113,-0.499260,0.799792,0.999798,0.004858,-0.016980,0.009618,-0.500000,-0.490625,0.800000,0.999796,0.004867,-0.016969,0.009765,200.000000,100.000000,0.000000,0.011192,0.000000,0.000000,0.000000,0.000000,0.000000,0.000000,1.339873,0.396925,0.538707,-0.849749,-0.061199,0.867035,0.864848
0.139000,-0.500115,-0.499249,0.799789,0.999798,0.004858,-0.016980,0.009616,-0.500000,-0.490625,0.800000,0.999796,0.004867,-0.016969,0.009765,200.000000,100.000000,0.000000,0.011271,0.000000,0.000000,0.000000,0.000000,0.000000,0.000000,1.339852,0.396916,0.538704,-0.849784,-0.061176,0.867013,0.864828
0.140000,-0.500116,-0.499238,0.799786,0.999798,0.004857,-0.016980,0.009614,-0.500000,-0.490625,0.800000,0.999796,0.004867,-0.016969,0.009765,200.000000,100.000000,0.000000,0.011412,0.000000,0.000000,0.000000,0.000000,0.000000,0.000000,1.339831,0.396907,0.538702,-0.849819,-0.061152,0.866991,0.864809
0.141000,-0.500118,-0.499227,0.799783,0.999798,0.004857,-0.016980,0.009613,-0.500000,-0.490625,0.800000,0.999796,0.004867,-0.016969,0.009765,200.000000,100.000000,0.000000,0.011489,0.000000,0.000000,0.000000,0.000000,0.000000,0.000000,1.339809,0.396898,0.538699,-0.849855,-0.061128,0.866969,0.864789
0.142000,-0.500120,-0.499216,0.799780,0.999798,0.004857,-0.016980,0.009611,-0.500000,-0.490625,0.800000,0.999796,0.004867,-0.016969,0.009765,200.000000,100.000000,0.000000,0.011628,0.000000,0.000000,0.000000,0.000000,0.000000,0.000000,1.339787,0.396889,0.538697,-0.849891,-0.061103,0.866947,0.864768
0.143000,-0.500122,-0.499205,0.799777,0.999798,0.004857,-0.016980,0.009609,-0.500000,-0.489860,0.800000,0.999796,0.004867,-0.016969,0.009765,200.000000,100.000000,0.000000,0.011702,0.000000,0.000000,0.000000,0.000000,0.000000,0.000000,1.339765,0.396879,0.538694,-0.849927,-0.061079,0.866924,0.864748
0.144000,-0.500123,-0.499193,0.799774,0.999798,0.004857,-0.016980,0.009607,-0.500000,-0.489860,0.800000,0.999796,0.004867,-0.016969,0.009765,200.000000,100.000000,0.000000,0.011850,0.000000,0.000000,0.000000,0.000000,0.000000,0.000000,1.339743,0.396870,0.538692,-0.849964,-0.061054,0.866902,0.864728
0.145000,-0.500125,-0.499182,0.799771,0.999798,0.004857,-0.016981,0.009605,-0.500000,-0.489860,0.800000,0.999796,0.004867,-0.016969,0.009765,200.000000,100.000000,0.000000,0.011943,0.000000,0.000000,0.000000,0.000000,0.000000,0.000000,1.339721,0.396861,0.538689,-0.850001,-0.061029,0.866879,0.864707
0.146000,-0.500127,-0.499170,0.799768,0.999798,0.004857,-0.016981,0.009604,-0.500000,-0.489860,0.800000,0.999796,0.004867,-0.016969,0.009765,200.000000,100.000000,0.000000,0.012097,0.000000,0.000000,0.000000,0.000000,0.000000,0.000000,1.339698,0.396851,0.538686,-0.850038,-0.061004,0.866855,0.864686
0.147000,-0.500129,-0.499159,0.799765,0.999798,0.004856,-0.016981,0.009602,-0.500000,-0.489860,0.800000,0.999796,0.004867,-0.016969,0.009765,200.000000,100.000000,0.000000,0.012184,0.000000,0.000000,0.000000,0.000000,0.000000,0.000000,1.339675,0.396841,0.538684,-0.850076,-0.060978,0.866832,0.864664
0.148000,-0.500130,-0.499147,0.799762,0.999798,0.004856,-0.016981,0.009600,-0.500000,-0.489860,0.800000,0.999796,0.004867,-0.016969,0.009765,200.000000,100.000000,0.000000,0.012334,0.000000,0.000000,0.000000,0.000000,0.000000,0.000000,1.339652,0.396832,0.538681,-0.850114,-0.060952,0.866808,0.864643
0.149000,-0.500132,-0.499135,0.799758,0.999798,0.004856,-0.016981,0.009598,-0.500000,-0.489860,0.800000,0.999796,0.004867,-0.016969,0.009765,200.000000,100.000000,0.000000,0.012420,0.000000,0.000000,0.000000,0.000000,0.000000,0.000000,1.339628,0.396822,0.538679,-0.850153,-0.060926,0.866784,0.864621
0.150000,-0.500134,-0.499123,0.799755,0.999798,0.004856,-0.016981,0.009596,-0.500000,-0.489860,0.800000,0.999796,0.004867,-0.016969,0.009765,200.000000,100.000000,0.000000,0.012567,0.000000,0.000000,0.000000,0.000000,0.000000,0.000000,1.339605,0.396812,0.538676,-0.850192,-0.060900,0.866760,0.864599
0.151000,-0.500136,-0.499111,0.799752,0.999798,0.004856,-0.016981,0.009594,-0.500000,-0.489860,0.800000,0.999796,0.004867,-0.016969,0.009765,200.000000,100.000000,0.000000,0.012649,0.000000,0.000000,0.000000,0.000000,0.000000,0.000000,1.339581,0.396802,0.538674,-0.850231,-0.060873,0.866736,0.864577
0.152000,-0.500138,-0.499099,0.799749,0.999798,0.004856,-0.016981,0.009592,-0.500000,-0.489065,0.800000,0.999796,0.004867,-0.016969,0.009765,200.000000,100.000000,0.000000,0.012794,0.000000,0.000000,0.000000,0.000000,0.000000,0.000000,1.339557,0.396792,0.538671,-0.850271,-0.060846,0.866711,0.864555
0.153000,-0.500140,-0.499086,0.799745,0.999798,0.004856,-0.016981,0.009590,-0.500000,-0.489065,0.800000,0.999796,0.004867,-0.016969,0.009765,200.000000,100.000000,0.000000,0.012887,0.000000,0.000000,0.000000,0.000000,0.000000,0.000000,1.339532,0.396782,0.538669,-0.850311,-0.060819,0.866686,0.864533
0.154000,-0.500142,-0.499074,0.799742,0.999798,0.004855,-0.016982,0.009588,-0.500000,-0.489065,0.800000,0.999796,0.004867,-0.016969,0.009765,200.000000,100.000000,0.000000,0.013050,0.000000,0.000000,0.000000,0.000000,0.000000,0.000000,1.339508,0.396771,0.538666,-0.850352,-0.060792,0.866661,0.864510
0.155000,-0.500144,-0.499061,0.799739,0.999798,0.004855,-0.016982,0.009586,-0.500000,-0.489065,0.800000,0.999796,0.004867,-0.016969,0.009765,200.000000,100.000000,0.000000,0.013148,0.000000,0.000000,0.000000,0.000000,0.000000,0.000000,1.339482,0.396761,0.538664,-0.850393,-0.060764,0.866636,0.864487
0.156000,-0.500145,-0.499049,0.799735,0.999798,0.004855,-0.016982,0.009584,-0.500000,-0.489065,0.800000,0.999796,0.004867,-0.016969,0.009765,200.000000,100.000000,0.000000,0.013307,0.000000,0.000000,0.000000,0.000000,0.000000,0.000000,1.339457,0.396750,0.538661,-0.850434,-0.060737,0.866610,0.864464
0.157000,-0.500147,-0.499036,0.799732,0.999798,0.004855,-0.016982,0.009582,-0.500000,-0.489065,0.800000,0.999796,0.004867,-0.016969,0.009765,200.000000,100.000000,0.000000,0.013401,0.000000,0.000000,0.000000,0.000000,0.000000,0.000000,1.339432,0.396740,0.538659,-0.850476,-0.060708,0.866584,0.864440
0.158000,-0.500149,-0.499023,0.799729,0.999798,0.004855,-0.016982,0.009580,-0.500000,-0.489065,0.800000,0.999796,0.004867,-0.016969,0.009765,200.000000,100.000000,0.000000,0.013556,0.000000,0.000000,0.000000,0.000000,0.000000,0.000000,1.339406,0.396729,0.538656,-0.850518,-0.060680,0.866558,0.864417
0.159000,-0.500151,-0.499010,0.799725,0.999798,0.004855,-0.016982,0.009578,-0.500000,-0.489065,0.800000,0.999796,0.004867,-0.016969,0.009765,200.000000,100.000000,0.000000,0.013648,0.000000,0.000000,0.000000,0.000000,0.000000,0.000000,1.339380,0.396718,0.538653,-0.850560,-0.060651,0.866532,0.864393
0.160000,-0.500153,-0.498997,0.799722,0.999798,0.004854,-0.016982,0.009576,-0.500000,-0.489065,0.800000,0.999796,0.004867,-0.016969,0.009765,200.000000,100.000000,0.000000,0.013800,0.000000,0.000000,0.000000,0.000000,0.000000,0.000000,1.339354,0.396707,0.538651,-0.850603,-0.060622,0.866505,0.864369
0.161000,-0.500155,-0.498983,0.799718,0.999798,0.004854,-0.016982,0.009574,-0.500000,-0.489065,0.800000,0.999796,0.004867,-0.016969,0.009765,200.000000,100.000000,0.000000,0.013889,0.000000,0.000000,0.000000,0.000000,0.000000,0.000000,1.339327,0.396696,0.538648,-0.850646,-0.060593,0.866478,0.864344
0.162000,-0.500158,-0.498970,0.799714,0.999798,0.004854,-0.016982,0.009572,-0.500000,-0.488240,0.800000,0.999796,0.004867,-0.016969,0.009765,200.000000,100.000000,0.000000,0.014040,0.000000,0.000000,0.000000,0.000000,0.000000,0.000000,1.339301,0.396685,0.538646,-0.850690,-0.060564,0.866451,0.864320
0.163000,-0.500160,-0.498956,0.799711,0.999798,0.004854,-0.016983,0.009570,-0.500000,-0.488240,0.800000,0.999796,0.004867,-0.016969,0.009765,200.000000,100.000000,0.000000,0.014138,0.000000,0.000000,0.000000,0.000000,0.000000,0.000000,1.339274,0.396674,0.538643,-0.850734,-0.060534,0.866424,0.864295
0.164000,-0.500162,-0.498943,0.799707,0.999798,0.004854,-0.016983,0.009568,-0.500000,-0.488240,0.800000,0.999796,0.004867,-0.016969,0.009765,200.000000,100.000000,0.000000,0.014308,0.000000,0.000000,0.000000,0.000000,0.000000,0.000000,1.339246,0.396662,0.538641,-0.850779,-0.060504,0.866396,0.864270
0.165000,-0.500164,-0.498929,0.799704,0.999798,0.004854,-0.016983,0.009566,-0.500000,-0.488240,0.800000,0.999796,0.004867,-0.016969,0.009765,200.000000,100.000000,0.000000,0.014413,0.000000,0.000000,0.000000,0.000000,0.000000,0.000000,1.339219,0.396651,0.538639,-0.850824,-0.060474,0.866368,0.864245
0.166000,-0.500166,-0.498915,0.799700,0.999798,0.004853,-0.016983,0.009564,-0.500000,-0.488240,0.800000,0.999796,0.004867,-0.016969,0.009765,200.000000,100.000000,0.000000,0.014577,0.000000,0.000000,0.000000,0.000000,0.000000,0.000000,1.339191,0.396639,0.538636,-0.850869,-0.060443,0.866340,0.864220
0.167000,-0.500168,-0.498901,0.799696,0.999798,0.004853,-0.016983,0.009562,-0.500000,-0.488240,0.800000,0.999796,0.004867,-0.016969,0.009765,200.000000,100.000000,0.000000,0.014677,0.000000,0.000000,0.000000,0.000000,0.000000,0.000000,1.339163,0.396627,0.538634,-0.850915,-0.060412,0.866312,0.864194
0.168000,-0.500170,-0.498887,0.799693,0.999798,0.004853,-0.016983,0.009560,-0.500000,-0.488240,0.800000,0.999796,0.004867,-0.016969,0.009765,200.000000,100.000000,0.000000,0.014838,0.000000,0.000000,0.000000,0.000000,0.000000,0.000000,1.339134,0.396616,0.538631,-0.850961,-0.060381,0.866283,0.864168
0.169000,-0.500172,-0.498872,0.799689,0.999798,0.004853,-0.016983,0.009557,-0.500000,-0.488240,0.800000,0.999796,0.004867,-0.016969,0.009765,200.000000,100.000000,0.000000,0.014936,0.000000,0.000000,0.000000,0.000000,0.000000,0.000000,1.339106,0.396604,0.538629,-0.851008,-0.060350,0.866254,0.864142
0.170000,-0.500175,-0.498858,0.799685,0.999798,0.004853,-0.016983,0.009555,-0.500000,-0.488240,0.800000,0.999796,0.004867,-0.016969,0.009765,200.000000,100.000000,0.000000,0.015095,0.000000,0.000000,0.000000,0.000000,0.000000,0.000000,1.339077,0.396592,0.538626,-0.851055,-0.060318,0.866225,0.864115
0.171000,-0.500177,-0.498844,0.799681,0.999798,0.004853,-0.016983,0.009553,-0.500000,-0.488240,0.800000,0.999796,0.004867,-0.016969,0.009765,200.000000,100.000000,0.000000,0.015189,0.000000,0.000000,0.000000,0.000000,0.000000,0.000000,1.339047,0.396580,0.538624,-0.851102,-0.060286,0.866195,0.864089
0.172000,-0.500179,-0.498829,0.799677,0.999798,0.004852,-0.016984,0.009551,-0.500000,-0.488240,0.800000,0.999796,0.004867,-0.016969,0.009765,200.000000,100.000000,0.000000,0.015345,0.000000,0.000000,0.000000,0.000000,0.000000,0.000000,1.339018,0.396567,0.538621,-0.851150,-0.060254,0.866166,0.864062
0.173000,-0.500181,-0.498814,0.799674,0.999798,0.004852,-0.016984,0.009549,-0.500000,-0.487385,0.800000,0.999796,0.004867,-0.016969,0.009765,200.000000,100.000000,0.000000,0.015437,0.000000,0.000000,0.000000,0.000000,0.000000,0.000000,1.338988,0.396555,0.538619,-0.851198,-0.060222,0.866136,0.864035
0.174000,-0.500184,-0.498799,0.799670,0.999798,0.004852,-0.016984,0.009546,-0.500000,-0.487385,0.800000,0.999796,0.004867,-0.016969,0.009765,200.000000,100.000000,0.000000,0.015603,0.000000,0.000000,0.000000,0.000000,0.000000,0.000000,1.338958,0.396543,0.538617,-0.851247,-0.060189,0.866105,0.864007
0.175000,-0.500186,-0.498784,0.799666,0.999798,0.004852,-0.016984,0.009544,-0.500000,-0.487385,0.800000,0.999796,0.004867,-0.016969,0.009765,200.000000,100.000000,0.000000,0.015716,0.000000,0.000000,0.000000,0.000000,0.000000,0.000000,1.338928,0.396530,0.538614,-0.851296,-0.060156,0.866075,0.863980
0.176000,-0.500188,-0.498769,0.799662,0.999798,0.004852,-0.016984,0.009542,-0.500000,-0.487385,0.800000,0.999796,0.004867,-0.016969,0.009765,200.000000,100.000000,0.000000,0.015888,0.000000,0.000000,0.000000,0.000000,0.000000,0.000000,1.338897,0.396517,0.538612,-0.851346,-0.060123,0.866044,0.863952
0.176000,-0.500191,-0.498754,0.799658,0.999798,0.004851,-0.016984,0.009540,-0.500000,-0.487385,0.800000,0.999796,0.004867,-0.016969,0.009765,200.000000,100.000000,0.000000,0.015995,0.000000,0.000000,0.000000,0.000000,0.000000,0.000000,1.338866,0.396504,0.538610,-0.851396,-0.060089,0.866013,0.863924
0.178000,-0.500193,-0.498738,0.799654,0.999798,0.004851,-0.016984,0.009538,-0.500000,-0.487385,0.800000,0.999796,0.004867,-0.016969,0.009765,200.000000,100.000000,0.000000,0.016162,0.000000,0.000000,0.000000,0.000000,0.000000,0.000000,1.338835,0.396492,0.538607,-0.851446,-0.060055,0.865982,0.863896
0.179000,-0.500195,-0.498723,0.799650,0.999799,0.004851,-0.016984,0.009535,-0.500000,-0.487385,0.800000,0.999796,0.004867,-0.016969,0.009765,200.000000,100.000000,0.000000,0.016265,0.000000,0.000000,0.000000,0.000000,0.000000,0.000000,1.338803,0.396478,0.538605,-0.851497,-0.060021,0.865950,0.863867
0.180000,-0.500198,-0.498707,0.799646,0.999799,0.004851,-0.016985,0.009533,-0.500000,-0.487385,0.800000,0.999796,0.004867,-0.016969,0.009765,200.000000,100.000000,0.000000,0.016430,0.000000,0.000000,0.000000,0.000000,0.000000,0.000000,1.338772,0.396465,0.538603,-0.851548,-0.059987,0.865918,0.863838
0.181000,-0.500200,-0.498691,0.799641,0.999799,0.004851,-0.016985,0.009531,-0.500000,-0.487385,0.800000,0.999796,0.004867,-0.016969,0.009765,200.000000,100.000000,0.000000,0.016531,0.000000,0.000000,0.000000,0.000000,0.000000,0.000000,1.338740,0.396452,0.538601,-0.851600,-0.059952,0.865886,0.863809
0.182000,-0.500203,-0.498675,0.799637,0.999799,0.004850,-0.016985,0.009528,-0.500000,-0.486500,0.800000,0.999796,0.004867,-0.016969,0.009765,200.000000,100.000000,0.000000,0.016692,0.000000,0.000000,0.000000,0.000000,0.000000,0.000000,1.338707,0.396439,0.538598,-0.851652,-0.059917,0.865853,0.863780
0.183000,-0.500205,-0.498659,0.799633,0.999799,0.004850,-0.016985,0.009526,-0.500000,-0.486500,0.800000,0.999796,0.004867,-0.016969,0.009765,200.000000,100.000000,0.000000,0.016803,0.000000,0.000000,0.000000,0.000000,0.000000,0.000000,1.338675,0.396425,0.538596,-0.851705,-0.059882,0.865821,0.863750
0.184000,-0.500208,-0.498643,0.799629,0.999799,0.004850,-0.016985,0.009524,-0.500000,-0.486500,0.800000,0.999796,0.004867,-0.016969,0.009765,200.000000,100.000000,0.000000,0.016986,0.000000,0.000000,0.000000,0.000000,0.000000,0.000000,1.338642,0.396412,0.538594,-0.851758,-0.059846,0.865788,0.863721
0.185000,-0.500210,-0.498626,0.799625,0.999799,0.004850,-0.016985,0.009521,-0.500000,-0.486500,0.800000,0.999796,0.004867,-0.016969,0.009765,200.000000,100.000000,0.000000,0.017104,0.000000,0.000000,0.000000,0.000000,0.000000,0.000000,1.338608,0.396398,0.538592,-0.851812,-0.059810,0.865754,0.863690
0.186000,-0.500213,-0.498610,0.799620,0.999799,0.004850,-0.016985,0.009519,-0.500000,-0.486500,0.800000,0.999796,0.004867,-0.016969,0.009765,200.000000,100.000000,0.000000,0.017280,0.000000,0.000000,0.000000,0.000000,0.000000,0.000000,1.338575,0.396384,0.538589,-0.851866,-0.059774,0.865721,0.863660
0.187000,-0.500215,-0.498593,0.799616,0.999799,0.004849,-0.016985,0.009517,-0.500000,-0.486500,0.800000,0.999796,0.004867,-0.016969,0.009765,200.000000,100.000000,0.000000,0.017393,0.000000,0.000000,0.000000,0.000000,0.000000,0.000000,1.338541,0.396370,0.538587,-0.851920,-0.059737,0.865687,0.863629
0.188000,-0.500218,-0.498576,0.799612,0.999799,0.004849,-0.016985,0.009514,-0.500000,-0.486500,0.800000,0.999796,0.004867,-0.016969,0.009765,200.000000,100.000000,0.000000,0.017566,0.000000,0.000000,0.000000,0.000000,0.000000,0.000000,1.338507,0.396356,0.538585,-0.851975,-0.059701,0.865653,0.863599
0.189000,-0.500220,-0.498559,0.799607,0.999799,0.004849,-0.016986,0.009512,-0.500000,-0.486500,0.800000,0.999796,0.004867,-0.016969,0.009765,200.000000,100.000000,0.000000,0.017676,0.000000,0.000000,0.000000,0.000000,0.000000,0.000000,1.338472,0.396342,0.538583,-0.852031,-0.059663,0.865618,0.863567
0.190000,-0.500223,-0.498542,0.799603,0.999799,0.004849,-0.016986,0.009509,-0.500000,-0.486500,0.800000,0.999796,0.004867,-0.016969,0.009765,200.000000,100.000000,0.000000,0.017846,0.000000,0.000000,0.000000,0.000000,0.000000,0.000000,1.338437,0.396327,0.538581,-0.852086,-0.059626,0.865583,0.863536
0.191000,-0.500226,-0.498525,0.799599,0.999799,0.004849,-0.016986,0.009507,-0.500000,-0.486500,0.800000,0.999796,0.004867,-0.016969,0.009765,200.000000,100.000000,0.000000,0.017953,0.000000,0.000000,0.000000,0.000000,0.000000,0.000000,1.338402,0.396313,0.538579,-0.852143,-0.059588,0.865548,0.863504
0.192000,-0.500228,-0.498508,0.799594,0.999799,0.004848,-0.016986,0.009504,-0.500000,-0.485585,0.800000,0.999796,0.004867,-0.016969,0.009765,200.000000,100.000000,0.000000,0.018119,0.000000,0.000000,0.000000,0.000000,0.000000,0.000000,1.338367,0.396298,0.538577,-0.852199,-0.059550,0.865513,0.863473
0.193000,-0.500231,-0.498490,0.799590,0.999799,0.004848,-0.016986,0.009502,-0.500000,-0.485585,0.800000,0.999796,0.004867,-0.016969,0.009765,200.000000,100.000000,0.000000,0.018236,0.000000,0.000000,0.000000,0.000000,0.000000,0.000000,1.338331,0.396284,0.538575,-0.852257,-0.059512,0.865477,0.863440
0.194000,-0.500234,-0.498472,0.799585,0.999799,0.004848,-0.016986,0.009500,-0.500000,-0.485585,0.800000,0.999796,0.004867,-0.016969,0.009765,200.000000,100.000000,0.000000,0.018425,0.000000,0.000000,0.000000,0.000000,0.000000,0.000000,1.338295,0.396269,0.538573,-0.852314,-0.059473,0.865441,0.863408
0.195000,-0.500236,-0.498455,0.799581,0.999799,0.004848,-0.016986,0.009497,-0.500000,-0.485585,0.800000,0.999796,0.004867,-0.016969,0.009765,200.000000,100.000000,0.000000,0.018549,0.000000,0.000000,0.000000,0.000000,0.000000,0.000000,1.338258,0.396254,0.538571,-0.852373,-0.059434,0.865405,0.863375
0.196000,-0.500239,-0.498437,0.799576,0.999799,0.004847,-0.016986,0.009495,-0.500000,-0.485585,0.800000,0.999796,0.004867,-0.016969,0.009765,200.000000,100.000000,0.000000,0.018731,0.000000,0.000000,0.000000,0.000000,0.000000,0.000000,1.338222,0.396239,0.538569,-0.852431,-0.059395,0.865369,0.863342
0.197000,-0.500242,-0.498419,0.799571,0.999799,0.004847,-0.016987,0.009492,-0.500000,-0.485585,0.800000,0.999796,0.004867,-0.016969,0.009765,200.000000,100.000000,0.000000,0.018850,0.000000,0.000000,0.000000,0.000000,0.000000,0.000000,1.338184,0.396224,0.538567,-0.852491,-0.059355,0.865332,0.863309
0.197000,-0.500245,-0.498400,0.799567,0.999799,0.004847,-0.016987,0.009489,-0.500000,-0.485585,0.800000,0.999796,0.004867,-0.016969,0.009765,200.000000,100.000000,0.000000,0.019029,0.000000,0.000000,0.000000,0.000000,0.000000,0.000000,1.338147,0.396208,0.538565,-0.852550,-0.059316,0.865295,0.863276
0.198000,-0.500247,-0.498382,0.799562,0.999799,0.004847,-0.016987,0.009487,-0.500000,-0.485585,0.800000,0.999796,0.004867,-0.016969,0.009765,200.000000,100.000000,0.000000,0.019145,0.000000,0.000000,0.000000,0.000000,0.000000,0.000000,1.338109,0.396193,0.538563,-0.852610,-0.059275,0.865257,0.863242
0.200000,-0.500250,-0.498364,0.799557,0.999799,0.004847,-0.016987,0.009484,-0.500000,-0.485585,0.800000,0.999796,0.004867,-0.016969,0.009765,200.000000,100.000000,0.000000,0.019320,0.000000,0.000000,0.000000,0.000000,0.000000,0.000000,1.338072,0.396177,0.538561,-0.852671,-0.059235,0.865219,0.863208
0.201000,-0.500253,-0.498345,0.799553,0.999799,0.004846,-0.016987,0.009482,-0.500000,-0.485585,0.800000,0.999796,0.004867,-0.016969,0.009765,200.000000,100.000000,0.000000,0.019432,0.000000,0.000000,0.000000,0.000000,0.000000,0.000000,1.338033,0.396162,0.538559,-0.852732,-0.059194,0.865181,0.863173
0.202000,-0.500256,-0.498326,0.799548,0.999799,0.004846,-0.016987,0.009479,-0.500000,-0.484640,0.800000,0.999796,0.004867,-0.016969,0.009765,200.000000,100.000000,0.000000,0.019605,0.000000,0.000000,0.000000,0.000000,0.000000,0.000000,1.337995,0.396146,0.538557,-0.852794,-0.059153,0.865143,0.863139
0.202000,-0.500259,-0.498307,0.799543,0.999799,0.004846,-0.016987,0.009477,-0.500000,-0.484640,0.800000,0.999796,0.004867,-0.016969,0.009765,200.000000,100.000000,0.000000,0.019728,0.000000,0.000000,0.000000,0.000000,0.000000,0.000000,1.337955,0.396130,0.538555,-0.852856,-0.059111,0.865104,0.863104
0.204000,-0.500262,-0.498288,0.799538,0.999799,0.004846,-0.016987,0.009474,-0.500000,-0.484640,0.800000,0.999796,0.004867,-0.016969,0.009765,200.000000,100.000000,0.000000,0.019923,0.000000,0.000000,0.000000,0.000000,0.000000,0.000000,1.337916,0.396114,0.538553,-0.852918,-0.059070,0.865066,0.863069
0.205000,-0.500265,-0.498269,0.799533,0.999799,0.004845,-0.016988,0.009471,-0.500000,-0.484640,0.800000,0.999796,0.004867,-0.016969,0.009765,200.000000,100.000000,0.000000,0.020053,0.000000,0.000000,0.000000,0.000000,0.000000,0.000000,1.337876,0.396097,0.538552,-0.852981,-0.059027,0.865026,0.863033
0.206000,-0.500268,-0.498249,0.799528,0.999799,0.004845,-0.016988,0.009469,-0.500000,-0.484640,0.800000,0.999796,0.004867,-0.016969,0.009765,200.000000,100.000000,0.000000,0.020241,0.000000,0.000000,0.000000,0.000000,0.000000,0.000000,1.337837,0.396081,0.538550,-0.853045,-0.058985,0.864987,0.862998
0.207000,-0.500271,-0.498230,0.799523,0.999799,0.004845,-0.016988,0.009466,-0.500000,-0.484640,0.800000,0.999796,0.004867,-0.016969,0.009765,200.000000,100.000000,0.000000,0.020366,0.000000,0.000000,0.000000,0.000000,0.000000,0.000000,1.337796,0.396065,0.538548,-0.853109,-0.058942,0.864947,0.862962
0.208000,-0.500273,-0.498210,0.799518,0.999799,0.004845,-0.016988,0.009463,-0.500000,-0.484640,0.800000,0.999796,0.004867,-0.016969,0.009765,200.000000,100.000000,0.000000,0.020550,0.000000,0.000000,0.000000,0.000000,0.000000,0.000000,1.337756,0.396048,0.538546,-0.853174,-0.058899,0.864907,0.862925
0.209000,-0.500277,-0.498190,0.799513,0.999799,0.004844,-0.016988,0.009461,-0.500000,-0.484640,0.800000,0.999796,0.004867,-0.016969,0.009765,200.000000,100.000000,0.000000,0.020671,0.000000,0.000000,0.000000,0.000000,0.000000,0.000000,1.337714,0.396031,0.538545,-0.853239,-0.058856,0.864866,0.862889
0.210000,-0.500280,-0.498170,0.799508,0.999799,0.004844,-0.016988,0.009458,-0.500000,-0.484640,0.800000,0.999796,0.004867,-0.016969,0.009765,200.000000,100.000000,0.000000,0.020852,0.000000,0.000000,0.000000,0.000000,0.000000,0.000000,1.337673,0.396014,0.538543,-0.853304,-0.058812,0.864825,0.862852
0.211000,-0.500283,-0.498150,0.799503,0.999799,0.004844,-0.016988,0.009455,-0.500000,-0.484640,0.800000,0.999796,0.004867,-0.016969,0.009765,200.000000,100.000000,0.000000,0.020971,0.000000,0.000000,0.000000,0.000000,0.000000,0.000000,1.337631,0.395997,0.538542,-0.853370,-0.058768,0.864784,0.862815
0.212000,-0.500286,-0.498130,0.799498,0.999799,0.004844,-0.016988,0.009453,-0.500000,-0.484640,0.800000,0.999796,0.004867,-0.016969,0.009765,200.000000,100.000000,0.000000,0.021148,0.000000,0.000000,0.000000,0.000000,0.000000,0.000000,1.337589,0.395980,0.538540,-0.853437,-0.058724,0.864743,0.862777
0.213000,-0.500289,-0.498110,0.799493,0.999799,0.004843,-0.016989,0.009450,-0.500000,-0.483665,0.800000,0.999796,0.004867,-0.016969,0.009765,200.000000,100.000000,0.000000,0.021263,0.000000,0.000000,0.000000,0.000000,0.000000,0.000000,1.337547,0.395963,0.538538,-0.853504,-0.058679,0.864701,0.862740
0.214000,-0.500292,-0.498089,0.799488,0.999799,0.004843,-0.016989,0.009447,-0.500000,-0.483665,0.800000,0.999796,0.004867,-0.016969,0.009765,200.000000,100.000000,0.000000,0.021452,0.000000,0.000000,0.000000,0.000000,0.000000,0.000000,1.337504,0.395946,0.538537,-0.853571,-0.058634,0.864659,0.862702
0.215000,-0.500295,-0.498068,0.799483,0.999799,0.004843,-0.016989,0.009445,-0.500000,-0.483665,0.800000,0.999796,0.004867,-0.016969,0.009765,200.000000,100.000000,0.000000,0.021590,0.000000,0.000000,0.000000,0.000000,0.000000,0.000000,1.337461,0.395928,0.538535,-0.853640,-0.058588,0.864616,0.862664
0.216000,-0.500298,-0.498047,0.799477,0.999799,0.004843,-0.016989,0.009442,-0.500000,-0.483665,0.800000,0.999796,0.004867,-0.016969,0.009765,200.000000,100.000000,0.000000,0.021786,0.000000,0.000000,0.000000,0.000000,0.000000,0.000000,1.337418,0.395910,0.538534,-0.853708,-0.058543,0.864574,0.862625
0.217000,-0.500301,-0.498026,0.799472,0.999799,0.004842,-0.016989,0.009439,-0.500000,-0.483665,0.800000,0.999796,0.004867,-0.016969,0.009765,200.000000,100.000000,0.000000,0.021917,0.000000,0.000000,0.000000,0.000000,0.000000,0.000000,1.337374,0.395892,0.538533,-0.853777,-0.058497,0.864530,0.862586
0.218000,-0.500305,-0.498005,0.799467,0.999799,0.004842,-0.016989,0.009436,-0.500000,-0.483665,0.800000,0.999796,0.004867,-0.016969,0.009765,200.000000,100.000000,0.000000,0.022107,0.000000,0.000000,0.000000,0.000000,0.000000,0.000000,1.337330,0.395875,0.538531,-0.853847,-0.058450,0.864487,0.862547
0.219000,-0.500308,-0.497984,0.799462,0.999799,0.004842,-0.016989,0.009433,-0.500000,-0.483665,0.800000,0.999796,0.004867,-0.016969,0.009765,200.000000,100.000000,0.000000,0.022234,0.000000,0.000000,0.000000,0.000000,0.000000,0.000000,1.337285,0.395856,0.538530,-0.853917,-0.058404,0.864443,0.862508
0.220000,-0.500311,-0.497962,0.799456,0.999799,0.004842,-0.016989,0.009431,-0.500000,-0.483665,0.800000,0.999796,0.004867,-0.016969,0.009765,200.000000,100.000000,0.000000,0.022421,0.000000,0.000000,0.000000,0.000000,0.000000,0.000000,1.337241,0.395838,0.538528,-0.853988,-0.058357,0.864399,0.862468
0.221000,-0.500314,-0.497941,0.799451,0.999799,0.004841,-0.016990,0.009428,-0.500000,-0.483665,0.800000,0.999796,0.004867,-0.016969,0.009765,200.000000,100.000000,0.000000,0.022545,0.000000,0.000000,0.000000,0.000000,0.000000,0.000000,1.337196,0.395820,0.538527,-0.854059,-0.058309,0.864355,0.862428
0.222000,-0.500318,-0.497919,0.799445,0.999800,0.004841,-0.016990,0.009425,-0.500000,-0.482660,0.800000,0.999796,0.004867,-0.016969,0.009765,200.000000,100.000000,0.000000,0.022728,0.000000,0.000000,0.000000,0.000000,0.000000,0.000000,1.337150,0.395801,0.538526,-0.854130,-0.058262,0.864310,0.862388
0.223000,-0.500321,-0.497897,0.799440,0.999800,0.004841,-0.016990,0.009422,-0.500000,-0.482660,0.800000,0.999796,0.004867,-0.016969,0.009765,200.000000,100.000000,0.000000,0.022864,0.000000,0.000000,0.000000,0.000000,0.000000,0.000000,1.337104,0.395783,0.538525,-0.854203,-0.058214,0.864265,0.862347
0.224000,-0.500324,-0.497875,0.799434,0.999800,0.004841,-0.016990,0.009419,-0.500000,-0.482660,0.800000,0.999796,0.004867,-0.016969,0.009765,200.000000,100.000000,0.000000,0.023070,0.000000,0.000000,0.000000,0.000000,0.000000,0.000000,1.337058,0.395764,0.538524,-0.854276,-0.058165,0.864220,0.862306
0.225000,-0.500328,-0.497852,0.799429,0.999800,0.004840,-0.016990,0.009416,-0.500000,-0.482660,0.800000,0.999796,0.004867,-0.016969,0.009765,200.000000,100.000000,0.000000,0.023213,0.000000,0.000000,0.000000,0.000000,0.000000,0.000000,1.337011,0.395745,0.538523,-0.854349,-0.058116,0.864174,0.862265
0.226000,-0.500331,-0.497830,0.799423,0.999800,0.004840,-0.016990,0.009413,-0.500000,-0.482660,0.800000,0.999796,0.004867,-0.016969,0.009765,200.000000,100.000000,0.000000,0.023412,0.000000,0.000000,0.000000,0.000000,0.000000,0.000000,1.336964,0.395726,0.538521,-0.854423,-0.058067,0.864128,0.862223
0.227000,-0.500335,-0.497807,0.799418,0.999800,0.004840,-0.016990,0.009411,-0.500000,-0.482660,0.800000,0.999796,0.004867,-0.016969,0.009765,200.000000,100.000000,0.000000,0.023549,0.000000,0.000000,0.000000,0.000000,0.000000,0.000000,1.336917,0.395707,0.538520,-0.854497,-0.058018,0.864082,0.862182
0.228000,-0.500338,-0.497785,0.799412,0.999800,0.004840,-0.016990,0.009408,-0.500000,-0.482660,0.800000,0.999796,0.004867,-0.016969,0.009765,200.000000,100.000000,0.000000,0.023745,0.000000,0.000000,0.000000,0.000000,0.000000,0.000000,1.336869,0.395687,0.538519,-0.854572,-0.057968,0.864035,0.862139
0.229000,-0.500342,-0.497762,0.799406,0.999800,0.004839,-0.016990,0.009405,-0.500000,-0.482660,0.800000,0.999796,0.004867,-0.016969,0.009765,200.000000,100.000000,0.000000,0.023878,0.000000,0.000000,0.000000,0.000000,0.000000,0.000000,1.336821,0.395668,0.538518,-0.854648,-0.057918,0.863988,0.862097
0.230000,-0.500345,-0.497739,0.799401,0.999800,0.004839,-0.016991,0.009402,-0.500000,-0.482660,0.800000,0.999796,0.004867,-0.016969,0.009765,200.000000,100.000000,0.000000,0.024070,0.000000,0.000000,0.000000,0.000000,0.000000,0.000000,1.336773,0.395648,0.538517,-0.854724,-0.057867,0.863941,0.862054
0.231000,-0.500349,-0.497715,0.799395,0.999800,0.004839,-0.016991,0.009399,-0.500000,-0.482660,0.800000,0.999796,0.004867,-0.016969,0.009765,200.000000,100.000000,0.000000,0.024199,0.000000,0.000000,0.000000,0.000000,0.000000,0.000000,1.336724,0.395628,0.538516,-0.854800,-0.057816,0.863893,0.862011
0.232000,-0.500352,-0.497692,0.799389,0.999800,0.004838,-0.016991,0.009396,-0.500000,-0.481625,0.800000,0.999796,0.004867,-0.016969,0.009765,200.000000,100.000000,0.000000,0.024387,0.000000,0.000000,0.000000,0.000000,0.000000,0.000000,1.336675,0.395609,0.538515,-0.854877,-0.057765,0.863845,0.861968
0.233000,-0.500356,-0.497668,0.799383,0.999800,0.004838,-0.016991,0.009393,-0.500000,-0.481625,0.800000,0.999796,0.004867,-0.016969,0.009765,200.000000,100.000000,0.000000,0.024529,0.000000,0.000000,0.000000,0.000000,0.000000,0.000000,1.336625,0.395589,0.538515,-0.854955,-0.057714,0.863797,0.861924
0.234000,-0.500359,-0.497644,0.799378,0.999800,0.004838,-0.016991,0.009390,-0.500000,-0.481625,0.800000,0.999796,0.004867,-0.016969,0.009765,200.000000,100.000000,0.000000,0.024741,0.000000,0.000000,0.000000,0.000000,0.000000,0.000000,1.336575,0.395568,0.538514,-0.855033,-0.057662,0.863748,0.861880
0.235000,-0.500363,-0.497621,0.799372,0.999800,0.004838,-0.016991,0.009387,-0.500000,-0.481625,0.800000,0.999796,0.004867,-0.016969,0.009765,200.000000,100.000000,0.000000,0.024890,0.000000,0.000000,0.000000,0.000000,0.000000,0.000000,1.336524,0.395548,0.538513,-0.855112,-0.057610,0.863699,0.861836
0.236000,-0.500367,-0.497596,0.799366,0.999800,0.004837,-0.016991,0.009384,-0.500000,-0.481625,0.800000,0.999796,0.004867,-0.016969,0.009765,200.000000,100.000000,0.000000,0.025095,0.000000,0.000000,0.000000,0.000000,0.000000,0.000000,1.336474,0.395527,0.538512,-0.855191,-0.057557,0.863649,0.861791
0.237000,-0.500370,-0.497572,0.799360,0.999800,0.004837,-0.016991,0.009381,-0.500000,-0.481625,0.800000,0.999796,0.004867,-0.016969,0.009765,200.000000,100.000000,0.000000,0.025237,0.000000,0.000000,0.000000,0.000000,0.000000,0.000000,1.336423,0.395507,0.538512,-0.855271,-0.057504,0.863600,0.861746
0.238000,-0.500374,-0.497548,0.799354,0.999800,0.004837,-0.016992,0.009378,-0.500000,-0.481625,0.800000,0.999796,0.004867,-0.016969,0.009765,200.000000,100.000000,0.000000,0.025438,0.000000,0.000000,0.000000,0.000000,0.000000,0.000000,1.336371,0.395486,0.538511,-0.855351,-0.057451,0.863550,0.861701
0.239000,-0.500378,-0.497523,0.799348,0.999800,0.004836,-0.016992,0.009375,-0.500000,-0.481625,0.800000,0.999796,0.004867,-0.016969,0.009765,200.000000,100.000000,0.000000,0.025577,0.000000,0.000000,0.000000,0.000000,0.000000,0.000000,1.336319,0.395465,0.538511,-0.855432,-0.057397,0.863499,0.861656
0.240000,-0.500381,-0.497498,0.799342,0.999800,0.004836,-0.016992,0.009372,-0.500000,-0.481625,0.800000,0.999796,0.004867,-0.016969,0.009765,200.000000,100.000000,0.000000,0.025774,0.000000,0.000000,0.000000,0.000000,0.000000,0.000000,1.336267,0.395444,0.538510,-0.855514,-0.057343,0.863448,0.861610
0.241000,-0.500385,-0.497474,0.799336,0.999800,0.004836,-0.016992,0.009368,-0.500000,-0.481625,0.800000,0.999796,0.004867,-0.016969,0.009765,200.000000,100.000000,0.000000,0.025909,0.000000,0.000000,0.000000,0.000000,0.000000,0.000000,1.336214,0.395423,0.538509,-0.855596,-0.057288,0.863397,0.861563
0.242000,-0.500389,-0.497448,0.799330,0.999800,0.004835,-0.016992,0.009365,-0.500000,-0.480560,0.800000,0.999796,0.004867,-0.016969,0.009765,200.000000,100.000000,0.000000,0.026102,0.000000,0.000000,0.000000,0.000000,0.000000,0.000000,1.336161,0.395401,0.538509,-0.855679,-0.057234,0.863346,0.861517
0.243000,-0.500393,-0.497423,0.799323,0.999800,0.004835,-0.016992,0.009362,-0.500000,-0.480560,0.800000,0.999796,0.004867,-0.016969,0.009765,200.000000,100.000000,0.000000,0.026250,0.000000,0.000000,0.000000,0.000000,0.000000,0.000000,1.336108,0.395380,0.538509,-0.855762,-0.057178,0.863294,0.861470
0.244000,-0.500397,-0.497398,0.799317,0.999800,0.004835,-0.016992,0.009359,-0.500000,-0.480560,0.800000,0.999796,0.004867,-0.016969,0.009765,200.000000,100.000000,0.000000,0.026468,0.000000,0.000000,0.000000,0.000000,0.000000,0.000000,1.336054,0.395358,0.538508,-0.855846,-0.057123,0.863241,0.861423
0.245000,-0.500401,-0.497372,0.799311,0.999800,0.004835,-0.016992,0.009356,-0.500000,-0.480560,0.800000,0.999796,0.004867,-0.016969,0.009765,200.000000,100.000000,0.000000,0.026622,0.000000,0.000000,0.000000,0.000000,0.000000,0.000000,1.336000,0.395336,0.538508,-0.855930,-0.057067,0.863189,0.861376
0.246000,-0.500404,-0.497346,0.799305,0.999800,0.004834,-0.016993,0.009353,-0.500000,-0.480560,0.800000,0.999796,0.004867,-0.016969,0.009765,200.000000,100.000000,0.000000,0.026832,0.000000,0.000000,0.000000,0.000000,0.000000,0.000000,1.335945,0.395314,0.538508,-0.856015,-0.057011,0.863136,0.861328
0.247000,-0.500408,-0.497320,0.799298,0.999800,0.004834,-0.016993,0.009350,-0.500000,-0.480560,0.800000,0.999796,0.004867,-0.016969,0.009765,200.000000,100.000000,0.000000,0.026981,0.000000,0.000000,0.000000,0.000000,0.000000,0.000000,1.335890,0.395292,0.538507,-0.856101,-0.056954,0.863082,0.861280
0.248000,-0.500412,-0.497294,0.799292,0.999800,0.004834,-0.016993,0.009346,-0.500000,-0.480560,0.800000,0.999796,0.004867,-0.016969,0.009765,200.000000,100.000000,0.000000,0.027187,0.000000,0.000000,0.000000,0.000000,0.000000,0.000000,1.335835,0.395270,0.538507,-0.856187,-0.056897,0.863029,0.861231
0.249000,-0.500416,-0.497268,0.799286,0.999800,0.004833,-0.016993,0.009343,-0.500000,-0.480560,0.800000,0.999796,0.004867,-0.016969,0.009765,200.000000,100.000000,0.000000,0.027331,0.000000,0.000000,0.000000,0.000000,0.000000,0.000000,1.335779,0.395247,0.538507,-0.856274,-0.056840,0.862975,0.861182
0.250000,-0.500420,-0.497242,0.799279,0.999800,0.004833,-0.016993,0.009340,-0.500000,-0.480560,0.800000,0.999796,0.004867,-0.016969,0.009765,200.000000,100.000000,0.000000,0.027533,0.000000,0.000000,0.000000,0.000000,0.000000,0.000000,1.335723,0.395225,0.538507,-0.856361,-0.056782,0.862920,0.861133
0.251000,-0.500424,-0.497215,0.799273,0.999800,0.004833,-0.016993,0.009337,-0.500000,-0.480560,0.800000,0.999796,0.004867,-0.016969,0.009765,200.000000,100.000000,0.000000,0.027674,0.000000,0.000000,0.000000,0.000000,0.000000,0.000000,1.335666,0.395202,0.538507,-0.856449,-0.056724,0.862866,0.861084
0.252000,-0.500428,-0.497188,0.799266,0.999800,0.004832,-0.016993,0.009334,-0.500000,-0.479465,0.800000,0.999796,0.004867,-0.016969,0.009765,200.000000,100.000000,0.000000,0.027872,0.000000,0.000000,0.000000,0.000000,0.000000,0.000000,1.335609,0.395179,0.538507,-0.856537,-0.056665,0.862811,0.861034
0.253000,-0.500432,-0.497161,0.799260,0.999800,0.004832,-0.016993,0.009330,-0.500000,-0.479465,0.800000,0.999796,0.004867,-0.016969,0.009765,200.000000,100.000000,0.000000,0.028025,0.000000,0.000000,0.000000,0.000000,0.000000,0.000000,1.335551,0.395156,0.538507,-0.856626,-0.056606,0.862755,0.860984
0.254000,-0.500436,-0.497134,0.799253,0.999800,0.004832,-0.016993,0.009327,-0.500000,-0.479465,0.800000,0.999796,0.004867,-0.016969,0.009765,200.000000,100.000000,0.000000,0.028248,0.000000,0.000000,0.000000,0.000000,0.000000,0.000000,1.335493,0.395133,0.538507,-0.856716,-0.056547,0.862699,0.860933
0.255000,-0.500441,-0.497107,0.799247,0.999800,0.004831,-0.016994,0.009324,-0.500000,-0.479465,0.800000,0.999796,0.004867,-0.016969,0.009765,200.000000,100.000000,0.000000,0.028409,0.000000,0.000000,0.000000,0.000000,0.000000,0.000000,1.335435,0.395109,0.538508,-0.856806,-0.056487,0.862643,0.860883
0.256000,-0.500445,-0.497079,0.799240,0.999800,0.004831,-0.016994,0.009321,-0.500000,-0.479465,0.800000,0.999796,0.004867,-0.016969,0.009765,200.000000,100.000000,0.000000,0.028624,0.000000,0.000000,0.000000,0.000000,0.000000,0.000000,1.335376,0.395086,0.538508,-0.856897,-0.056427,0.862586,0.860831
0.257000,-0.500449,-0.497051,0.799234,0.999801,0.004831,-0.016994,0.009317,-0.500000,-0.479465,0.800000,0.999796,0.004867,-0.016969,0.009765,200.000000,100.000000,0.000000,0.028778,0.000000,0.000000,0.000000,0.000000,0.000000,0.000000,1.335317,0.395062,0.538508,-0.856988,-0.056367,0.862529,0.860780
0.258000,-0.500453,-0.497023,0.799227,0.999801,0.004830,-0.016994,0.009314,-0.500000,-0.479465,0.800000,0.999796,0.004867,-0.016969,0.009765,200.000000,100.000000,0.000000,0.028990,0.000000,0.000000,0.000000,0.000000,0.000000,0.000000,1.335258,0.395038,0.538508,-0.857080,-0.056306,0.862472,0.860728
0.259000,-0.500457,-0.496995,0.799220,0.999801,0.004830,-0.016994,0.009311,-0.500000,-0.479465,0.800000,0.999796,0.004867,-0.016969,0.009765,200.000000,100.000000,0.000000,0.029140,0.000000,0.000000,0.000000,0.000000,0.000000,0.000000,1.335198,0.395014,0.538509,-0.857173,-0.056245,0.862414,0.860676
0.260000,-0.500461,-0.496967,0.799213,0.999801,0.004830,-0.016994,0.009307,-0.500000,-0.479465,0.800000,0.999796,0.004867,-0.016969,0.009765,200.000000,100.000000,0.000000,0.029346,0.000000,0.000000,0.000000,0.000000,0.000000,0.000000,1.335138,0.394990,0.538509,-0.857266,-0.056184,0.862356,0.860623
0.261000,-0.500466,-0.496939,0.799207,0.999801,0.004829,-0.016994,0.009304,-0.500000,-0.479465,0.800000,0.999796,0.004867,-0.016969,0.009765,200.000000,100.000000,0.000000,0.029492,0.000000,0.000000,0.000000,0.000000,0.000000,0.000000,1.335077,0.394965,0.538510,-0.857360,-0.056122,0.862298,0.860571
0.262000,-0.500470,-0.496910,0.799200,0.999801,0.004829,-0.016994,0.009301,-0.500000,-0.479465,0.800000,0.999796,0.004867,-0.016969,0.009765,200.000000,100.000000,0.000000,0.029695,0.000000,0.000000,0.000000,0.000000,0.000000,0.000000,1.335016,0.394941,0.538510,-0.857454,-0.056059,0.862239,0.860518
0.263000,-0.500474,-0.496882,0.799193,0.999801,0.004829,-0.016994,0.009297,-0.500000,-0.478340,0.800000,0.999796,0.004867,-0.016969,0.009765,200.000000,100.000000,0.000000,0.029837,0.000000,0.000000,0.000000,0.000000,0.000000,0.000000,1.334954,0.394916,0.538511,-0.857549,-0.055997,0.862180,0.860464
0.264000,-0.500479,-0.496853,0.799186,0.999801,0.004828,-0.016995,0.009294,-0.500000,-0.478340,0.800000,0.999796,0.004867,-0.016969,0.009765,200.000000,100.000000,0.000000,0.030053,0.000000,0.000000,0.000000,0.000000,0.000000,0.000000,1.334892,0.394891,0.538512,-0.857645,-0.055934,0.862120,0.860410
0.265000,-0.500483,-0.496823,0.799179,0.999801,0.004828,-0.016995,0.009290,-0.500000,-0.478340,0.800000,0.999796,0.004867,-0.016969,0.009765,200.000000,100.000000,0.000000,0.030221,0.000000,0.000000,0.000000,0.000000,0.000000,0.000000,1.334829,0.394866,0.538513,-0.857741,-0.055870,0.862060,0.860356
0.266000,-0.500487,-0.496794,0.799172,0.999801,0.004828,-0.016995,0.009287,-0.500000,-0.478340,0.800000,0.999796,0.004867,-0.016969,0.009765,200.000000,100.000000,0.000000,0.030444,0.000000,0.000000,0.000000,0.000000,0.000000,0.000000,1.334767,0.394841,0.538513,-0.857838,-0.055806,0.862000,0.860301
0.267000,-0.500492,-0.496765,0.799165,0.999801,0.004827,-0.016995,0.009284,-0.500000,-0.478340,0.800000,0.999796,0.004867,-0.016969,0.009765,200.000000,100.000000,0.000000,0.030604,0.000000,0.000000,0.000000,0.000000,0.000000,0.000000,1.334703,0.394816,0.538514,-0.857935,-0.055742,0.861939,0.860247
0.268000,-0.500496,-0.496735,0.799158,0.999801,0.004827,-0.016995,0.009280,-0.500000,-0.478340,0.800000,0.999796,0.004867,-0.016969,0.009765,200.000000,100.000000,0.000000,0.030820,0.000000,0.000000,0.000000,0.000000,0.000000,0.000000,1.334640,0.394790,0.538515,-0.858033,-0.055677,0.861878,0.860191
0.269000,-0.500501,-0.496705,0.799151,0.999801,0.004827,-0.016995,0.009277,-0.500000,-0.478340,0.800000,0.999796,0.004867,-0.016969,0.009765,200.000000,100.000000,0.000000,0.030976,0.000000,0.000000,0.000000,0.000000,0.000000,0.000000,1.334575,0.394765,0.538516,-0.858132,-0.055612,0.861817,0.860136
0.270000,-0.500505,-0.496675,0.799144,0.999801,0.004826,-0.016995,0.009273,-0.500000,-0.478340,0.800000,0.999796,0.004867,-0.016969,0.009765,200.000000,100.000000,0.000000,0.031188,0.000000,0.000000,0.000000,0.000000,0.000000,0.000000,1.334511,0.394739,0.538517,-0.858231,-0.055547,0.861755,0.860080
0.271000,-0.500510,-0.496645,0.799137,0.999801,0.004826,-0.016995,0.009270,-0.500000,-0.478340,0.800000,0.999796,0.004867,-0.016969,0.009765,200.000000,100.000000,0.000000,0.031339,0.000000,0.000000,0.000000,0.000000,0.000000,0.000000,1.334446,0.394713,0.538518,-0.858331,-0.055481,0.861692,0.860024
0.272000,-0.500514,-0.496615,0.799130,0.999801,0.004825,-0.016995,0.009266,-0.500000,-0.477185,0.800000,0.999796,0.004867,-0.016969,0.009765,200.000000,100.000000,0.000000,0.031547,0.000000,0.000000,0.000000,0.000000,0.000000,0.000000,1.334380,0.394687,0.538519,-0.858431,-0.055415,0.861630,0.859967
0.273000,-0.500519,-0.496584,0.799123,0.999801,0.004825,-0.016996,0.009263,-0.500000,-0.477185,0.800000,0.999796,0.004867,-0.016969,0.009765,200.000000,100.000000,0.000000,0.031712,0.000000,0.000000,0.000000,0.000000,0.000000,0.000000,1.334314,0.394660,0.538521,-0.858532,-0.055348,0.861567,0.859910
0.274000,-0.500523,-0.496553,0.799115,0.999801,0.004825,-0.016996,0.009259,-0.500000,-0.477185,0.800000,0.999796,0.004867,-0.016969,0.009765,200.000000,100.000000,0.000000,0.031946,0.000000,0.000000,0.000000,0.000000,0.000000,0.000000,1.334248,0.394634,0.538522,-0.858634,-0.055281,0.861503,0.859853
0.275000,-0.500528,-0.496522,0.799108,0.999801,0.004824,-0.016996,0.009256,-0.500000,-0.477185,0.800000,0.999796,0.004867,-0.016969,0.009765,200.000000,100.000000,0.000000,0.032118,0.000000,0.000000,0.000000,0.000000,0.000000,0.000000,1.334181,0.394607,0.538524,-0.858736,-0.055214,0.861440,0.859795
0.276000,-0.500533,-0.496491,0.799101,0.999801,0.004824,-0.016996,0.009252,-0.500000,-0.477185,0.800000,0.999796,0.004867,-0.016969,0.009765,200.000000,100.000000,0.000000,0.032345,0.000000,0.000000,0.000000,0.000000,0.000000,0.000000,1.334114,0.394580,0.538525,-0.858839,-0.055146,0.861375,0.859737
0.277000,-0.500537,-0.496460,0.799094,0.999801,0.004824,-0.016996,0.009249,-0.500000,-0.477185,0.800000,0.999796,0.004867,-0.016969,0.009765,200.000000,100.000000,0.000000,0.032510,0.000000,0.000000,0.000000,0.000000,0.000000,0.000000,1.334046,0.394553,0.538527,-0.858943,-0.055078,0.861311,0.859678
0.278000,-0.500542,-0.496428,0.799086,0.999801,0.004823,-0.016996,0.009245,-0.500000,-0.477185,0.800000,0.999796,0.004867,-0.016969,0.009765,200.000000,100.000000,0.000000,0.032731,0.000000,0.000000,0.000000,0.000000,0.000000,0.000000,1.333978,0.394526,0.538528,-0.859047,-0.055009,0.861246,0.859620
0.279000,-0.500547,-0.496397,0.799079,0.999801,0.004823,-0.016996,0.009242,-0.500000,-0.477185,0.800000,0.999796,0.004867,-0.016969,0.009765,200.000000,100.000000,0.000000,0.032892,0.000000,0.000000,0.000000,0.000000,0.000000,0.000000,1.333910,0.394499,0.538530,-0.859152,-0.054940,0.861181,0.859560
0.280000,-0.500552,-0.496365,0.799071,0.999801,0.004823,-0.016996,0.009238,-0.500000,-0.477185,0.800000,0.999796,0.004867,-0.016969,0.009765,200.000000,100.000000,0.000000,0.033109,0.000000,0.000000,0.000000,0.000000,0.000000,0.000000,1.333841,0.394471,0.538531,-0.859258,-0.054871,0.861115,0.859501
0.280000,-0.500556,-0.496333,0.799064,0.999801,0.004822,-0.016996,0.009234,-0.500000,-0.477185,0.800000,0.999796,0.004867,-0.016969,0.009765,200.000000,100.000000,0.000000,0.033265,0.000000,0.000000,0.000000,0.000000,0.000000,0.000000,1.333771,0.394444,0.538533,-0.859364,-0.054801,0.861049,0.859441
0.282000,-0.500561,-0.496300,0.799056,0.999801,0.004822,-0.016997,0.009231,-0.500000,-0.477185,0.800000,0.999796,0.004867,-0.016969,0.009765,200.000000,100.000000,0.000000,0.033478,0.000000,0.000000,0.000000,0.000000,0.000000,0.000000,1.333701,0.394416,0.538535,-0.859470,-0.054730,0.860982,0.859381
0.283000,-0.500566,-0.496268,0.799049,0.999801,0.004821,-0.016997,0.009227,-0.500000,-0.476000,0.800000,0.999796,0.004867,-0.016969,0.009765,200.000000,100.000000,0.000000,0.033630,0.000000,0.000000,0.000000,0.000000,0.000000,0.000000,1.333631,0.394388,0.538537,-0.859578,-0.054660,0.860915,0.859320
0.283000,-0.500571,-0.496235,0.799041,0.999801,0.004821,-0.016997,0.009223,-0.500000,-0.476000,0.800000,0.999796,0.004867,-0.016969,0.009765,200.000000,100.000000,0.000000,0.033856,0.000000,0.000000,0.000000,0.000000,0.000000,0.000000,1.333560,0.394360,0.538539,-0.859686,-0.054589,0.860848,0.859259
0.285000,-0.500576,-0.496203,0.799034,0.999801,0.004821,-0.016997,0.009220,-0.500000,-0.476000,0.800000,0.999796,0.004867,-0.016969,0.009765,200.000000,100.000000,0.000000,0.034035,0.000000,0.000000,0.000000,0.000000,0.000000,0.000000,1.333489,0.394331,0.538541,-0.859794,-0.054517,0.860780,0.859198
0.286000,-0.500581,-0.496170,0.799026,0.999801,0.004820,-0.016997,0.009216,-0.500000,-0.476000,0.800000,0.999796,0.004867,-0.016969,0.009765,200.000000,100.000000,0.000000,0.034269,0.000000,0.000000,0.000000,0.000000,0.000000,0.000000,1.333417,0.394303,0.538543,-0.859904,-0.054445,0.860712,0.859136
0.287000,-0.500586,-0.496136,0.799018,0.999801,0.004820,-0.016997,0.009212,-0.500000,-0.476000,0.800000,0.999796,0.004867,-0.016969,0.009765,200.000000,100.000000,0.000000,0.034440,0.000000,0.000000,0.000000,0.000000,0.000000,0.000000,1.333345,0.394274,0.538546,-0.860014,-0.054373,0.860643,0.859074
0.288000,-0.500591,-0.496103,0.799011,0.999802,0.004819,-0.016997,0.009209,-0.500000,-0.476000,0.800000,0.999796,0.004867,-0.016969,0.009765,200.000000,100.000000,0.000000,0.034666,0.000000,0.000000,0.000000,0.000000,0.000000,0.000000,1.333272,0.394245,0.538548,-0.860124,-0.054300,0.860575,0.859012
0.289000,-0.500596,-0.496069,0.799003,0.999802,0.004819,-0.016997,0.009205,-0.500000,-0.476000,0.800000,0.999796,0.004867,-0.016969,0.009765,200.000000,100.000000,0.000000,0.034832,0.000000,0.000000,0.000000,0.000000,0.000000,0.000000,1.333199,0.394216,0.538550,-0.860236,-0.054227,0.860505,0.858949
0.290000,-0.500601,-0.496035,0.798995,0.999802,0.004819,-0.016997,0.009201,-0.500000,-0.476000,0.800000,0.999796,0.004867,-0.016969,0.009765,200.000000,100.000000,0.000000,0.035055,0.000000,0.000000,0.000000,0.000000,0.000000,0.000000,1.333126,0.394187,0.538553,-0.860348,-0.054154,0.860436,0.858886
0.291000,-0.500606,-0.496002,0.798987,0.999802,0.004818,-0.016998,0.009198,-0.500000,-0.476000,0.800000,0.999796,0.004867,-0.016969,0.009765,200.000000,100.000000,0.000000,0.035216,0.000000,0.000000,0.000000,0.000000,0.000000,0.000000,1.333052,0.394157,0.538555,-0.860460,-0.054080,0.860365,0.858822
0.292000,-0.500611,-0.495967,0.798979,0.999802,0.004818,-0.016998,0.009194,-0.500000,-0.474785,0.800000,0.999796,0.004867,-0.016969,0.009765,200.000000,100.000000,0.000000,0.035433,0.000000,0.000000,0.000000,0.000000,0.000000,0.000000,1.332977,0.394128,0.538558,-0.860573,-0.054006,0.860295,0.858758
0.293000,-0.500616,-0.495933,0.798971,0.999802,0.004817,-0.016998,0.009190,-0.500000,-0.474785,0.800000,0.999796,0.004867,-0.016969,0.009765,200.000000,100.000000,0.000000,0.035609,0.000000,0.000000,0.000000,0.000000,0.000000,0.000000,1.332902,0.394098,0.538560,-0.860687,-0.053931,0.860224,0.858694
0.293000,-0.500621,-0.495898,0.798964,0.999802,0.004817,-0.016998,0.009186,-0.500000,-0.474785,0.800000,0.999796,0.004867,-0.016969,0.009765,200.000000,100.000000,0.000000,0.035854,0.000000,0.000000,0.000000,0.000000,0.000000,0.000000,1.332827,0.394068,0.538563,-0.860802,-0.053855,0.860153,0.858629
0.295000,-0.500626,-0.495864,0.798956,0.999802,0.004817,-0.016998,0.009183,-0.500000,-0.474785,0.800000,0.999796,0.004867,-0.016969,0.009765,200.000000,100.000000,0.000000,0.036037,0.000000,0.000000,0.000000,0.000000,0.000000,0.000000,1.332751,0.394038,0.538566,-0.860917,-0.053780,0.860081,0.858564
0.296000,-0.500631,-0.495829,0.798948,0.999802,0.004816,-0.016998,0.009179,-0.500000,-0.474785,0.800000,0.999796,0.004867,-0.016969,0.009765,200.000000,100.000000,0.000000,0.036274,0.000000,0.000000,0.000000,0.000000,0.000000,0.000000,1.332675,0.394008,0.538569,-0.861033,-0.053704,0.860009,0.858499
0.297000,-0.500637,-0.495793,0.798940,0.999802,0.004816,-0.016998,0.009175,-0.500000,-0.474785,0.800000,0.999796,0.004867,-0.016969,0.009765,200.000000,100.000000,0.000000,0.036450,0.000000,0.000000,0.000000,0.000000,0.000000,0.000000,1.332598,0.393977,0.538572,-0.861149,-0.053627,0.859936,0.858433
0.298000,-0.500642,-0.495758,0.798931,0.999802,0.004815,-0.016998,0.009171,-0.500000,-0.474785,0.800000,0.999796,0.004867,-0.016969,0.009765,200.000000,100.000000,0.000000,0.036681,0.000000,0.000000,0.000000,0.000000,0.000000,0.000000,1.332520,0.393947,0.538575,-0.861267,-0.053550,0.859863,0.858366
0.299000,-0.500647,-0.495723,0.798923,0.999802,0.004815,-0.016998,0.009167,-0.500000,-0.474785,0.800000,0.999796,0.004867,-0.016969,0.009765,200.000000,100.000000,0.000000,0.036852,0.000000,0.000000,0.000000,0.000000,0.000000,0.000000,1.332442,0.393916,0.538578,-0.861385,-0.053473,0.859789,0.858300
0.300000,-0.500652,-0.495687,0.798915,0.999802,0.004815,-0.016998,0.009164,-0.500000,-0.474785,0.800000,0.999796,0.004867,-0.016969,0.009765,200.000000,100.000000,0.000000,0.037079,0.000000,0.000000,0.000000,0.000000,0.000000,0.000000,1.332364,0.393885,0.538581,-0.861503,-0.053395,0.859716,0.858233
0.301000,-0.500658,-0.495651,0.798907,0.999802,0.004814,-0.016999,0.009160,-0.500000,-0.474785,0.800000,0.999796,0.004867,-0.016969,0.009765,200.000000,100.000000,0.000000,0.037245,0.000000,0.000000,0.000000,0.000000,0.000000,0.000000,1.332286,0.393854,0.538585,-0.861622,-0.053317,0.859641,0.858165
0.302000,-0.500663,-0.495615,0.798899,0.999802,0.004814,-0.016999,0.009156,-0.500000,-0.473540,0.800000,0.999796,0.004867,-0.016969,0.009765,200.000000,100.000000,0.000000,0.037467,0.000000,0.000000,0.000000,0.000000,0.000000,0.000000,1.332206,0.393822,0.538588,-0.861742,-0.053238,0.859567,0.858098
0.303000,-0.500668,-0.495578,0.798891,0.999802,0.004813,-0.016999,0.009152,-0.500000,-0.473540,0.800000,0.999796,0.004867,-0.016969,0.009765,200.000000,100.000000,0.000000,0.037648,0.000000,0.000000,0.000000,0.000000,0.000000,0.000000,1.332127,0.393791,0.538592,-0.861863,-0.053159,0.859492,0.858030
0.304000,-0.500674,-0.495542,0.798882,0.999802,0.004813,-0.016999,0.009148,-0.500000,-0.473540,0.800000,0.999796,0.004867,-0.016969,0.009765,200.000000,100.000000,0.000000,0.037898,0.000000,0.000000,0.000000,0.000000,0.000000,0.000000,1.332046,0.393759,0.538595,-0.861984,-0.053080,0.859416,0.857961
0.305000,-0.500679,-0.495505,0.798874,0.999802,0.004812,-0.016999,0.009144,-0.500000,-0.473540,0.800000,0.999796,0.004867,-0.016969,0.009765,200.000000,100.000000,0.000000,0.038086,0.000000,0.000000,0.000000,0.000000,0.000000,0.000000,1.331966,0.393727,0.538599,-0.862106,-0.053000,0.859340,0.857892
0.306000,-0.500685,-0.495468,0.798866,0.999802,0.004812,-0.016999,0.009140,-0.500000,-0.473540,0.800000,0.999796,0.004867,-0.016969,0.009765,200.000000,100.000000,0.000000,0.038328,0.000000,0.000000,0.000000,0.000000,0.000000,0.000000,1.331885,0.393695,0.538602,-0.862228,-0.052920,0.859264,0.857823
0.307000,-0.500690,-0.495431,0.798857,0.999802,0.004812,-0.016999,0.009136,-0.500000,-0.473540,0.800000,0.999796,0.004867,-0.016969,0.009765,200.000000,100.000000,0.000000,0.038509,0.000000,0.000000,0.000000,0.000000,0.000000,0.000000,1.331803,0.393663,0.538606,-0.862352,-0.052839,0.859187,0.857753
0.308000,-0.500696,-0.495393,0.798849,0.999802,0.004811,-0.016999,0.009132,-0.500000,-0.473540,0.800000,0.999796,0.004867,-0.016969,0.009765,200.000000,100.000000,0.000000,0.038744,0.000000,0.000000,0.000000,0.000000,0.000000,0.000000,1.331721,0.393630,0.538610,-0.862476,-0.052757,0.859110,0.857683
0.309000,-0.500701,-0.495356,0.798840,0.999802,0.004811,-0.016999,0.009129,-0.500000,-0.473540,0.800000,0.999796,0.004867,-0.016969,0.009765,200.000000,100.000000,0.000000,0.038920,0.000000,0.000000,0.000000,0.000000,0.000000,0.000000,1.331638,0.393597,0.538614,-0.862601,-0.052676,0.859032,0.857612
0.310000,-0.500707,-0.495318,0.798832,0.999802,0.004810,-0.016999,0.009125,-0.500000,-0.473540,0.800000,0.999796,0.004867,-0.016969,0.009765,200.000000,100.000000,0.000000,0.039152,0.000000,0.000000,0.000000,0.000000,0.000000,0.000000,1.331555,0.393565,0.538618,-0.862726,-0.052594,0.858954,0.857541
0.311000,-0.500712,-0.495280,0.798823,0.999802,0.004810,-0.017000,0.009121,-0.500000,-0.473540,0.800000,0.999796,0.004867,-0.016969,0.009765,200.000000,100.000000,0.000000,0.039323,0.000000,0.000000,0.000000,0.000000,0.000000,0.000000,1.331471,0.393532,0.538622,-0.862852,-0.052511,0.858876,0.857470
0.312000,-0.500718,-0.495242,0.798815,0.999802,0.004809,-0.017000,0.009117,-0.500000,-0.472265,0.800000,0.999796,0.004867,-0.016969,0.009765,200.000000,100.000000,0.000000,0.039549,0.000000,0.000000,0.000000,0.000000,0.000000,0.000000,1.331387,0.393498,0.538626,-0.862979,-0.052428,0.858797,0.857398
0.313000,-0.500724,-0.495203,0.798806,0.999802,0.004809,-0.017000,0.009113,-0.500000,-0.472265,0.800000,0.999796,0.004867,-0.016969,0.009765,200.000000,100.000000,0.000000,0.039734,0.000000,0.000000,0.000000,0.000000,0.000000,0.000000,1.331302,0.393465,0.538631,-0.863106,-0.052345,0.858717,0.857326
0.314000,-0.500729,-0.495165,0.798797,0.999802,0.004808,-0.017000,0.009109,-0.500000,-0.472265,0.800000,0.999796,0.004867,-0.016969,0.009765,200.000000,100.000000,0.000000,0.039990,0.000000,0.000000,0.000000,0.000000,0.000000,0.000000,1.331217,0.393431,0.538635,-0.863234,-0.052261,0.858638,0.857254
0.315000,-0.500735,-0.495126,0.798789,0.999802,0.004808,-0.017000,0.009105,-0.500000,-0.472265,0.800000,0.999796,0.004867,-0.016969,0.009765,200.000000,100.000000,0.000000,0.040184,0.000000,0.000000,0.000000,0.000000,0.000000,0.000000,1.331132,0.393397,0.538640,-0.863363,-0.052177,0.858557,0.857181
0.316000,-0.500741,-0.495087,0.798780,0.999803,0.004808,-0.017000,0.009101,-0.500000,-0.472265,0.800000,0.999796,0.004867,-0.016969,0.009765,200.000000,100.000000,0.000000,0.040429,0.000000,0.000000,0.000000,0.000000,0.000000,0.000000,1.331046,0.393364,0.538644,-0.863493,-0.052092,0.858477,0.857107
0.317000,-0.500746,-0.495048,0.798771,0.999803,0.004807,-0.017000,0.009096,-0.500000,-0.472265,0.800000,0.999796,0.004867,-0.016969,0.009765,200.000000,100.000000,0.000000,0.040615,0.000000,0.000000,0.000000,0.000000,0.000000,0.000000,1.330959,0.393329,0.538649,-0.863623,-0.052006,0.858396,0.857033
0.318000,-0.500752,-0.495008,0.798762,0.999803,0.004807,-0.017000,0.009092,-0.500000,-0.472265,0.800000,0.999796,0.004867,-0.016969,0.009765,200.000000,100.000000,0.000000,0.040856,0.000000,0.000000,0.000000,0.000000,0.000000,0.000000,1.330872,0.393295,0.538654,-0.863754,-0.051921,0.858314,0.856959
0.318000,-0.500758,-0.494969,0.798754,0.999803,0.004806,-0.017000,0.009088,-0.500000,-0.472265,0.800000,0.999796,0.004867,-0.016969,0.009765,200.000000,100.000000,0.000000,0.041037,0.000000,0.000000,0.000000,0.000000,0.000000,0.000000,1.330784,0.393260,0.538659,-0.863886,-0.051835,0.858232,0.856885
0.320000,-0.500764,-0.494929,0.798745,0.999803,0.004806,-0.017000,0.009084,-0.500000,-0.472265,0.800000,0.999796,0.004867,-0.016969,0.009765,200.000000,100.000000,0.000000,0.041272,0.000000,0.000000,0.000000,0.000000,0.000000,0.000000,1.330696,0.393226,0.538663,-0.864018,-0.051748,0.858150,0.856810
0.320000,-0.500770,-0.494889,0.798736,0.999803,0.004805,-0.017000,0.009080,-0.500000,-0.472265,0.800000,0.999796,0.004867,-0.016969,0.009765,200.000000,100.000000,0.000000,0.041448,0.000000,0.000000,0.000000,0.000000,0.000000,0.000000,1.330607,0.393191,0.538669,-0.864151,-0.051661,0.858067,0.856734
0.322000,-0.500776,-0.494848,0.798727,0.999803,0.004805,-0.017001,0.009076,-0.500000,-0.472265,0.800000,0.999796,0.004867,-0.016969,0.009765,200.000000,100.000000,0.000000,0.041678,0.000000,0.000000,0.000000,0.000000,0.000000,0.000000,1.330518,0.393156,0.538674,-0.864284,-0.051574,0.857984,0.856659
0.323000,-0.500782,-0.494808,0.798718,0.999803,0.004804,-0.017001,0.009072,-0.500000,-0.470960,0.800000,0.999796,0.004867,-0.016969,0.009765,200.000000,100.000000,0.000000,0.041849,0.000000,0.000000,0.000000,0.000000,0.000000,0.000000,1.330429,0.393120,0.538679,-0.864419,-0.051486,0.857900,0.856582
0.324000,-0.500788,-0.494767,0.798709,0.999803,0.004804,-0.017001,0.009068,-0.500000,-0.470960,0.800000,0.999796,0.004867,-0.016969,0.009765,200.000000,100.000000,0.000000,0.042095,0.000000,0.000000,0.000000,0.000000,0.000000,0.000000,1.330338,0.393085,0.538684,-0.864554,-0.051398,0.857816,0.856506
0.325000,-0.500794,-0.494726,0.798700,0.999803,0.004803,-0.017001,0.009064,-0.500000,-0.470960,0.800000,0.999796,0.004867,-0.016969,0.009765,200.000000,100.000000,0.000000,0.042296,0.000000,0.000000,0.000000,0.000000,0.000000,0.000000,1.330248,0.393049,0.538690,-0.864690,-0.051309,0.857732,0.856429
0.325000,-0.500800,-0.494685,0.798691,0.999803,0.004803,-0.017001,0.009060,-0.500000,-0.470960,0.800000,0.999796,0.004867,-0.016969,0.009765,200.000000,100.000000,0.000000,0.042549,0.000000,0.000000,0.000000,0.000000,0.000000,0.000000,1.330157,0.393013,0.538695,-0.864826,-0.051220,0.857647,0.856351
0.325000,-0.500806,-0.494644,0.798682,0.999803,0.004802,-0.017001,0.009055,-0.500000,-0.470960,0.800000,0.999796,0.004867,-0.016969,0.009765,200.000000,100.000000,0.000000,0.042740,0.000000,0.000000,0.000000,0.000000,0.000000,0.000000,1.330065,0.392977,0.538701,-0.864964,-0.051130,0.857561,0.856274
0.328000,-0.500812,-0.494602,0.798673,0.999803,0.004802,-0.017001,0.009051,-0.500000,-0.470960,0.800000,0.999796,0.004867,-0.016969,0.009765,200.000000,100.000000,0.000000,0.042985,0.000000,0.000000,0.000000,0.000000,0.000000,0.000000,1.329973,0.392941,0.538707,-0.865102,-0.051040,0.857475,0.856195
0.329000,-0.500818,-0.494561,0.798664,0.999803,0.004801,-0.017001,0.009047,-0.500000,-0.470960,0.800000,0.999796,0.004867,-0.016969,0.009765,200.000000,100.000000,0.000000,0.043171,0.000000,0.000000,0.000000,0.000000,0.000000,0.000000,1.329880,0.392904,0.538713,-0.865240,-0.050949,0.857389,0.856117
0.330000,-0.500824,-0.494519,0.798654,0.999803,0.004801,-0.017001,0.009043,-0.500000,-0.470960,0.800000,0.999796,0.004867,-0.016969,0.009765,200.000000,100.000000,0.000000,0.043411,0.000000,0.000000,0.000000,0.000000,0.000000,0.000000,1.329787,0.392868,0.538719,-0.865380,-0.050858,0.857302,0.856038
0.331000,-0.500830,-0.494476,0.798645,0.999803,0.004800,-0.017001,0.009039,-0.500000,-0.470960,0.800000,0.999796,0.004867,-0.016969,0.009765,200.000000,100.000000,0.000000,0.043592,0.000000,0.000000,0.000000,0.000000,0.000000,0.000000,1.329693,0.392831,0.538725,-0.865520,-0.050767,0.857215,0.855958
