matthias-mayr/cartesian_trajectory_generator/generated_logs/publish_rate1000.txt
time,position_x,position_y,position_z,orientation_x,orientation_y,orientation_z,orientation_w,position_d_x,position_d_y,position_d_z,orientation_d_x,orientation_d_y,orientation_d_z,orientation_d_w,translational_stiffness,rotational_stiffness,nullspace_stiffness,velocity,f_x,f_y,f_z,tau_x,tau_x,tau_z,joint1,joint2,joint3,joint4,joint5,joint6,joint7
0.000000,-0.499758,-0.499771,0.800232,0.999924,0.004774,-0.011344,0.001042,-0.500000,-0.500000,0.800000,0.999924,0.004776,-0.011320,0.001026,200.000000,100.000000,0.000000,0.001301,0.000000,0.000000,0.000000,0.000000,0.000000,0.000000,1.598439,0.372113,0.078609,-0.834427,0.233944,0.904938,0.743503
0.001000,-0.499758,-0.499771,0.800231,0.999924,0.004774,-0.011344,0.001042,-0.500000,-0.500000,0.800000,0.999924,0.004776,-0.011320,0.001026,200.000000,100.000000,0.000000,0.001247,0.000000,0.000000,0.000000,0.000000,0.000000,0.000000,1.598440,0.372117,0.078609,-0.834421,0.233944,0.904939,0.743503
0.002000,-0.499759,-0.499772,0.800229,0.999924,0.004774,-0.011343,0.001042,-0.500000,-0.500000,0.800000,0.999924,0.004776,-0.011320,0.001026,200.000000,100.000000,0.000000,0.001300,0.000000,0.000000,0.000000,0.000000,0.000000,0.000000,1.598440,0.372121,0.078608,-0.834415,0.233943,0.904940,0.743504
0.003000,-0.499759,-0.499772,0.800228,0.999924,0.004774,-0.011343,0.001042,-0.500000,-0.500000,0.800000,0.999924,0.004776,-0.011320,0.001026,200.000000,100.000000,0.000000,0.001246,0.000000,0.000000,0.000000,0.000000,0.000000,0.000000,1.598441,0.372125,0.078608,-0.834410,0.233943,0.904942,0.743504
0.004000,-0.499760,-0.499772,0.800227,0.999924,0.004774,-0.011343,0.001042,-0.500000,-0.500000,0.800000,0.999924,0.004776,-0.011320,0.001026,200.000000,100.000000,0.000000,0.001300,0.000000,0.000000,0.000000,0.000000,0.000000,0.000000,1.598442,0.372129,0.078608,-0.834404,0.233943,0.904943,0.743505
0.005000,-0.499761,-0.499773,0.800226,0.999924,0.004774,-0.011343,0.001042,-0.500000,-0.500000,0.800000,0.999924,0.004776,-0.011320,0.001026,200.000000,100.000000,0.000000,0.001245,0.000000,0.000000,0.000000,0.000000,0.000000,0.000000,1.598442,0.372133,0.078607,-0.834399,0.233942,0.904945,0.743505
0.006000,-0.499761,-0.499773,0.800225,0.999924,0.004774,-0.011343,0.001042,-0.500000,-0.500000,0.800000,0.999924,0.004776,-0.011320,0.001026,200.000000,100.000000,0.000000,0.001298,0.000000,0.000000,0.000000,0.000000,0.000000,0.000000,1.598443,0.372137,0.078607,-0.834393,0.233942,0.904946,0.743505
0.007000,-0.499762,-0.499774,0.800224,0.999924,0.004774,-0.011343,0.001042,-0.500000,-0.500000,0.800000,0.999924,0.004776,-0.011320,0.001026,200.000000,100.000000,0.000000,0.001244,0.000000,0.000000,0.000000,0.000000,0.000000,0.000000,1.598443,0.372141,0.078607,-0.834388,0.233942,0.904948,0.743506
0.008000,-0.499762,-0.499774,0.800223,0.999924,0.004774,-0.011343,0.001042,-0.500000,-0.500000,0.800000,0.999924,0.004776,-0.011320,0.001026,200.000000,100.000000,0.000000,0.001298,0.000000,0.000000,0.000000,0.000000,0.000000,0.000000,1.598444,0.372145,0.078606,-0.834382,0.233941,0.904949,0.743506
0.009000,-0.499763,-0.499774,0.800222,0.999924,0.004774,-0.011343,0.001042,-0.500000,-0.500000,0.800000,0.999924,0.004776,-0.011320,0.001026,200.000000,100.000000,0.000000,0.001244,0.000000,0.000000,0.000000,0.000000,0.000000,0.000000,1.598444,0.372149,0.078606,-0.834377,0.233941,0.904951,0.743507
0.010000,-0.499764,-0.499775,0.800221,0.999924,0.004774,-0.011343,0.001042,-0.500000,-0.500000,0.800000,0.999924,0.004776,-0.011320,0.001026,200.000000,100.000000,0.000000,0.001296,0.000000,0.000000,0.000000,0.000000,0.000000,0.000000,1.598445,0.372153,0.078606,-0.834371,0.233940,0.904952,0.743507
0.011000,-0.499764,-0.499775,0.800220,0.999924,0.004774,-0.011343,0.001042,-0.500000,-0.500000,0.800000,0.999924,0.004776,-0.011320,0.001026,200.000000,100.000000,0.000000,0.001243,0.000000,0.000000,0.000000,0.000000,0.000000,0.000000,1.598445,0.372157,0.078605,-0.834365,0.233940,0.904954,0.743507
0.012000,-0.499765,-0.499775,0.800219,0.999924,0.004774,-0.011343,0.001042,-0.500000,-0.500000,0.800000,0.999924,0.004776,-0.011320,0.001026,200.000000,100.000000,0.000000,0.001295,0.000000,0.000000,0.000000,0.000000,0.000000,0.000000,1.598446,0.372161,0.078605,-0.834360,0.233940,0.904956,0.743508
0.013000,-0.499765,-0.499776,0.800218,0.999924,0.004774,-0.011343,0.001042,-0.500000,-0.500000,0.800000,0.999924,0.004776,-0.011320,0.001026,200.000000,100.000000,0.000000,0.001242,0.000000,0.000000,0.000000,0.000000,0.000000,0.000000,1.598446,0.372165,0.078605,-0.834354,0.233939,0.904957,0.743508
0.014000,-0.499766,-0.499776,0.800217,0.999924,0.004775,-0.011343,0.001042,-0.500000,-0.500000,0.800000,0.999924,0.004776,-0.011320,0.001026,200.000000,100.000000,0.000000,0.001294,0.000000,0.000000,0.000000,0.000000,0.000000,0.000000,1.598447,0.372169,0.078604,-0.834349,0.233939,0.904959,0.743509
0.015000,-0.499767,-0.499777,0.800216,0.999924,0.004775,-0.011343,0.001042,-0.500000,-0.500000,0.800000,0.999924,0.004776,-0.011320,0.001026,200.000000,100.000000,0.000000,0.001240,0.000000,0.000000,0.000000,0.000000,0.000000,0.000000,1.598447,0.372173,0.078604,-0.834343,0.233938,0.904960,0.743509
0.016000,-0.499767,-0.499777,0.800215,0.999924,0.004775,-0.011343,0.001042,-0.500000,-0.500000,0.800000,0.999924,0.004776,-0.011320,0.001026,200.000000,100.000000,0.000000,0.001293,0.000000,0.000000,0.000000,0.000000,0.000000,0.000000,1.598448,0.372177,0.078604,-0.834337,0.233938,0.904962,0.743510
0.017000,-0.499768,-0.499777,0.800214,0.999924,0.004775,-0.011343,0.001042,-0.500000,-0.500000,0.800000,0.999924,0.004776,-0.011320,0.001026,200.000000,100.000000,0.000000,0.001240,0.000000,0.000000,0.000000,0.000000,0.000000,0.000000,1.598449,0.372181,0.078603,-0.834332,0.233938,0.904963,0.743510
0.018000,-0.499768,-0.499778,0.800213,0.999924,0.004775,-0.011343,0.001042,-0.500000,-0.500000,0.800000,0.999924,0.004776,-0.011320,0.001026,200.000000,100.000000,0.000000,0.001292,0.000000,0.000000,0.000000,0.000000,0.000000,0.000000,1.598449,0.372185,0.078603,-0.834326,0.233937,0.904965,0.743511
0.019000,-0.499769,-0.499778,0.800212,0.999924,0.004775,-0.011343,0.001042,-0.500000,-0.500000,0.800000,0.999924,0.004776,-0.011320,0.001026,200.000000,100.000000,0.000000,0.001239,0.000000,0.000000,0.000000,0.000000,0.000000,0.000000,1.598450,0.372189,0.078603,-0.834320,0.233937,0.904966,0.743511
0.020000,-0.499770,-0.499778,0.800210,0.999924,0.004775,-0.011343,0.001042,-0.500000,-0.500000,0.800000,0.999924,0.004776,-0.011320,0.001026,200.000000,100.000000,0.000000,0.001291,0.000000,0.000000,0.000000,0.000000,0.000000,0.000000,1.598450,0.372193,0.078602,-0.834315,0.233936,0.904968,0.743511
0.021000,-0.499770,-0.499779,0.800209,0.999924,0.004775,-0.011343,0.001042,-0.500000,-0.500000,0.800000,0.999924,0.004776,-0.011320,0.001026,200.000000,100.000000,0.000000,0.001237,0.000000,0.000000,0.000000,0.000000,0.000000,0.000000,1.598451,0.372197,0.078602,-0.834309,0.233936,0.904970,0.743512
0.022000,-0.499771,-0.499779,0.800208,0.999924,0.004775,-0.011343,0.001042,-0.500000,-0.500000,0.800000,0.999924,0.004776,-0.011320,0.001026,200.000000,100.000000,0.000000,0.001289,0.000000,0.000000,0.000000,0.000000,0.000000,0.000000,1.598451,0.372201,0.078602,-0.834303,0.233935,0.904971,0.743512
0.023000,-0.499771,-0.499780,0.800207,0.999924,0.004775,-0.011343,0.001042,-0.500000,-0.500000,0.800000,0.999924,0.004776,-0.011320,0.001026,200.000000,100.000000,0.000000,0.001236,0.000000,0.000000,0.000000,0.000000,0.000000,0.000000,1.598452,0.372205,0.078601,-0.834298,0.233935,0.904973,0.743513
0.024000,-0.499772,-0.499780,0.800206,0.999924,0.004775,-0.011343,0.001042,-0.500000,-0.500000,0.800000,0.999924,0.004776,-0.011320,0.001026,200.000000,100.000000,0.000000,0.001289,0.000000,0.000000,0.000000,0.000000,0.000000,0.000000,1.598452,0.372209,0.078601,-0.834292,0.233935,0.904974,0.743513
0.024000,-0.499773,-0.499780,0.800205,0.999924,0.004775,-0.011343,0.001042,-0.500000,-0.500000,0.800000,0.999924,0.004776,-0.011320,0.001026,200.000000,100.000000,0.000000,0.001235,0.000000,0.000000,0.000000,0.000000,0.000000,0.000000,1.598453,0.372213,0.078601,-0.834286,0.233934,0.904976,0.743514
0.026000,-0.499773,-0.499781,0.800204,0.999924,0.004775,-0.011343,0.001042,-0.500000,-0.500000,0.800000,0.999924,0.004776,-0.011320,0.001026,200.000000,100.000000,0.000000,0.001287,0.000000,0.000000,0.000000,0.000000,0.000000,0.000000,1.598453,0.372217,0.078600,-0.834281,0.233934,0.904978,0.743514
0.027000,-0.499774,-0.499781,0.800203,0.999924,0.004775,-0.011343,0.001043,-0.500000,-0.500000,0.800000,0.999924,0.004776,-0.011320,0.001026,200.000000,100.000000,0.000000,0.001234,0.000000,0.000000,0.000000,0.000000,0.000000,0.000000,1.598454,0.372221,0.078600,-0.834275,0.233933,0.904979,0.743515
0.028000,-0.499774,-0.499782,0.800202,0.999924,0.004775,-0.011343,0.001043,-0.500000,-0.500000,0.800000,0.999924,0.004776,-0.011320,0.001026,200.000000,100.000000,0.000000,0.001286,0.000000,0.000000,0.000000,0.000000,0.000000,0.000000,1.598455,0.372225,0.078600,-0.834269,0.233933,0.904981,0.743515
0.029000,-0.499775,-0.499782,0.800201,0.999924,0.004775,-0.011343,0.001043,-0.500000,-0.500000,0.800000,0.999924,0.004776,-0.011320,0.001026,200.000000,100.000000,0.000000,0.001233,0.000000,0.000000,0.000000,0.000000,0.000000,0.000000,1.598455,0.372229,0.078599,-0.834264,0.233932,0.904983,0.743515
0.030000,-0.499776,-0.499782,0.800200,0.999924,0.004775,-0.011343,0.001043,-0.500000,-0.500000,0.800000,0.999924,0.004776,-0.011320,0.001026,200.000000,100.000000,0.000000,0.001284,0.000000,0.000000,0.000000,0.000000,0.000000,0.000000,1.598456,0.372233,0.078599,-0.834258,0.233932,0.904984,0.743516
0.031000,-0.499776,-0.499783,0.800199,0.999924,0.004775,-0.011343,0.001043,-0.500000,-0.500000,0.800000,0.999924,0.004776,-0.011320,0.001026,200.000000,100.000000,0.000000,0.001231,0.000000,0.000000,0.000000,0.000000,0.000000,0.000000,1.598456,0.372237,0.078599,-0.834252,0.233932,0.904986,0.743516
0.032000,-0.499777,-0.499783,0.800198,0.999924,0.004775,-0.011343,0.001043,-0.500000,-0.500000,0.800000,0.999924,0.004776,-0.011320,0.001026,200.000000,100.000000,0.000000,0.001283,0.000000,0.000000,0.000000,0.000000,0.000000,0.000000,1.598457,0.372241,0.078598,-0.834247,0.233931,0.904988,0.743517
0.033000,-0.499778,-0.499783,0.800197,0.999924,0.004775,-0.011343,0.001043,-0.500000,-0.500000,0.800000,0.999924,0.004776,-0.011320,0.001026,200.000000,100.000000,0.000000,0.001230,0.000000,0.000000,0.000000,0.000000,0.000000,0.000000,1.598457,0.372245,0.078598,-0.834241,0.233931,0.904989,0.743517
0.034000,-0.499778,-0.499784,0.800196,0.999924,0.004775,-0.011343,0.001043,-0.500000,-0.500000,0.800000,0.999924,0.004776,-0.011320,0.001026,200.000000,100.000000,0.000000,0.001281,0.000000,0.000000,0.000000,0.000000,0.000000,0.000000,1.598458,0.372249,0.078598,-0.834235,0.233930,0.904991,0.743518
0.035000,-0.499779,-0.499784,0.800195,0.999924,0.004775,-0.011342,0.001043,-0.500000,-0.500000,0.800000,0.999924,0.004776,-0.011320,0.001026,200.000000,100.000000,0.000000,0.001228,0.000000,0.000000,0.000000,0.000000,0.000000,0.000000,1.598458,0.372253,0.078597,-0.834229,0.233930,0.904992,0.743518
0.036000,-0.499779,-0.499785,0.800194,0.999924,0.004775,-0.011342,0.001043,-0.500000,-0.500000,0.800000,0.999924,0.004776,-0.011320,0.001026,200.000000,100.000000,0.000000,0.001280,0.000000,0.000000,0.000000,0.000000,0.000000,0.000000,1.598459,0.372257,0.078597,-0.834224,0.233929,0.904994,0.743519
0.037000,-0.499780,-0.499785,0.800193,0.999924,0.004775,-0.011342,0.001043,-0.500000,-0.500000,0.800000,0.999924,0.004776,-0.011320,0.001026,200.000000,100.000000,0.000000,0.001227,0.000000,0.000000,0.000000,0.000000,0.000000,0.000000,1.598459,0.372261,0.078597,-0.834218,0.233929,0.904996,0.743519
0.038000,-0.499781,-0.499785,0.800192,0.999924,0.004775,-0.011342,0.001043,-0.500000,-0.500000,0.800000,0.999924,0.004776,-0.011320,0.001026,200.000000,100.000000,0.000000,0.001278,0.000000,0.000000,0.000000,0.000000,0.000000,0.000000,1.598460,0.372265,0.078596,-0.834212,0.233928,0.904998,0.743520
0.039000,-0.499781,-0.499786,0.800191,0.999924,0.004775,-0.011342,0.001043,-0.500000,-0.500000,0.800000,0.999924,0.004776,-0.011320,0.001026,200.000000,100.000000,0.000000,0.001225,0.000000,0.000000,0.000000,0.000000,0.000000,0.000000,1.598460,0.372269,0.078596,-0.834207,0.233928,0.904999,0.743520
0.040000,-0.499782,-0.499786,0.800190,0.999924,0.004775,-0.011342,0.001043,-0.500000,-0.500000,0.800000,0.999924,0.004776,-0.011320,0.001026,200.000000,100.000000,0.000000,0.001277,0.000000,0.000000,0.000000,0.000000,0.000000,0.000000,1.598461,0.372273,0.078596,-0.834201,0.233927,0.905001,0.743521
0.041000,-0.499782,-0.499787,0.800189,0.999924,0.004775,-0.011342,0.001043,-0.500000,-0.500000,0.800000,0.999924,0.004776,-0.011320,0.001026,200.000000,100.000000,0.000000,0.001224,0.000000,0.000000,0.000000,0.000000,0.000000,0.000000,1.598461,0.372277,0.078595,-0.834195,0.233927,0.905003,0.743521
0.042000,-0.499783,-0.499787,0.800188,0.999924,0.004775,-0.011342,0.001043,-0.500000,-0.500000,0.800000,0.999924,0.004776,-0.011320,0.001026,200.000000,100.000000,0.000000,0.001275,0.000000,0.000000,0.000000,0.000000,0.000000,0.000000,1.598462,0.372281,0.078595,-0.834189,0.233927,0.905004,0.743522
0.043000,-0.499784,-0.499787,0.800187,0.999924,0.004775,-0.011342,0.001043,-0.500000,-0.500000,0.800000,0.999924,0.004776,-0.011320,0.001026,200.000000,100.000000,0.000000,0.001222,0.000000,0.000000,0.000000,0.000000,0.000000,0.000000,1.598462,0.372285,0.078595,-0.834184,0.233926,0.905006,0.743522
0.044000,-0.499784,-0.499788,0.800186,0.999924,0.004775,-0.011342,0.001043,-0.500000,-0.500000,0.800000,0.999924,0.004776,-0.011320,0.001026,200.000000,100.000000,0.000000,0.001274,0.000000,0.000000,0.000000,0.000000,0.000000,0.000000,1.598463,0.372289,0.078594,-0.834178,0.233926,0.905008,0.743523
0.045000,-0.499785,-0.499788,0.800185,0.999924,0.004775,-0.011342,0.001043,-0.500000,-0.500000,0.800000,0.999924,0.004776,-0.011320,0.001026,200.000000,100.000000,0.000000,0.001221,0.000000,0.000000,0.000000,0.000000,0.000000,0.000000,1.598463,0.372293,0.078594,-0.834172,0.233925,0.905009,0.743523
0.046000,-0.499786,-0.499789,0.800184,0.999924,0.004775,-0.011342,0.001043,-0.500000,-0.500000,0.800000,0.999924,0.004776,-0.011320,0.001026,200.000000,100.000000,0.000000,0.001272,0.000000,0.000000,0.000000,0.000000,0.000000,0.000000,1.598464,0.372297,0.078594,-0.834166,0.233925,0.905011,0.743524
0.047000,-0.499786,-0.499789,0.800183,0.999924,0.004775,-0.011342,0.001043,-0.500000,-0.500000,0.800000,0.999924,0.004776,-0.011320,0.001026,200.000000,100.000000,0.000000,0.001219,0.000000,0.000000,0.000000,0.000000,0.000000,0.000000,1.598464,0.372301,0.078593,-0.834160,0.233924,0.905013,0.743524
0.048000,-0.499787,-0.499790,0.800182,0.999924,0.004775,-0.011342,0.001043,-0.500000,-0.500000,0.800000,0.999924,0.004776,-0.011320,0.001026,200.000000,100.000000,0.000000,0.001270,0.000000,0.000000,0.000000,0.000000,0.000000,0.000000,1.598465,0.372305,0.078593,-0.834155,0.233924,0.905015,0.743525
0.049000,-0.499787,-0.499790,0.800181,0.999924,0.004775,-0.011342,0.001043,-0.500000,-0.500000,0.800000,0.999924,0.004776,-0.011320,0.001026,200.000000,100.000000,0.000000,0.001218,0.000000,0.000000,0.000000,0.000000,0.000000,0.000000,1.598466,0.372309,0.078593,-0.834149,0.233923,0.905016,0.743525
0.050000,-0.499788,-0.499790,0.800180,0.999924,0.004775,-0.011342,0.001043,-0.500000,-0.500000,0.800000,0.999924,0.004776,-0.011320,0.001026,200.000000,100.000000,0.000000,0.001268,0.000000,0.000000,0.000000,0.000000,0.000000,0.000000,1.598466,0.372313,0.078593,-0.834143,0.233923,0.905018,0.743526
0.051000,-0.499789,-0.499791,0.800179,0.999924,0.004775,-0.011342,0.001043,-0.500000,-0.500000,0.800000,0.999924,0.004776,-0.011320,0.001026,200.000000,100.000000,0.000000,0.001216,0.000000,0.000000,0.000000,0.000000,0.000000,0.000000,1.598467,0.372317,0.078592,-0.834137,0.233922,0.905020,0.743526
0.052000,-0.499789,-0.499791,0.800178,0.999924,0.004775,-0.011342,0.001043,-0.500000,-0.500000,0.800000,0.999924,0.004776,-0.011320,0.001026,200.000000,100.000000,0.000000,0.001267,0.000000,0.000000,0.000000,0.000000,0.000000,0.000000,1.598467,0.372321,0.078592,-0.834131,0.233922,0.905022,0.743527
0.053000,-0.499790,-0.499792,0.800177,0.999924,0.004775,-0.011342,0.001043,-0.500000,-0.500000,0.800000,0.999924,0.004776,-0.011320,0.001026,200.000000,100.000000,0.000000,0.001215,0.000000,0.000000,0.000000,0.000000,0.000000,0.000000,1.598468,0.372325,0.078592,-0.834126,0.233921,0.905023,0.743527
0.054000,-0.499790,-0.499792,0.800176,0.999924,0.004775,-0.011342,0.001043,-0.500000,-0.500000,0.800000,0.999924,0.004776,-0.011320,0.001026,200.000000,100.000000,0.000000,0.001264,0.000000,0.000000,0.000000,0.000000,0.000000,0.000000,1.598468,0.372329,0.078591,-0.834120,0.233921,0.905025,0.743528
0.055000,-0.499791,-0.499792,0.800175,0.999924,0.004775,-0.011342,0.001043,-0.500000,-0.500000,0.800000,0.999924,0.004776,-0.011320,0.001026,200.000000,100.000000,0.000000,0.001212,0.000000,0.000000,0.000000,0.000000,0.000000,0.000000,1.598469,0.372333,0.078591,-0.834114,0.233920,0.905027,0.743528
0.056000,-0.499792,-0.499793,0.800174,0.999924,0.004775,-0.011342,0.001043,-0.500000,-0.500000,0.800000,0.999924,0.004776,-0.011320,0.001026,200.000000,100.000000,0.000000,0.001263,0.000000,0.000000,0.000000,0.000000,0.000000,0.000000,1.598469,0.372337,0.078591,-0.834108,0.233920,0.905029,0.743529
0.057000,-0.499792,-0.499793,0.800173,0.999924,0.004775,-0.011342,0.001043,-0.500000,-0.500000,0.800000,0.999924,0.004776,-0.011320,0.001026,200.000000,100.000000,0.000000,0.001211,0.000000,0.000000,0.000000,0.000000,0.000000,0.000000,1.598470,0.372341,0.078590,-0.834103,0.233919,0.905030,0.743529
0.058000,-0.499793,-0.499794,0.800172,0.999924,0.004775,-0.011342,0.001043,-0.500000,-0.500000,0.800000,0.999924,0.004776,-0.011320,0.001026,200.000000,100.000000,0.000000,0.001261,0.000000,0.000000,0.000000,0.000000,0.000000,0.000000,1.598470,0.372345,0.078590,-0.834097,0.233919,0.905032,0.743530
0.059000,-0.499794,-0.499794,0.800171,0.999924,0.004775,-0.011342,0.001043,-0.500000,-0.500000,0.800000,0.999924,0.004776,-0.011320,0.001026,200.000000,100.000000,0.000000,0.001209,0.000000,0.000000,0.000000,0.000000,0.000000,0.000000,1.598471,0.372349,0.078590,-0.834091,0.233918,0.905034,0.743530
0.060000,-0.499794,-0.499795,0.800170,0.999924,0.004775,-0.011342,0.001043,-0.500000,-0.500000,0.800000,0.999924,0.004776,-0.011320,0.001026,200.000000,100.000000,0.000000,0.001259,0.000000,0.000000,0.000000,0.000000,0.000000,0.000000,1.598471,0.372353,0.078590,-0.834085,0.233918,0.905036,0.743531
0.061000,-0.499795,-0.499795,0.800169,0.999924,0.004775,-0.011342,0.001043,-0.500000,-0.500000,0.800000,0.999924,0.004776,-0.011320,0.001026,200.000000,100.000000,0.000000,0.001207,0.000000,0.000000,0.000000,0.000000,0.000000,0.000000,1.598472,0.372357,0.078589,-0.834079,0.233917,0.905037,0.743531
0.062000,-0.499795,-0.499795,0.800168,0.999924,0.004775,-0.011342,0.001043,-0.500000,-0.500000,0.800000,0.999924,0.004776,-0.011320,0.001026,200.000000,100.000000,0.000000,0.001257,0.000000,0.000000,0.000000,0.000000,0.000000,0.000000,1.598472,0.372361,0.078589,-0.834073,0.233917,0.905039,0.743532
0.063000,-0.499796,-0.499796,0.800167,0.999924,0.004775,-0.011341,0.001043,-0.500000,-0.500000,0.800000,0.999924,0.004776,-0.011320,0.001026,200.000000,100.000000,0.000000,0.001205,0.000000,0.000000,0.000000,0.000000,0.000000,0.000000,1.598473,0.372365,0.078589,-0.834068,0.233916,0.905041,0.743532
0.064000,-0.499797,-0.499796,0.800166,0.999924,0.004775,-0.011341,0.001043,-0.500000,-0.500000,0.800000,0.999924,0.004776,-0.011320,0.001026,200.000000,100.000000,0.000000,0.001255,0.000000,0.000000,0.000000,0.000000,0.000000,0.000000,1.598473,0.372369,0.078588,-0.834062,0.233916,0.905043,0.743533
0.065000,-0.499797,-0.499797,0.800165,0.999924,0.004775,-0.011341,0.001043,-0.500000,-0.500000,0.800000,0.999924,0.004776,-0.011320,0.001026,200.000000,100.000000,0.000000,0.001203,0.000000,0.000000,0.000000,0.000000,0.000000,0.000000,1.598474,0.372373,0.078588,-0.834056,0.233915,0.905045,0.743533
0.066000,-0.499798,-0.499797,0.800164,0.999924,0.004775,-0.011341,0.001043,-0.500000,-0.500000,0.800000,0.999924,0.004776,-0.011320,0.001026,200.000000,100.000000,0.000000,0.001253,0.000000,0.000000,0.000000,0.000000,0.000000,0.000000,1.598474,0.372377,0.078588,-0.834050,0.233915,0.905046,0.743534
0.067000,-0.499798,-0.499797,0.800163,0.999924,0.004775,-0.011341,0.001043,-0.500000,-0.500000,0.800000,0.999924,0.004776,-0.011320,0.001026,200.000000,100.000000,0.000000,0.001201,0.000000,0.000000,0.000000,0.000000,0.000000,0.000000,1.598475,0.372381,0.078588,-0.834044,0.233914,0.905048,0.743534
0.068000,-0.499799,-0.499798,0.800162,0.999924,0.004775,-0.011341,0.001043,-0.500000,-0.500000,0.800000,0.999924,0.004776,-0.011320,0.001026,200.000000,100.000000,0.000000,0.001251,0.000000,0.000000,0.000000,0.000000,0.000000,0.000000,1.598475,0.372385,0.078587,-0.834039,0.233914,0.905050,0.743535
0.069000,-0.499800,-0.499798,0.800161,0.999924,0.004775,-0.011341,0.001043,-0.500000,-0.500000,0.800000,0.999924,0.004776,-0.011320,0.001026,200.000000,100.000000,0.000000,0.001200,0.000000,0.000000,0.000000,0.000000,0.000000,0.000000,1.598476,0.372389,0.078587,-0.834033,0.233913,0.905052,0.743535
0.070000,-0.499800,-0.499799,0.800160,0.999924,0.004775,-0.011341,0.001043,-0.500000,-0.500000,0.800000,0.999924,0.004776,-0.011320,0.001026,200.000000,100.000000,0.000000,0.001249,0.000000,0.000000,0.000000,0.000000,0.000000,0.000000,1.598476,0.372393,0.078587,-0.834027,0.233913,0.905054,0.743536
0.071000,-0.499801,-0.499799,0.800159,0.999924,0.004775,-0.011341,0.001043,-0.500000,-0.500000,0.800000,0.999924,0.004776,-0.011320,0.001026,200.000000,100.000000,0.000000,0.001197,0.000000,0.000000,0.000000,0.000000,0.000000,0.000000,1.598477,0.372397,0.078586,-0.834021,0.233912,0.905055,0.743536
0.072000,-0.499802,-0.499800,0.800158,0.999924,0.004775,-0.011341,0.001043,-0.500000,-0.500000,0.800000,0.999924,0.004776,-0.011320,0.001026,200.000000,100.000000,0.000000,0.001247,0.000000,0.000000,0.000000,0.000000,0.000000,0.000000,1.598477,0.372401,0.078586,-0.834015,0.233912,0.905057,0.743537
0.073000,-0.499802,-0.499800,0.800157,0.999924,0.004775,-0.011341,0.001043,-0.500000,-0.500000,0.800000,0.999924,0.004776,-0.011320,0.001026,200.000000,100.000000,0.000000,0.001195,0.000000,0.000000,0.000000,0.000000,0.000000,0.000000,1.598478,0.372405,0.078586,-0.834010,0.233911,0.905059,0.743538
0.074000,-0.499803,-0.499800,0.800156,0.999924,0.004775,-0.011341,0.001043,-0.500000,-0.500000,0.800000,0.999924,0.004776,-0.011320,0.001026,200.000000,100.000000,0.000000,0.001245,0.000000,0.000000,0.000000,0.000000,0.000000,0.000000,1.598478,0.372409,0.078586,-0.834004,0.233911,0.905061,0.743538
0.075000,-0.499803,-0.499801,0.800156,0.999924,0.004775,-0.011341,0.001043,-0.500000,-0.500000,0.800000,0.999924,0.004776,-0.011320,0.001026,200.000000,100.000000,0.000000,0.001193,0.000000,0.000000,0.000000,0.000000,0.000000,0.000000,1.598479,0.372413,0.078585,-0.833998,0.233910,0.905063,0.743539
0.076000,-0.499804,-0.499801,0.800155,0.999924,0.004775,-0.011341,0.001043,-0.500000,-0.500000,0.800000,0.999924,0.004776,-0.011320,0.001026,200.000000,100.000000,0.000000,0.001243,0.000000,0.000000,0.000000,0.000000,0.000000,0.000000,1.598479,0.372417,0.078585,-0.833992,0.233910,0.905065,0.743539
0.077000,-0.499805,-0.499802,0.800154,0.999924,0.004775,-0.011341,0.001043,-0.500000,-0.500000,0.800000,0.999924,0.004776,-0.011320,0.001026,200.000000,100.000000,0.000000,0.001192,0.000000,0.000000,0.000000,0.000000,0.000000,0.000000,1.598480,0.372421,0.078585,-0.833986,0.233909,0.905066,0.743540
0.078000,-0.499805,-0.499802,0.800153,0.999924,0.004775,-0.011341,0.001043,-0.500000,-0.500000,0.800000,0.999924,0.004776,-0.011320,0.001026,200.000000,100.000000,0.000000,0.001240,0.000000,0.000000,0.000000,0.000000,0.000000,0.000000,1.598480,0.372425,0.078585,-0.833980,0.233909,0.905068,0.743540
0.079000,-0.499806,-0.499803,0.800152,0.999924,0.004775,-0.011341,0.001043,-0.500000,-0.500000,0.800000,0.999924,0.004776,-0.011320,0.001026,200.000000,100.000000,0.000000,0.001189,0.000000,0.000000,0.000000,0.000000,0.000000,0.000000,1.598481,0.372429,0.078584,-0.833974,0.233908,0.905070,0.743541
0.080000,-0.499807,-0.499803,0.800151,0.999924,0.004775,-0.011341,0.001043,-0.500000,-0.500000,0.800000,0.999924,0.004776,-0.011320,0.001026,200.000000,100.000000,0.000000,0.001239,0.000000,0.000000,0.000000,0.000000,0.000000,0.000000,1.598481,0.372433,0.078584,-0.833969,0.233908,0.905072,0.743541
0.081000,-0.499807,-0.499804,0.800150,0.999924,0.004775,-0.011341,0.001044,-0.500000,-0.500000,0.800000,0.999924,0.004776,-0.011320,0.001026,200.000000,100.000000,0.000000,0.001187,0.000000,0.000000,0.000000,0.000000,0.000000,0.000000,1.598482,0.372437,0.078584,-0.833963,0.233907,0.905074,0.743542
0.082000,-0.499808,-0.499804,0.800149,0.999924,0.004775,-0.011341,0.001043,-0.500000,-0.500000,0.800000,0.999924,0.004776,-0.011320,0.001026,200.000000,100.000000,0.000000,0.001236,0.000000,0.000000,0.000000,0.000000,0.000000,0.000000,1.598482,0.372441,0.078583,-0.833957,0.233907,0.905076,0.743542
0.083000,-0.499808,-0.499804,0.800148,0.999924,0.004775,-0.011341,0.001044,-0.500000,-0.500000,0.800000,0.999924,0.004776,-0.011320,0.001026,200.000000,100.000000,0.000000,0.001185,0.000000,0.000000,0.000000,0.000000,0.000000,0.000000,1.598483,0.372445,0.078583,-0.833951,0.233906,0.905077,0.743543
0.084000,-0.499809,-0.499805,0.800147,0.999924,0.004775,-0.011341,0.001044,-0.500000,-0.500000,0.800000,0.999924,0.004776,-0.011320,0.001026,200.000000,100.000000,0.000000,0.001234,0.000000,0.000000,0.000000,0.000000,0.000000,0.000000,1.598483,0.372449,0.078583,-0.833945,0.233906,0.905079,0.743544
0.085000,-0.499810,-0.499805,0.800146,0.999924,0.004775,-0.011341,0.001044,-0.500000,-0.500000,0.800000,0.999924,0.004776,-0.011320,0.001026,200.000000,100.000000,0.000000,0.001183,0.000000,0.000000,0.000000,0.000000,0.000000,0.000000,1.598484,0.372453,0.078583,-0.833939,0.233905,0.905081,0.743544
0.086000,-0.499810,-0.499806,0.800145,0.999924,0.004775,-0.011341,0.001044,-0.500000,-0.500000,0.800000,0.999924,0.004776,-0.011320,0.001026,200.000000,100.000000,0.000000,0.001231,0.000000,0.000000,0.000000,0.000000,0.000000,0.000000,1.598484,0.372457,0.078582,-0.833933,0.233905,0.905083,0.743545
0.087000,-0.499811,-0.499806,0.800144,0.999924,0.004775,-0.011341,0.001044,-0.500000,-0.500000,0.800000,0.999924,0.004776,-0.011320,0.001026,200.000000,100.000000,0.000000,0.001180,0.000000,0.000000,0.000000,0.000000,0.000000,0.000000,1.598485,0.372461,0.078582,-0.833928,0.233904,0.905085,0.743545
0.088000,-0.499812,-0.499807,0.800143,0.999924,0.004775,-0.011341,0.001044,-0.500000,-0.500000,0.800000,0.999924,0.004776,-0.011320,0.001026,200.000000,100.000000,0.000000,0.001229,0.000000,0.000000,0.000000,0.000000,0.000000,0.000000,1.598485,0.372465,0.078582,-0.833922,0.233904,0.905087,0.743546
0.089000,-0.499812,-0.499807,0.800142,0.999924,0.004775,-0.011341,0.001044,-0.500000,-0.500000,0.800000,0.999924,0.004776,-0.011320,0.001026,200.000000,100.000000,0.000000,0.001178,0.000000,0.000000,0.000000,0.000000,0.000000,0.000000,1.598486,0.372468,0.078582,-0.833916,0.233903,0.905089,0.743546
0.090000,-0.499813,-0.499807,0.800141,0.999924,0.004775,-0.011340,0.001044,-0.500000,-0.500000,0.800000,0.999924,0.004776,-0.011320,0.001026,200.000000,100.000000,0.000000,0.001227,0.000000,0.000000,0.000000,0.000000,0.000000,0.000000,1.598486,0.372472,0.078581,-0.833910,0.233903,0.905091,0.743547
0.091000,-0.499813,-0.499808,0.800141,0.999924,0.004775,-0.011340,0.001044,-0.500000,-0.500000,0.800000,0.999924,0.004776,-0.011320,0.001026,200.000000,100.000000,0.000000,0.001175,0.000000,0.000000,0.000000,0.000000,0.000000,0.000000,1.598487,0.372476,0.078581,-0.833904,0.233902,0.905093,0.743547
0.092000,-0.499814,-0.499808,0.800140,0.999924,0.004775,-0.011340,0.001044,-0.500000,-0.500000,0.800000,0.999924,0.004776,-0.011320,0.001026,200.000000,100.000000,0.000000,0.001225,0.000000,0.000000,0.000000,0.000000,0.000000,0.000000,1.598487,0.372480,0.078581,-0.833898,0.233901,0.905094,0.743548
0.093000,-0.499815,-0.499809,0.800139,0.999924,0.004775,-0.011340,0.001044,-0.500000,-0.500000,0.800000,0.999924,0.004776,-0.011320,0.001026,200.000000,100.000000,0.000000,0.001174,0.000000,0.000000,0.000000,0.000000,0.000000,0.000000,1.598488,0.372484,0.078581,-0.833893,0.233901,0.905096,0.743549
0.094000,-0.499815,-0.499809,0.800138,0.999924,0.004775,-0.011340,0.001044,-0.500000,-0.500000,0.800000,0.999924,0.004776,-0.011320,0.001026,200.000000,100.000000,0.000000,0.001221,0.000000,0.000000,0.000000,0.000000,0.000000,0.000000,1.598488,0.372488,0.078580,-0.833887,0.233900,0.905098,0.743549
0.095000,-0.499816,-0.499810,0.800137,0.999924,0.004775,-0.011340,0.001044,-0.500000,-0.500000,0.800000,0.999924,0.004776,-0.011320,0.001026,200.000000,100.000000,0.000000,0.001171,0.000000,0.000000,0.000000,0.000000,0.000000,0.000000,1.598489,0.372492,0.078580,-0.833881,0.233900,0.905100,0.743550
0.096000,-0.499817,-0.499810,0.800136,0.999924,0.004775,-0.011340,0.001044,-0.500000,-0.500000,0.800000,0.999924,0.004776,-0.011320,0.001026,200.000000,100.000000,0.000000,0.001220,0.000000,0.000000,0.000000,0.000000,0.000000,0.000000,1.598489,0.372496,0.078580,-0.833875,0.233899,0.905102,0.743550
0.097000,-0.499817,-0.499811,0.800135,0.999924,0.004775,-0.011340,0.001044,-0.500000,-0.500000,0.800000,0.999924,0.004776,-0.011320,0.001026,200.000000,100.000000,0.000000,0.001169,0.000000,0.000000,0.000000,0.000000,0.000000,0.000000,1.598490,0.372500,0.078580,-0.833869,0.233899,0.905104,0.743551
0.098000,-0.499818,-0.499811,0.800134,0.999924,0.004775,-0.011340,0.001044,-0.500000,-0.500000,0.800000,0.999924,0.004776,-0.011320,0.001026,200.000000,100.000000,0.000000,0.001217,0.000000,0.000000,0.000000,0.000000,0.000000,0.000000,1.598490,0.372504,0.078579,-0.833863,0.233898,0.905106,0.743551
0.099000,-0.499818,-0.499811,0.800133,0.999924,0.004775,-0.011340,0.001044,-0.500000,-0.500000,0.800000,0.999924,0.004776,-0.011320,0.001026,200.000000,100.000000,0.000000,0.001166,0.000000,0.000000,0.000000,0.000000,0.000000,0.000000,1.598490,0.372508,0.078579,-0.833858,0.233898,0.905108,0.743552
0.100000,-0.499819,-0.499812,0.800132,0.999924,0.004775,-0.011340,0.001044,-0.500000,-0.500000,0.800000,0.999924,0.004776,-0.011320,0.001026,200.000000,100.000000,0.000000,0.001214,0.000000,0.000000,0.000000,0.000000,0.000000,0.000000,1.598491,0.372512,0.078579,-0.833852,0.233897,0.905110,0.743553
0.101000,-0.499820,-0.499812,0.800131,0.999924,0.004775,-0.011340,0.001044,-0.500000,-0.500000,0.800000,0.999924,0.004776,-0.011320,0.001026,200.000000,100.000000,0.000000,0.001164,0.000000,0.000000,0.000000,0.000000,0.000000,0.000000,1.598491,0.372516,0.078579,-0.833846,0.233897,0.905112,0.743553
0.102000,-0.499820,-0.499813,0.800130,0.999924,0.004775,-0.011340,0.001044,-0.500000,-0.500000,0.800000,0.999924,0.004776,-0.011320,0.001026,200.000000,100.000000,0.000000,0.001212,0.000000,0.000000,0.000000,0.000000,0.000000,0.000000,1.598492,0.372520,0.078578,-0.833840,0.233896,0.905113,0.743554
0.103000,-0.499821,-0.499813,0.800130,0.999924,0.004775,-0.011340,0.001044,-0.500000,-0.500000,0.800000,0.999924,0.004776,-0.011320,0.001026,200.000000,100.000000,0.000000,0.001161,0.000000,0.000000,0.000000,0.000000,0.000000,0.000000,1.598492,0.372523,0.078578,-0.833834,0.233896,0.905115,0.743554
0.104000,-0.499821,-0.499814,0.800129,0.999924,0.004775,-0.011340,0.001044,-0.500000,-0.500000,0.800000,0.999924,0.004776,-0.011320,0.001026,200.000000,100.000000,0.000000,0.001210,0.000000,0.000000,0.000000,0.000000,0.000000,0.000000,1.598493,0.372527,0.078578,-0.833828,0.233895,0.905117,0.743555
0.105000,-0.499822,-0.499814,0.800128,0.999924,0.004775,-0.011340,0.001044,-0.500000,-0.500000,0.800000,0.999924,0.004776,-0.011320,0.001026,200.000000,100.000000,0.000000,0.001159,0.000000,0.000000,0.000000,0.000000,0.000000,0.000000,1.598493,0.372531,0.078578,-0.833822,0.233894,0.905119,0.743555
0.106000,-0.499823,-0.499815,0.800127,0.999924,0.004775,-0.011340,0.001044,-0.500000,-0.500000,0.800000,0.999924,0.004776,-0.011320,0.001026,200.000000,100.000000,0.000000,0.001206,0.000000,0.000000,0.000000,0.000000,0.000000,0.000000,1.598494,0.372535,0.078577,-0.833817,0.233894,0.905121,0.743556
0.107000,-0.499823,-0.499815,0.800126,0.999924,0.004775,-0.011340,0.001044,-0.500000,-0.500000,0.800000,0.999924,0.004776,-0.011320,0.001026,200.000000,100.000000,0.000000,0.001156,0.000000,0.000000,0.000000,0.000000,0.000000,0.000000,1.598494,0.372539,0.078577,-0.833811,0.233893,0.905123,0.743557
0.108000,-0.499824,-0.499816,0.800125,0.999924,0.004775,-0.011340,0.001044,-0.500000,-0.500000,0.800000,0.999924,0.004776,-0.011320,0.001026,200.000000,100.000000,0.000000,0.001204,0.000000,0.000000,0.000000,0.000000,0.000000,0.000000,1.598495,0.372543,0.078577,-0.833805,0.233893,0.905125,0.743557
0.109000,-0.499825,-0.499816,0.800124,0.999924,0.004775,-0.011340,0.001044,-0.500000,-0.500000,0.800000,0.999924,0.004776,-0.011320,0.001026,200.000000,100.000000,0.000000,0.001154,0.000000,0.000000,0.000000,0.000000,0.000000,0.000000,1.598495,0.372547,0.078577,-0.833799,0.233892,0.905127,0.743558
0.110000,-0.499825,-0.499816,0.800123,0.999924,0.004775,-0.011340,0.001044,-0.500000,-0.500000,0.800000,0.999924,0.004776,-0.011320,0.001026,200.000000,100.000000,0.000000,0.001201,0.000000,0.000000,0.000000,0.000000,0.000000,0.000000,1.598496,0.372551,0.078576,-0.833793,0.233892,0.905129,0.743558
0.111000,-0.499826,-0.499817,0.800122,0.999924,0.004775,-0.011340,0.001044,-0.500000,-0.500000,0.800000,0.999924,0.004776,-0.011320,0.001026,200.000000,100.000000,0.000000,0.001151,0.000000,0.000000,0.000000,0.000000,0.000000,0.000000,1.598496,0.372554,0.078576,-0.833787,0.233891,0.905131,0.743559
0.112000,-0.499826,-0.499817,0.800121,0.999924,0.004775,-0.011340,0.001044,-0.500000,-0.500000,0.800000,0.999924,0.004776,-0.011320,0.001026,200.000000,100.000000,0.000000,0.001199,0.000000,0.000000,0.000000,0.000000,0.000000,0.000000,1.598497,0.372558,0.078576,-0.833782,0.233890,0.905133,0.743560
0.113000,-0.499827,-0.499818,0.800121,0.999924,0.004775,-0.011340,0.001044,-0.500000,-0.500000,0.800000,0.999924,0.004776,-0.011320,0.001026,200.000000,100.000000,0.000000,0.001149,0.000000,0.000000,0.000000,0.000000,0.000000,0.000000,1.598497,0.372562,0.078576,-0.833776,0.233890,0.905135,0.743560
0.114000,-0.499828,-0.499818,0.800120,0.999924,0.004775,-0.011339,0.001044,-0.500000,-0.500000,0.800000,0.999924,0.004776,-0.011320,0.001026,200.000000,100.000000,0.000000,0.001196,0.000000,0.000000,0.000000,0.000000,0.000000,0.000000,1.598498,0.372566,0.078576,-0.833770,0.233889,0.905137,0.743561
0.115000,-0.499828,-0.499819,0.800119,0.999924,0.004775,-0.011339,0.001044,-0.500000,-0.500000,0.800000,0.999924,0.004776,-0.011320,0.001026,200.000000,100.000000,0.000000,0.001146,0.000000,0.000000,0.000000,0.000000,0.000000,0.000000,1.598498,0.372570,0.078575,-0.833764,0.233889,0.905139,0.743561
0.116000,-0.499829,-0.499819,0.800118,0.999924,0.004776,-0.011339,0.001044,-0.500000,-0.500000,0.800000,0.999924,0.004776,-0.011320,0.001026,200.000000,100.000000,0.000000,0.001194,0.000000,0.000000,0.000000,0.000000,0.000000,0.000000,1.598499,0.372574,0.078575,-0.833758,0.233888,0.905141,0.743562
0.117000,-0.499830,-0.499820,0.800117,0.999924,0.004776,-0.011339,0.001044,-0.500000,-0.500000,0.800000,0.999924,0.004776,-0.011320,0.001026,200.000000,100.000000,0.000000,0.001143,0.000000,0.000000,0.000000,0.000000,0.000000,0.000000,1.598499,0.372578,0.078575,-0.833752,0.233888,0.905143,0.743562
0.118000,-0.499830,-0.499820,0.800116,0.999924,0.004776,-0.011339,0.001044,-0.500000,-0.500000,0.800000,0.999924,0.004776,-0.011320,0.001026,200.000000,100.000000,0.000000,0.001190,0.000000,0.000000,0.000000,0.000000,0.000000,0.000000,1.598499,0.372582,0.078575,-0.833747,0.233887,0.905145,0.743563
0.119000,-0.499831,-0.499820,0.800115,0.999924,0.004776,-0.011339,0.001044,-0.500000,-0.500000,0.800000,0.999924,0.004776,-0.011320,0.001026,200.000000,100.000000,0.000000,0.001141,0.000000,0.000000,0.000000,0.000000,0.000000,0.000000,1.598500,0.372585,0.078574,-0.833741,0.233887,0.905146,0.743564
0.120000,-0.499831,-0.499821,0.800114,0.999924,0.004776,-0.011339,0.001044,-0.500000,-0.500000,0.800000,0.999924,0.004776,-0.011320,0.001026,200.000000,100.000000,0.000000,0.001188,0.000000,0.000000,0.000000,0.000000,0.000000,0.000000,1.598500,0.372589,0.078574,-0.833735,0.233886,0.905148,0.743564
0.121000,-0.499832,-0.499821,0.800114,0.999924,0.004776,-0.011339,0.001044,-0.500000,-0.500000,0.800000,0.999924,0.004776,-0.011320,0.001026,200.000000,100.000000,0.000000,0.001138,0.000000,0.000000,0.000000,0.000000,0.000000,0.000000,1.598501,0.372593,0.078574,-0.833729,0.233885,0.905150,0.743565
0.121000,-0.499833,-0.499822,0.800113,0.999924,0.004776,-0.011339,0.001044,-0.500000,-0.500000,0.800000,0.999924,0.004776,-0.011320,0.001026,200.000000,100.000000,0.000000,0.001185,0.000000,0.000000,0.000000,0.000000,0.000000,0.000000,1.598501,0.372597,0.078574,-0.833723,0.233885,0.905152,0.743565
0.123000,-0.499833,-0.499822,0.800112,0.999924,0.004776,-0.011339,0.001044,-0.500000,-0.500000,0.800000,0.999924,0.004776,-0.011320,0.001026,200.000000,100.000000,0.000000,0.001135,0.000000,0.000000,0.000000,0.000000,0.000000,0.000000,1.598502,0.372601,0.078574,-0.833717,0.233884,0.905154,0.743566
0.124000,-0.499834,-0.499823,0.800111,0.999924,0.004776,-0.011339,0.001044,-0.500000,-0.500000,0.800000,0.999924,0.004776,-0.011320,0.001026,200.000000,100.000000,0.000000,0.001182,0.000000,0.000000,0.000000,0.000000,0.000000,0.000000,1.598502,0.372605,0.078573,-0.833712,0.233884,0.905156,0.743567
0.125000,-0.499834,-0.499823,0.800110,0.999924,0.004776,-0.011339,0.001044,-0.500000,-0.500000,0.800000,0.999924,0.004776,-0.011320,0.001026,200.000000,100.000000,0.000000,0.001133,0.000000,0.000000,0.000000,0.000000,0.000000,0.000000,1.598503,0.372608,0.078573,-0.833706,0.233883,0.905158,0.743567
0.126000,-0.499835,-0.499824,0.800109,0.999924,0.004776,-0.011339,0.001044,-0.500000,-0.500000,0.800000,0.999924,0.004776,-0.011320,0.001026,200.000000,100.000000,0.000000,0.001179,0.000000,0.000000,0.000000,0.000000,0.000000,0.000000,1.598503,0.372612,0.078573,-0.833700,0.233883,0.905160,0.743568
0.127000,-0.499836,-0.499824,0.800108,0.999924,0.004776,-0.011339,0.001044,-0.500000,-0.500000,0.800000,0.999924,0.004776,-0.011320,0.001026,200.000000,100.000000,0.000000,0.001129,0.000000,0.000000,0.000000,0.000000,0.000000,0.000000,1.598504,0.372616,0.078573,-0.833694,0.233882,0.905162,0.743568
0.128000,-0.499836,-0.499825,0.800107,0.999924,0.004776,-0.011339,0.001044,-0.500000,-0.500000,0.800000,0.999924,0.004776,-0.011320,0.001026,200.000000,100.000000,0.000000,0.001177,0.000000,0.000000,0.000000,0.000000,0.000000,0.000000,1.598504,0.372620,0.078572,-0.833688,0.233881,0.905164,0.743569
0.129000,-0.499837,-0.499825,0.800107,0.999924,0.004776,-0.011339,0.001044,-0.500000,-0.500000,0.800000,0.999924,0.004776,-0.011320,0.001026,200.000000,100.000000,0.000000,0.001127,0.000000,0.000000,0.000000,0.000000,0.000000,0.000000,1.598504,0.372624,0.078572,-0.833683,0.233881,0.905166,0.743570
0.130000,-0.499838,-0.499826,0.800106,0.999924,0.004776,-0.011339,0.001044,-0.500000,-0.500000,0.800000,0.999924,0.004776,-0.011320,0.001026,200.000000,100.000000,0.000000,0.001173,0.000000,0.000000,0.000000,0.000000,0.000000,0.000000,1.598505,0.372628,0.078572,-0.833677,0.233880,0.905168,0.743570
0.131000,-0.499838,-0.499826,0.800105,0.999924,0.004776,-0.011339,0.001044,-0.500000,-0.500000,0.800000,0.999924,0.004776,-0.011320,0.001026,200.000000,100.000000,0.000000,0.001124,0.000000,0.000000,0.000000,0.000000,0.000000,0.000000,1.598505,0.372631,0.078572,-0.833671,0.233880,0.905170,0.743571
0.132000,-0.499839,-0.499826,0.800104,0.999924,0.004776,-0.011339,0.001044,-0.500000,-0.500000,0.800000,0.999924,0.004776,-0.011320,0.001026,200.000000,100.000000,0.000000,0.001171,0.000000,0.000000,0.000000,0.000000,0.000000,0.000000,1.598506,0.372635,0.078572,-0.833665,0.233879,0.905172,0.743571
0.133000,-0.499839,-0.499827,0.800103,0.999924,0.004776,-0.011339,0.001044,-0.500000,-0.500000,0.800000,0.999924,0.004776,-0.011320,0.001026,200.000000,100.000000,0.000000,0.001121,0.000000,0.000000,0.000000,0.000000,0.000000,0.000000,1.598506,0.372639,0.078571,-0.833659,0.233879,0.905174,0.743572
0.134000,-0.499840,-0.499827,0.800102,0.999924,0.004776,-0.011339,0.001044,-0.500000,-0.500000,0.800000,0.999924,0.004776,-0.011320,0.001026,200.000000,100.000000,0.000000,0.001167,0.000000,0.000000,0.000000,0.000000,0.000000,0.000000,1.598507,0.372643,0.078571,-0.833653,0.233878,0.905176,0.743573
0.135000,-0.499841,-0.499828,0.800102,0.999924,0.004776,-0.011339,0.001044,-0.500000,-0.500000,0.800000,0.999924,0.004776,-0.011320,0.001026,200.000000,100.000000,0.000000,0.001118,0.000000,0.000000,0.000000,0.000000,0.000000,0.000000,1.598507,0.372647,0.078571,-0.833648,0.233877,0.905178,0.743573
0.136000,-0.499841,-0.499828,0.800101,0.999924,0.004776,-0.011339,0.001044,-0.500000,-0.500000,0.800000,0.999924,0.004776,-0.011320,0.001026,200.000000,100.000000,0.000000,0.001164,0.000000,0.000000,0.000000,0.000000,0.000000,0.000000,1.598508,0.372651,0.078571,-0.833642,0.233877,0.905180,0.743574
0.137000,-0.499842,-0.499829,0.800100,0.999924,0.004776,-0.011339,0.001044,-0.500000,-0.500000,0.800000,0.999924,0.004776,-0.011320,0.001026,200.000000,100.000000,0.000000,0.001115,0.000000,0.000000,0.000000,0.000000,0.000000,0.000000,1.598508,0.372654,0.078571,-0.833636,0.233876,0.905182,0.743574
0.138000,-0.499842,-0.499829,0.800099,0.999924,0.004776,-0.011338,0.001044,-0.500000,-0.500000,0.800000,0.999924,0.004776,-0.011320,0.001026,200.000000,100.000000,0.000000,0.001162,0.000000,0.000000,0.000000,0.000000,0.000000,0.000000,1.598509,0.372658,0.078570,-0.833630,0.233876,0.905184,0.743575
0.139000,-0.499843,-0.499830,0.800098,0.999924,0.004776,-0.011338,0.001044,-0.500000,-0.500000,0.800000,0.999924,0.004776,-0.011320,0.001026,200.000000,100.000000,0.000000,0.001112,0.000000,0.000000,0.000000,0.000000,0.000000,0.000000,1.598509,0.372662,0.078570,-0.833625,0.233875,0.905186,0.743576
0.140000,-0.499844,-0.499830,0.800097,0.999924,0.004776,-0.011338,0.001044,-0.500000,-0.500000,0.800000,0.999924,0.004776,-0.011320,0.001026,200.000000,100.000000,0.000000,0.001159,0.000000,0.000000,0.000000,0.000000,0.000000,0.000000,1.598509,0.372666,0.078570,-0.833619,0.233874,0.905188,0.743576
0.141000,-0.499844,-0.499831,0.800097,0.999924,0.004776,-0.011338,0.001044,-0.500000,-0.500000,0.800000,0.999924,0.004776,-0.011320,0.001026,200.000000,100.000000,0.000000,0.001109,0.000000,0.000000,0.000000,0.000000,0.000000,0.000000,1.598510,0.372669,0.078570,-0.833613,0.233874,0.905190,0.743577
0.142000,-0.499845,-0.499831,0.800096,0.999924,0.004776,-0.011338,0.001044,-0.500000,-0.500000,0.800000,0.999924,0.004776,-0.011320,0.001026,200.000000,100.000000,0.000000,0.001155,0.000000,0.000000,0.000000,0.000000,0.000000,0.000000,1.598510,0.372673,0.078570,-0.833607,0.233873,0.905192,0.743578
0.143000,-0.499846,-0.499832,0.800095,0.999924,0.004776,-0.011338,0.001044,-0.500000,-0.500000,0.800000,0.999924,0.004776,-0.011320,0.001026,200.000000,100.000000,0.000000,0.001107,0.000000,0.000000,0.000000,0.000000,0.000000,0.000000,1.598511,0.372677,0.078569,-0.833601,0.233873,0.905194,0.743578
0.144000,-0.499846,-0.499832,0.800094,0.999924,0.004776,-0.011338,0.001044,-0.500000,-0.500000,0.800000,0.999924,0.004776,-0.011320,0.001026,200.000000,100.000000,0.000000,0.001153,0.000000,0.000000,0.000000,0.000000,0.000000,0.000000,1.598511,0.372681,0.078569,-0.833596,0.233872,0.905196,0.743579
0.144000,-0.499847,-0.499832,0.800093,0.999924,0.004776,-0.011338,0.001044,-0.500000,-0.500000,0.800000,0.999924,0.004776,-0.011320,0.001026,200.000000,100.000000,0.000000,0.001103,0.000000,0.000000,0.000000,0.000000,0.000000,0.000000,1.598512,0.372684,0.078569,-0.833590,0.233872,0.905198,0.743579
0.146000,-0.499847,-0.499833,0.800092,0.999924,0.004776,-0.011338,0.001044,-0.500000,-0.500000,0.800000,0.999924,0.004776,-0.011320,0.001026,200.000000,100.000000,0.000000,0.001149,0.000000,0.000000,0.000000,0.000000,0.000000,0.000000,1.598512,0.372688,0.078569,-0.833584,0.233871,0.905200,0.743580
0.147000,-0.499848,-0.499833,0.800092,0.999924,0.004776,-0.011338,0.001044,-0.500000,-0.500000,0.800000,0.999924,0.004776,-0.011320,0.001026,200.000000,100.000000,0.000000,0.001100,0.000000,0.000000,0.000000,0.000000,0.000000,0.000000,1.598512,0.372692,0.078569,-0.833578,0.233870,0.905202,0.743581
0.148000,-0.499849,-0.499834,0.800091,0.999924,0.004776,-0.011338,0.001044,-0.500000,-0.500000,0.800000,0.999924,0.004776,-0.011320,0.001026,200.000000,100.000000,0.000000,0.001146,0.000000,0.000000,0.000000,0.000000,0.000000,0.000000,1.598513,0.372696,0.078568,-0.833573,0.233870,0.905204,0.743581
0.149000,-0.499849,-0.499834,0.800090,0.999924,0.004776,-0.011338,0.001044,-0.500000,-0.500000,0.800000,0.999924,0.004776,-0.011320,0.001026,200.000000,100.000000,0.000000,0.001098,0.000000,0.000000,0.000000,0.000000,0.000000,0.000000,1.598513,0.372699,0.078568,-0.833567,0.233869,0.905206,0.743582
0.150000,-0.499850,-0.499835,0.800089,0.999924,0.004776,-0.011338,0.001044,-0.500000,-0.500000,0.800000,0.999924,0.004776,-0.011320,0.001026,200.000000,100.000000,0.000000,0.001143,0.000000,0.000000,0.000000,0.000000,0.000000,0.000000,1.598514,0.372703,0.078568,-0.833561,0.233869,0.905208,0.743582
0.151000,-0.499850,-0.499835,0.800088,0.999924,0.004776,-0.011338,0.001044,-0.500000,-0.500000,0.800000,0.999924,0.004776,-0.011320,0.001026,200.000000,100.000000,0.000000,0.001094,0.000000,0.000000,0.000000,0.000000,0.000000,0.000000,1.598514,0.372707,0.078568,-0.833555,0.233868,0.905210,0.743583
0.152000,-0.499851,-0.499836,0.800087,0.999924,0.004776,-0.011338,0.001044,-0.500000,-0.500000,0.800000,0.999924,0.004776,-0.011320,0.001026,200.000000,100.000000,0.000000,0.001140,0.000000,0.000000,0.000000,0.000000,0.000000,0.000000,1.598515,0.372711,0.078568,-0.833550,0.233867,0.905212,0.743584
0.153000,-0.499852,-0.499836,0.800087,0.999924,0.004776,-0.011338,0.001044,-0.500000,-0.500000,0.800000,0.999924,0.004776,-0.011320,0.001026,200.000000,100.000000,0.000000,0.001091,0.000000,0.000000,0.000000,0.000000,0.000000,0.000000,1.598515,0.372714,0.078568,-0.833544,0.233867,0.905214,0.743584
0.154000,-0.499852,-0.499837,0.800086,0.999924,0.004776,-0.011338,0.001044,-0.500000,-0.500000,0.800000,0.999924,0.004776,-0.011320,0.001026,200.000000,100.000000,0.000000,0.001136,0.000000,0.000000,0.000000,0.000000,0.000000,0.000000,1.598516,0.372718,0.078567,-0.833538,0.233866,0.905216,0.743585
0.155000,-0.499853,-0.499837,0.800085,0.999924,0.004776,-0.011338,0.001044,-0.500000,-0.500000,0.800000,0.999924,0.004776,-0.011320,0.001026,200.000000,100.000000,0.000000,0.001088,0.000000,0.000000,0.000000,0.000000,0.000000,0.000000,1.598516,0.372722,0.078567,-0.833532,0.233866,0.905218,0.743586
0.156000,-0.499853,-0.499838,0.800084,0.999924,0.004776,-0.011338,0.001044,-0.500000,-0.500000,0.800000,0.999924,0.004776,-0.011320,0.001026,200.000000,100.000000,0.000000,0.001134,0.000000,0.000000,0.000000,0.000000,0.000000,0.000000,1.598516,0.372726,0.078567,-0.833527,0.233865,0.905220,0.743586
0.157000,-0.499854,-0.499838,0.800083,0.999924,0.004776,-0.011338,0.001044,-0.500000,-0.500000,0.800000,0.999924,0.004776,-0.011320,0.001026,200.000000,100.000000,0.000000,0.001085,0.000000,0.000000,0.000000,0.000000,0.000000,0.000000,1.598517,0.372729,0.078567,-0.833521,0.233864,0.905222,0.743587
0.158000,-0.499855,-0.499839,0.800083,0.999924,0.004776,-0.011338,0.001044,-0.500000,-0.500000,0.800000,0.999924,0.004776,-0.011320,0.001026,200.000000,100.000000,0.000000,0.001129,0.000000,0.000000,0.000000,0.000000,0.000000,0.000000,1.598517,0.372733,0.078567,-0.833515,0.233864,0.905224,0.743587
0.159000,-0.499855,-0.499839,0.800082,0.999924,0.004776,-0.011338,0.001044,-0.500000,-0.500000,0.800000,0.999924,0.004776,-0.011320,0.001026,200.000000,100.000000,0.000000,0.001082,0.000000,0.000000,0.000000,0.000000,0.000000,0.000000,1.598518,0.372737,0.078566,-0.833510,0.233863,0.905226,0.743588
0.160000,-0.499856,-0.499839,0.800081,0.999924,0.004776,-0.011338,0.001044,-0.500000,-0.500000,0.800000,0.999924,0.004776,-0.011320,0.001026,200.000000,100.000000,0.000000,0.001127,0.000000,0.000000,0.000000,0.000000,0.000000,0.000000,1.598518,0.372740,0.078566,-0.833504,0.233863,0.905228,0.743589
0.161000,-0.499856,-0.499840,0.800080,0.999924,0.004776,-0.011337,0.001044,-0.500000,-0.500000,0.800000,0.999924,0.004776,-0.011320,0.001026,200.000000,100.000000,0.000000,0.001078,0.000000,0.000000,0.000000,0.000000,0.000000,0.000000,1.598518,0.372744,0.078566,-0.833498,0.233862,0.905230,0.743589
0.162000,-0.499857,-0.499840,0.800079,0.999924,0.004776,-0.011337,0.001044,-0.500000,-0.500000,0.800000,0.999924,0.004776,-0.011320,0.001026,200.000000,100.000000,0.000000,0.001124,0.000000,0.000000,0.000000,0.000000,0.000000,0.000000,1.598519,0.372748,0.078566,-0.833492,0.233861,0.905232,0.743590
0.163000,-0.499858,-0.499841,0.800079,0.999924,0.004776,-0.011337,0.001044,-0.500000,-0.500000,0.800000,0.999924,0.004776,-0.011320,0.001026,200.000000,100.000000,0.000000,0.001075,0.000000,0.000000,0.000000,0.000000,0.000000,0.000000,1.598519,0.372751,0.078566,-0.833487,0.233861,0.905234,0.743591
0.164000,-0.499858,-0.499841,0.800078,0.999924,0.004776,-0.011337,0.001044,-0.500000,-0.500000,0.800000,0.999924,0.004776,-0.011320,0.001026,200.000000,100.000000,0.000000,0.001120,0.000000,0.000000,0.000000,0.000000,0.000000,0.000000,1.598520,0.372755,0.078566,-0.833481,0.233860,0.905236,0.743591
0.165000,-0.499859,-0.499842,0.800077,0.999924,0.004776,-0.011337,0.001044,-0.500000,-0.500000,0.800000,0.999924,0.004776,-0.011320,0.001026,200.000000,100.000000,0.000000,0.001073,0.000000,0.000000,0.000000,0.000000,0.000000,0.000000,1.598520,0.372759,0.078565,-0.833475,0.233860,0.905238,0.743592
0.166000,-0.499859,-0.499842,0.800076,0.999924,0.004776,-0.011337,0.001044,-0.500000,-0.500000,0.800000,0.999924,0.004776,-0.011320,0.001026,200.000000,100.000000,0.000000,0.001117,0.000000,0.000000,0.000000,0.000000,0.000000,0.000000,1.598521,0.372762,0.078565,-0.833469,0.233859,0.905240,0.743592
0.167000,-0.499860,-0.499843,0.800076,0.999924,0.004776,-0.011337,0.001044,-0.500000,-0.500000,0.800000,0.999924,0.004776,-0.011320,0.001026,200.000000,100.000000,0.000000,0.001069,0.000000,0.000000,0.000000,0.000000,0.000000,0.000000,1.598521,0.372766,0.078565,-0.833464,0.233858,0.905242,0.743593
0.168000,-0.499861,-0.499843,0.800075,0.999924,0.004776,-0.011337,0.001044,-0.500000,-0.500000,0.800000,0.999924,0.004776,-0.011320,0.001026,200.000000,100.000000,0.000000,0.001114,0.000000,0.000000,0.000000,0.000000,0.000000,0.000000,1.598521,0.372770,0.078565,-0.833458,0.233858,0.905245,0.743594
0.169000,-0.499861,-0.499844,0.800074,0.999924,0.004776,-0.011337,0.001044,-0.500000,-0.500000,0.800000,0.999924,0.004776,-0.011320,0.001026,200.000000,100.000000,0.000000,0.001065,0.000000,0.000000,0.000000,0.000000,0.000000,0.000000,1.598522,0.372773,0.078565,-0.833453,0.233857,0.905247,0.743594
0.170000,-0.499862,-0.499844,0.800073,0.999924,0.004776,-0.011337,0.001044,-0.500000,-0.500000,0.800000,0.999924,0.004776,-0.011320,0.001026,200.000000,100.000000,0.000000,0.001110,0.000000,0.000000,0.000000,0.000000,0.000000,0.000000,1.598522,0.372777,0.078564,-0.833447,0.233857,0.905249,0.743595
0.171000,-0.499862,-0.499845,0.800072,0.999924,0.004776,-0.011337,0.001044,-0.500000,-0.500000,0.800000,0.999924,0.004776,-0.011320,0.001026,200.000000,100.000000,0.000000,0.001062,0.000000,0.000000,0.000000,0.000000,0.000000,0.000000,1.598523,0.372781,0.078564,-0.833441,0.233856,0.905251,0.743596
0.172000,-0.499863,-0.499845,0.800072,0.999924,0.004776,-0.011337,0.001044,-0.500000,-0.500000,0.800000,0.999924,0.004776,-0.011320,0.001026,200.000000,100.000000,0.000000,0.001107,0.000000,0.000000,0.000000,0.000000,0.000000,0.000000,1.598523,0.372784,0.078564,-0.833435,0.233855,0.905253,0.743596
0.173000,-0.499864,-0.499846,0.800071,0.999924,0.004776,-0.011337,0.001044,-0.500000,-0.500000,0.800000,0.999924,0.004776,-0.011320,0.001026,200.000000,100.000000,0.000000,0.001059,0.000000,0.000000,0.000000,0.000000,0.000000,0.000000,1.598524,0.372788,0.078564,-0.833430,0.233855,0.905255,0.743597
0.174000,-0.499864,-0.499846,0.800070,0.999924,0.004776,-0.011337,0.001044,-0.500000,-0.500000,0.800000,0.999924,0.004776,-0.011320,0.001026,200.000000,100.000000,0.000000,0.001103,0.000000,0.000000,0.000000,0.000000,0.000000,0.000000,1.598524,0.372792,0.078564,-0.833424,0.233854,0.905257,0.743597
0.175000,-0.499865,-0.499846,0.800069,0.999924,0.004776,-0.011337,0.001044,-0.500000,-0.500000,0.800000,0.999924,0.004776,-0.011320,0.001026,200.000000,100.000000,0.000000,0.001055,0.000000,0.000000,0.000000,0.000000,0.000000,0.000000,1.598524,0.372795,0.078564,-0.833419,0.233854,0.905259,0.743598
0.176000,-0.499865,-0.499847,0.800069,0.999924,0.004776,-0.011337,0.001044,-0.500000,-0.500000,0.800000,0.999924,0.004776,-0.011320,0.001026,200.000000,100.000000,0.000000,0.001100,0.000000,0.000000,0.000000,0.000000,0.000000,0.000000,1.598525,0.372799,0.078563,-0.833413,0.233853,0.905261,0.743599
0.177000,-0.499866,-0.499847,0.800068,0.999924,0.004776,-0.011337,0.001044,-0.500000,-0.500000,0.800000,0.999924,0.004776,-0.011320,0.001026,200.000000,100.000000,0.000000,0.001053,0.000000,0.000000,0.000000,0.000000,0.000000,0.000000,1.598525,0.372802,0.078563,-0.833407,0.233852,0.905263,0.743599
0.178000,-0.499867,-0.499848,0.800067,0.999924,0.004776,-0.011337,0.001044,-0.500000,-0.500000,0.800000,0.999924,0.004776,-0.011320,0.001026,200.000000,100.000000,0.000000,0.001097,0.000000,0.000000,0.000000,0.000000,0.000000,0.000000,1.598526,0.372806,0.078563,-0.833401,0.233852,0.905265,0.743600
0.179000,-0.499867,-0.499848,0.800066,0.999924,0.004776,-0.011337,0.001044,-0.500000,-0.500000,0.800000,0.999924,0.004776,-0.011320,0.001026,200.000000,100.000000,0.000000,0.001049,0.000000,0.000000,0.000000,0.000000,0.000000,0.000000,1.598526,0.372810,0.078563,-0.833396,0.233851,0.905267,0.743601
0.180000,-0.499868,-0.499849,0.800065,0.999924,0.004776,-0.011337,0.001044,-0.500000,-0.500000,0.800000,0.999924,0.004776,-0.011320,0.001026,200.000000,100.000000,0.000000,0.001094,0.000000,0.000000,0.000000,0.000000,0.000000,0.000000,1.598526,0.372813,0.078563,-0.833390,0.233850,0.905269,0.743601
0.181000,-0.499868,-0.499849,0.800065,0.999924,0.004776,-0.011337,0.001044,-0.500000,-0.500000,0.800000,0.999924,0.004776,-0.011320,0.001026,200.000000,100.000000,0.000000,0.001046,0.000000,0.000000,0.000000,0.000000,0.000000,0.000000,1.598527,0.372817,0.078563,-0.833385,0.233850,0.905271,0.743602
0.182000,-0.499869,-0.499850,0.800064,0.999924,0.004776,-0.011337,0.001044,-0.500000,-0.500000,0.800000,0.999924,0.004776,-0.011320,0.001026,200.000000,100.000000,0.000000,0.001089,0.000000,0.000000,0.000000,0.000000,0.000000,0.000000,1.598527,0.372820,0.078563,-0.833379,0.233849,0.905273,0.743603
0.183000,-0.499870,-0.499850,0.800063,0.999924,0.004776,-0.011337,0.001044,-0.500000,-0.500000,0.800000,0.999924,0.004776,-0.011320,0.001026,200.000000,100.000000,0.000000,0.001042,0.000000,0.000000,0.000000,0.000000,0.000000,0.000000,1.598528,0.372824,0.078562,-0.833373,0.233849,0.905275,0.743603
0.184000,-0.499870,-0.499851,0.800062,0.999924,0.004776,-0.011336,0.001044,-0.500000,-0.500000,0.800000,0.999924,0.004776,-0.011320,0.001026,200.000000,100.000000,0.000000,0.001087,0.000000,0.000000,0.000000,0.000000,0.000000,0.000000,1.598528,0.372828,0.078562,-0.833368,0.233848,0.905277,0.743604
0.185000,-0.499871,-0.499851,0.800062,0.999924,0.004776,-0.011336,0.001044,-0.500000,-0.500000,0.800000,0.999924,0.004776,-0.011320,0.001026,200.000000,100.000000,0.000000,0.001039,0.000000,0.000000,0.000000,0.000000,0.000000,0.000000,1.598528,0.372831,0.078562,-0.833362,0.233847,0.905279,0.743604
0.186000,-0.499871,-0.499852,0.800061,0.999924,0.004776,-0.011336,0.001044,-0.500000,-0.500000,0.800000,0.999924,0.004776,-0.011320,0.001026,200.000000,100.000000,0.000000,0.001083,0.000000,0.000000,0.000000,0.000000,0.000000,0.000000,1.598529,0.372835,0.078562,-0.833357,0.233847,0.905281,0.743605
0.187000,-0.499872,-0.499852,0.800060,0.999924,0.004776,-0.011336,0.001044,-0.500000,-0.500000,0.800000,0.999924,0.004776,-0.011320,0.001026,200.000000,100.000000,0.000000,0.001035,0.000000,0.000000,0.000000,0.000000,0.000000,0.000000,1.598529,0.372838,0.078562,-0.833351,0.233846,0.905283,0.743606
0.188000,-0.499873,-0.499853,0.800059,0.999924,0.004776,-0.011336,0.001044,-0.500000,-0.500000,0.800000,0.999924,0.004776,-0.011320,0.001026,200.000000,100.000000,0.000000,0.001079,0.000000,0.000000,0.000000,0.000000,0.000000,0.000000,1.598530,0.372842,0.078562,-0.833345,0.233846,0.905285,0.743606
0.189000,-0.499873,-0.499853,0.800059,0.999924,0.004776,-0.011336,0.001044,-0.500000,-0.500000,0.800000,0.999924,0.004776,-0.011320,0.001026,200.000000,100.000000,0.000000,0.001032,0.000000,0.000000,0.000000,0.000000,0.000000,0.000000,1.598530,0.372845,0.078561,-0.833340,0.233845,0.905287,0.743607
0.190000,-0.499874,-0.499853,0.800058,0.999924,0.004776,-0.011336,0.001044,-0.500000,-0.500000,0.800000,0.999924,0.004776,-0.011320,0.001026,200.000000,100.000000,0.000000,0.001076,0.000000,0.000000,0.000000,0.000000,0.000000,0.000000,1.598530,0.372849,0.078561,-0.833334,0.233844,0.905289,0.743608
0.190000,-0.499874,-0.499854,0.800057,0.999924,0.004776,-0.011336,0.001044,-0.500000,-0.500000,0.800000,0.999924,0.004776,-0.011320,0.001026,200.000000,100.000000,0.000000,0.001028,0.000000,0.000000,0.000000,0.000000,0.000000,0.000000,1.598531,0.372852,0.078561,-0.833329,0.233844,0.905291,0.743608
0.192000,-0.499875,-0.499854,0.800057,0.999924,0.004776,-0.011336,0.001044,-0.500000,-0.500000,0.800000,0.999924,0.004776,-0.011320,0.001026,200.000000,100.000000,0.000000,0.001072,0.000000,0.000000,0.000000,0.000000,0.000000,0.000000,1.598531,0.372856,0.078561,-0.833323,0.233843,0.905293,0.743609
0.193000,-0.499875,-0.499855,0.800056,0.999924,0.004776,-0.011336,0.001044,-0.500000,-0.500000,0.800000,0.999924,0.004776,-0.011320,0.001026,200.000000,100.000000,0.000000,0.001025,0.000000,0.000000,0.000000,0.000000,0.000000,0.000000,1.598532,0.372859,0.078561,-0.833318,0.233843,0.905295,0.743610
0.194000,-0.499876,-0.499855,0.800055,0.999924,0.004776,-0.011336,0.001043,-0.500000,-0.500000,0.800000,0.999924,0.004776,-0.011320,0.001026,200.000000,100.000000,0.000000,0.001068,0.000000,0.000000,0.000000,0.000000,0.000000,0.000000,1.598532,0.372863,0.078561,-0.833312,0.233842,0.905297,0.743610
0.195000,-0.499877,-0.499856,0.800054,0.999924,0.004776,-0.011336,0.001043,-0.500000,-0.500000,0.800000,0.999924,0.004776,-0.011320,0.001026,200.000000,100.000000,0.000000,0.001022,0.000000,0.000000,0.000000,0.000000,0.000000,0.000000,1.598532,0.372867,0.078561,-0.833306,0.233841,0.905299,0.743611
0.196000,-0.499877,-0.499856,0.800054,0.999924,0.004776,-0.011336,0.001043,-0.500000,-0.500000,0.800000,0.999924,0.004776,-0.011320,0.001026,200.000000,100.000000,0.000000,0.001066,0.000000,0.000000,0.000000,0.000000,0.000000,0.000000,1.598533,0.372870,0.078560,-0.833301,0.233841,0.905302,0.743612
0.197000,-0.499878,-0.499857,0.800053,0.999924,0.004776,-0.011336,0.001043,-0.500000,-0.500000,0.800000,0.999924,0.004776,-0.011320,0.001026,200.000000,100.000000,0.000000,0.001018,0.000000,0.000000,0.000000,0.000000,0.000000,0.000000,1.598533,0.372874,0.078560,-0.833295,0.233840,0.905304,0.743612
0.198000,-0.499878,-0.499857,0.800052,0.999924,0.004776,-0.011336,0.001043,-0.500000,-0.500000,0.800000,0.999924,0.004776,-0.011320,0.001026,200.000000,100.000000,0.000000,0.001061,0.000000,0.000000,0.000000,0.000000,0.000000,0.000000,1.598534,0.372877,0.078560,-0.833290,0.233839,0.905306,0.743613
0.199000,-0.499879,-0.499858,0.800051,0.999924,0.004776,-0.011336,0.001043,-0.500000,-0.500000,0.800000,0.999924,0.004776,-0.011320,0.001026,200.000000,100.000000,0.000000,0.001014,0.000000,0.000000,0.000000,0.000000,0.000000,0.000000,1.598534,0.372881,0.078560,-0.833284,0.233839,0.905308,0.743613
0.200000,-0.499880,-0.499858,0.800051,0.999924,0.004776,-0.011336,0.001043,-0.500000,-0.500000,0.800000,0.999924,0.004776,-0.011320,0.001026,200.000000,100.000000,0.000000,0.001057,0.000000,0.000000,0.000000,0.000000,0.000000,0.000000,1.598534,0.372884,0.078560,-0.833279,0.233838,0.905310,0.743614
0.201000,-0.499880,-0.499859,0.800050,0.999924,0.004776,-0.011336,0.001043,-0.500000,-0.500000,0.800000,0.999924,0.004776,-0.011320,0.001026,200.000000,100.000000,0.000000,0.001011,0.000000,0.000000,0.000000,0.000000,0.000000,0.000000,1.598535,0.372888,0.078560,-0.833273,0.233838,0.905312,0.743615
0.202000,-0.499881,-0.499859,0.800049,0.999924,0.004776,-0.011336,0.001043,-0.500000,-0.500000,0.800000,0.999924,0.004776,-0.011320,0.001026,200.000000,100.000000,0.000000,0.001054,0.000000,0.000000,0.000000,0.000000,0.000000,0.000000,1.598535,0.372891,0.078560,-0.833268,0.233837,0.905314,0.743615
0.203000,-0.499881,-0.499860,0.800049,0.999924,0.004776,-0.011336,0.001043,-0.500000,-0.500000,0.800000,0.999924,0.004776,-0.011320,0.001026,200.000000,100.000000,0.000000,0.001007,0.000000,0.000000,0.000000,0.000000,0.000000,0.000000,1.598535,0.372894,0.078559,-0.833262,0.233836,0.905316,0.743616
0.204000,-0.499882,-0.499860,0.800048,0.999924,0.004776,-0.011336,0.001043,-0.500000,-0.500000,0.800000,0.999924,0.004776,-0.011320,0.001026,200.000000,100.000000,0.000000,0.001051,0.000000,0.000000,0.000000,0.000000,0.000000,0.000000,1.598536,0.372898,0.078559,-0.833257,0.233836,0.905318,0.743617
0.205000,-0.499882,-0.499860,0.800047,0.999924,0.004776,-0.011336,0.001043,-0.500000,-0.500000,0.800000,0.999924,0.004776,-0.011320,0.001026,200.000000,100.000000,0.000000,0.001004,0.000000,0.000000,0.000000,0.000000,0.000000,0.000000,1.598536,0.372901,0.078559,-0.833251,0.233835,0.905320,0.743617
0.206000,-0.499883,-0.499861,0.800046,0.999924,0.004776,-0.011335,0.001043,-0.500000,-0.500000,0.800000,0.999924,0.004776,-0.011320,0.001026,200.000000,100.000000,0.000000,0.001046,0.000000,0.000000,0.000000,0.000000,0.000000,0.000000,1.598537,0.372905,0.078559,-0.833246,0.233834,0.905322,0.743618
0.207000,-0.499884,-0.499861,0.800046,0.999924,0.004776,-0.011335,0.001043,-0.500000,-0.500000,0.800000,0.999924,0.004776,-0.011320,0.001026,200.000000,100.000000,0.000000,0.001000,0.000000,0.000000,0.000000,0.000000,0.000000,0.000000,1.598537,0.372908,0.078559,-0.833240,0.233834,0.905324,0.743619
0.208000,-0.499884,-0.499862,0.800045,0.999924,0.004776,-0.011335,0.001043,-0.500000,-0.500000,0.800000,0.999924,0.004776,-0.011320,0.001026,200.000000,100.000000,0.000000,0.001044,0.000000,0.000000,0.000000,0.000000,0.000000,0.000000,1.598537,0.372912,0.078559,-0.833235,0.233833,0.905326,0.743619
0.209000,-0.499885,-0.499862,0.800044,0.999924,0.004776,-0.011335,0.001043,-0.500000,-0.500000,0.800000,0.999924,0.004776,-0.011320,0.001026,200.000000,100.000000,0.000000,0.000997,0.000000,0.000000,0.000000,0.000000,0.000000,0.000000,1.598538,0.372915,0.078559,-0.833229,0.233833,0.905328,0.743620
0.210000,-0.499885,-0.499863,0.800044,0.999924,0.004776,-0.011335,0.001043,-0.500000,-0.500000,0.800000,0.999924,0.004776,-0.011320,0.001026,200.000000,100.000000,0.000000,0.001039,0.000000,0.000000,0.000000,0.000000,0.000000,0.000000,1.598538,0.372919,0.078559,-0.833224,0.233832,0.905330,0.743621
0.211000,-0.499886,-0.499863,0.800043,0.999924,0.004776,-0.011335,0.001043,-0.499835,-0.499824,0.800109,0.999924,0.004776,-0.011339,0.001044,200.000000,100.000000,0.000000,0.000993,0.000000,0.000000,0.000000,0.000000,0.000000,0.000000,1.598539,0.372922,0.078558,-0.833218,0.233831,0.905332,0.743621
0.212000,-0.499886,-0.499864,0.800042,0.999924,0.004776,-0.011335,0.001043,-0.499835,-0.499823,0.800109,0.999924,0.004776,-0.011339,0.001044,200.000000,100.000000,0.000000,0.001033,0.000000,0.000000,0.000000,0.000000,0.000000,0.000000,1.598539,0.372926,0.078558,-0.833213,0.233831,0.905334,0.743622
0.213000,-0.499887,-0.499864,0.800042,0.999924,0.004776,-0.011335,0.001043,-0.499835,-0.499823,0.800109,0.999924,0.004776,-0.011339,0.001044,200.000000,100.000000,0.000000,0.000985,0.000000,0.000000,0.000000,0.000000,0.000000,0.000000,1.598539,0.372929,0.078558,-0.833208,0.233830,0.905336,0.743622
0.213000,-0.499888,-0.499865,0.800041,0.999924,0.004776,-0.011335,0.001043,-0.499835,-0.499823,0.800109,0.999924,0.004776,-0.011339,0.001044,200.000000,100.000000,0.000000,0.001025,0.000000,0.000000,0.000000,0.000000,0.000000,0.000000,1.598540,0.372932,0.078558,-0.833202,0.233829,0.905338,0.743623
0.215000,-0.499888,-0.499865,0.800040,0.999924,0.004776,-0.011335,0.001043,-0.499835,-0.499822,0.800109,0.999924,0.004776,-0.011339,0.001044,200.000000,100.000000,0.000000,0.000976,0.000000,0.000000,0.000000,0.000000,0.000000,0.000000,1.598540,0.372936,0.078558,-0.833197,0.233829,0.905340,0.743624
0.216000,-0.499889,-0.499866,0.800040,0.999924,0.004776,-0.011335,0.001043,-0.499835,-0.499821,0.800109,0.999924,0.004776,-0.011339,0.001044,200.000000,100.000000,0.000000,0.001017,0.000000,0.000000,0.000000,0.000000,0.000000,0.000000,1.598540,0.372939,0.078558,-0.833191,0.233828,0.905342,0.743624
0.217000,-0.499889,-0.499866,0.800039,0.999924,0.004776,-0.011335,0.001043,-0.499835,-0.499819,0.800109,0.999924,0.004776,-0.011339,0.001044,200.000000,100.000000,0.000000,0.000967,0.000000,0.000000,0.000000,0.000000,0.000000,0.000000,1.598541,0.372942,0.078558,-0.833186,0.233828,0.905344,0.743625
0.218000,-0.499890,-0.499866,0.800038,0.999924,0.004776,-0.011335,0.001043,-0.499835,-0.499817,0.800109,0.999924,0.004776,-0.011339,0.001044,200.000000,100.000000,0.000000,0.001007,0.000000,0.000000,0.000000,0.000000,0.000000,0.000000,1.598541,0.372946,0.078558,-0.833181,0.233827,0.905346,0.743626
0.219000,-0.499890,-0.499867,0.800038,0.999924,0.004776,-0.011335,0.001043,-0.499835,-0.499816,0.800109,0.999924,0.004776,-0.011339,0.001044,200.000000,100.000000,0.000000,0.000959,0.000000,0.000000,0.000000,0.000000,0.000000,0.000000,1.598541,0.372949,0.078558,-0.833176,0.233826,0.905348,0.743626
0.220000,-0.499891,-0.499867,0.800037,0.999924,0.004776,-0.011335,0.001043,-0.499835,-0.499816,0.800109,0.999924,0.004776,-0.011339,0.001044,200.000000,100.000000,0.000000,0.001000,0.000000,0.000000,0.000000,0.000000,0.000000,0.000000,1.598542,0.372952,0.078557,-0.833170,0.233826,0.905350,0.743627
0.221000,-0.499891,-0.499868,0.800036,0.999924,0.004776,-0.011335,0.001043,-0.499835,-0.499814,0.800109,0.999924,0.004776,-0.011339,0.001044,200.000000,100.000000,0.000000,0.000950,0.000000,0.000000,0.000000,0.000000,0.000000,0.000000,1.598542,0.372956,0.078557,-0.833165,0.233825,0.905352,0.743628
0.222000,-0.499892,-0.499868,0.800035,0.999924,0.004776,-0.011335,0.001043,-0.499835,-0.499809,0.800109,0.999924,0.004776,-0.011339,0.001044,200.000000,100.000000,0.000000,0.000991,0.000000,0.000000,0.000000,0.000000,0.000000,0.000000,1.598543,0.372959,0.078557,-0.833160,0.233824,0.905354,0.743628
0.223000,-0.499893,-0.499869,0.800035,0.999924,0.004776,-0.011335,0.001043,-0.499835,-0.499807,0.800109,0.999924,0.004776,-0.011339,0.001044,200.000000,100.000000,0.000000,0.000941,0.000000,0.000000,0.000000,0.000000,0.000000,0.000000,1.598543,0.372962,0.078557,-0.833155,0.233824,0.905356,0.743629
0.224000,-0.499893,-0.499869,0.800034,0.999924,0.004776,-0.011335,0.001043,-0.499835,-0.499804,0.800109,0.999924,0.004776,-0.011339,0.001044,200.000000,100.000000,0.000000,0.000982,0.000000,0.000000,0.000000,0.000000,0.000000,0.000000,1.598543,0.372965,0.078557,-0.833150,0.233823,0.905358,0.743629
0.225000,-0.499894,-0.499870,0.800033,0.999924,0.004776,-0.011335,0.001043,-0.499835,-0.499801,0.800109,0.999924,0.004776,-0.011339,0.001044,200.000000,100.000000,0.000000,0.000933,0.000000,0.000000,0.000000,0.000000,0.000000,0.000000,1.598543,0.372969,0.078557,-0.833145,0.233823,0.905359,0.743630
0.226000,-0.499894,-0.499870,0.800033,0.999924,0.004776,-0.011335,0.001043,-0.499835,-0.499798,0.800109,0.999924,0.004776,-0.011339,0.001044,200.000000,100.000000,0.000000,0.000974,0.000000,0.000000,0.000000,0.000000,0.000000,0.000000,1.598544,0.372972,0.078557,-0.833140,0.233822,0.905361,0.743631
0.227000,-0.499895,-0.499870,0.800032,0.999924,0.004776,-0.011335,0.001043,-0.499835,-0.499795,0.800109,0.999924,0.004776,-0.011339,0.001044,200.000000,100.000000,0.000000,0.000924,0.000000,0.000000,0.000000,0.000000,0.000000,0.000000,1.598544,0.372975,0.078557,-0.833135,0.233821,0.905363,0.743631
0.228000,-0.499895,-0.499871,0.800031,0.999924,0.004776,-0.011335,0.001043,-0.499835,-0.499791,0.800109,0.999924,0.004776,-0.011339,0.001044,200.000000,100.000000,0.000000,0.000966,0.000000,0.000000,0.000000,0.000000,0.000000,0.000000,1.598544,0.372978,0.078557,-0.833129,0.233821,0.905365,0.743632
0.229000,-0.499896,-0.499871,0.800031,0.999924,0.004776,-0.011334,0.001043,-0.499835,-0.499788,0.800109,0.999924,0.004776,-0.011339,0.001044,200.000000,100.000000,0.000000,0.000915,0.000000,0.000000,0.000000,0.000000,0.000000,0.000000,1.598545,0.372981,0.078557,-0.833125,0.233820,0.905367,0.743632
0.230000,-0.499896,-0.499872,0.800030,0.999924,0.004776,-0.011334,0.001043,-0.499835,-0.499784,0.800109,0.999924,0.004776,-0.011339,0.001044,200.000000,100.000000,0.000000,0.000956,0.000000,0.000000,0.000000,0.000000,0.000000,0.000000,1.598545,0.372985,0.078557,-0.833120,0.233819,0.905369,0.743633
0.231000,-0.499897,-0.499872,0.800030,0.999924,0.004776,-0.011334,0.001043,-0.499835,-0.499780,0.800109,0.999924,0.004776,-0.011339,0.001044,200.000000,100.000000,0.000000,0.000907,0.000000,0.000000,0.000000,0.000000,0.000000,0.000000,1.598545,0.372988,0.078557,-0.833115,0.233819,0.905370,0.743634
0.232000,-0.499897,-0.499872,0.800029,0.999924,0.004776,-0.011334,0.001043,-0.499835,-0.499775,0.800109,0.999924,0.004776,-0.011339,0.001044,200.000000,100.000000,0.000000,0.000948,0.000000,0.000000,0.000000,0.000000,0.000000,0.000000,1.598546,0.372991,0.078557,-0.833110,0.233818,0.905372,0.743634
0.233000,-0.499898,-0.499873,0.800028,0.999924,0.004776,-0.011334,0.001043,-0.499835,-0.499771,0.800109,0.999924,0.004776,-0.011339,0.001044,200.000000,100.000000,0.000000,0.000898,0.000000,0.000000,0.000000,0.000000,0.000000,0.000000,1.598546,0.372994,0.078557,-0.833105,0.233818,0.905374,0.743635
0.234000,-0.499898,-0.499873,0.800028,0.999924,0.004776,-0.011334,0.001043,-0.499835,-0.499771,0.800109,0.999924,0.004776,-0.011339,0.001044,200.000000,100.000000,0.000000,0.000939,0.000000,0.000000,0.000000,0.000000,0.000000,0.000000,1.598546,0.372997,0.078557,-0.833100,0.233817,0.905376,0.743636
0.235000,-0.499899,-0.499874,0.800027,0.999924,0.004776,-0.011334,0.001043,-0.499835,-0.499761,0.800109,0.999924,0.004776,-0.011339,0.001044,200.000000,100.000000,0.000000,0.000889,0.000000,0.000000,0.000000,0.000000,0.000000,0.000000,1.598546,0.373000,0.078557,-0.833095,0.233816,0.905378,0.743636
0.236000,-0.499899,-0.499874,0.800026,0.999924,0.004776,-0.011334,0.001043,-0.499835,-0.499756,0.800109,0.999924,0.004776,-0.011339,0.001044,200.000000,100.000000,0.000000,0.000931,0.000000,0.000000,0.000000,0.000000,0.000000,0.000000,1.598547,0.373003,0.078557,-0.833090,0.233816,0.905379,0.743637
0.237000,-0.499900,-0.499874,0.800026,0.999924,0.004776,-0.011334,0.001043,-0.499835,-0.499751,0.800109,0.999924,0.004776,-0.011339,0.001044,200.000000,100.000000,0.000000,0.000881,0.000000,0.000000,0.000000,0.000000,0.000000,0.000000,1.598547,0.373006,0.078557,-0.833086,0.233815,0.905381,0.743637
0.238000,-0.499900,-0.499875,0.800025,0.999924,0.004776,-0.011334,0.001043,-0.499835,-0.499745,0.800109,0.999924,0.004776,-0.011339,0.001044,200.000000,100.000000,0.000000,0.000922,0.000000,0.000000,0.000000,0.000000,0.000000,0.000000,1.598547,0.373009,0.078557,-0.833081,0.233815,0.905383,0.743638
0.239000,-0.499901,-0.499875,0.800024,0.999924,0.004776,-0.011334,0.001043,-0.499835,-0.499740,0.800109,0.999924,0.004776,-0.011339,0.001044,200.000000,100.000000,0.000000,0.000871,0.000000,0.000000,0.000000,0.000000,0.000000,0.000000,1.598548,0.373012,0.078557,-0.833076,0.233814,0.905385,0.743638
0.240000,-0.499901,-0.499876,0.800024,0.999924,0.004776,-0.011334,0.001043,-0.499835,-0.499734,0.800109,0.999924,0.004776,-0.011339,0.001044,200.000000,100.000000,0.000000,0.000913,0.000000,0.000000,0.000000,0.000000,0.000000,0.000000,1.598548,0.373015,0.078557,-0.833072,0.233813,0.905386,0.743639
0.241000,-0.499902,-0.499876,0.800023,0.999924,0.004776,-0.011334,0.001043,-0.499835,-0.499728,0.800109,0.999924,0.004776,-0.011339,0.001044,200.000000,100.000000,0.000000,0.000863,0.000000,0.000000,0.000000,0.000000,0.000000,0.000000,1.598548,0.373018,0.078557,-0.833067,0.233813,0.905388,0.743639
0.242000,-0.499902,-0.499876,0.800022,0.999924,0.004776,-0.011334,0.001043,-0.499835,-0.499721,0.800109,0.999924,0.004776,-0.011339,0.001044,200.000000,100.000000,0.000000,0.000905,0.000000,0.000000,0.000000,0.000000,0.000000,0.000000,1.598548,0.373021,0.078557,-0.833062,0.233812,0.905390,0.743640
0.243000,-0.499903,-0.499877,0.800022,0.999924,0.004776,-0.011334,0.001043,-0.499835,-0.499715,0.800109,0.999924,0.004776,-0.011339,0.001044,200.000000,100.000000,0.000000,0.000853,0.000000,0.000000,0.000000,0.000000,0.000000,0.000000,1.598549,0.373024,0.078557,-0.833058,0.233812,0.905391,0.743641
0.243000,-0.499903,-0.499877,0.800021,0.999924,0.004776,-0.011334,0.001043,-0.499835,-0.499715,0.800109,0.999924,0.004776,-0.011339,0.001044,200.000000,100.000000,0.000000,0.000895,0.000000,0.000000,0.000000,0.000000,0.000000,0.000000,1.598549,0.373027,0.078557,-0.833053,0.233811,0.905393,0.743641
0.245000,-0.499904,-0.499877,0.800021,0.999924,0.004776,-0.011334,0.001043,-0.499835,-0.499715,0.800109,0.999924,0.004776,-0.011339,0.001044,200.000000,100.000000,0.000000,0.000846,0.000000,0.000000,0.000000,0.000000,0.000000,0.000000,1.598549,0.373030,0.078557,-0.833049,0.233810,0.905395,0.743642
0.246000,-0.499904,-0.499878,0.800020,0.999924,0.004776,-0.011334,0.001043,-0.499835,-0.499694,0.800109,0.999924,0.004776,-0.011339,0.001044,200.000000,100.000000,0.000000,0.000887,0.000000,0.000000,0.000000,0.000000,0.000000,0.000000,1.598549,0.373033,0.078556,-0.833044,0.233810,0.905396,0.743642
0.247000,-0.499905,-0.499878,0.800019,0.999924,0.004776,-0.011334,0.001043,-0.499835,-0.499694,0.800109,0.999924,0.004776,-0.011339,0.001044,200.000000,100.000000,0.000000,0.000836,0.000000,0.000000,0.000000,0.000000,0.000000,0.000000,1.598550,0.373036,0.078557,-0.833040,0.233809,0.905398,0.743643
0.247000,-0.499905,-0.499878,0.800019,0.999924,0.004776,-0.011334,0.001043,-0.499835,-0.499679,0.800109,0.999924,0.004776,-0.011339,0.001044,200.000000,100.000000,0.000000,0.000879,0.000000,0.000000,0.000000,0.000000,0.000000,0.000000,1.598550,0.373039,0.078556,-0.833035,0.233809,0.905399,0.743643
0.249000,-0.499906,-0.499879,0.800018,0.999924,0.004776,-0.011334,0.001043,-0.499835,-0.499679,0.800109,0.999924,0.004776,-0.011339,0.001044,200.000000,100.000000,0.000000,0.000827,0.000000,0.000000,0.000000,0.000000,0.000000,0.000000,1.598550,0.373041,0.078556,-0.833031,0.233808,0.905401,0.743644
0.250000,-0.499906,-0.499879,0.800017,0.999924,0.004776,-0.011334,0.001042,-0.499835,-0.499679,0.800109,0.999924,0.004776,-0.011339,0.001044,200.000000,100.000000,0.000000,0.000869,0.000000,0.000000,0.000000,0.000000,0.000000,0.000000,1.598550,0.373044,0.078556,-0.833027,0.233808,0.905403,0.743644
0.251000,-0.499907,-0.499879,0.800017,0.999924,0.004776,-0.011334,0.001042,-0.499835,-0.499656,0.800109,0.999924,0.004776,-0.011339,0.001044,200.000000,100.000000,0.000000,0.000818,0.000000,0.000000,0.000000,0.000000,0.000000,0.000000,1.598550,0.373047,0.078556,-0.833022,0.233807,0.905404,0.743645
0.252000,-0.499907,-0.499880,0.800016,0.999924,0.004776,-0.011334,0.001042,-0.499835,-0.499647,0.800109,0.999924,0.004776,-0.011339,0.001044,200.000000,100.000000,0.000000,0.000861,0.000000,0.000000,0.000000,0.000000,0.000000,0.000000,1.598551,0.373050,0.078556,-0.833018,0.233807,0.905406,0.743645
0.253000,-0.499908,-0.499880,0.800016,0.999924,0.004776,-0.011334,0.001042,-0.499835,-0.499639,0.800109,0.999924,0.004776,-0.011339,0.001044,200.000000,100.000000,0.000000,0.000809,0.000000,0.000000,0.000000,0.000000,0.000000,0.000000,1.598551,0.373053,0.078556,-0.833014,0.233806,0.905407,0.743646
0.254000,-0.499908,-0.499880,0.800015,0.999924,0.004776,-0.011334,0.001042,-0.499835,-0.499639,0.800109,0.999924,0.004776,-0.011339,0.001044,200.000000,100.000000,0.000000,0.000852,0.000000,0.000000,0.000000,0.000000,0.000000,0.000000,1.598551,0.373056,0.078556,-0.833009,0.233806,0.905409,0.743646
0.255000,-0.499908,-0.499881,0.800014,0.999924,0.004776,-0.011333,0.001042,-0.499835,-0.499621,0.800109,0.999924,0.004776,-0.011339,0.001044,200.000000,100.000000,0.000000,0.000801,0.000000,0.000000,0.000000,0.000000,0.000000,0.000000,1.598551,0.373058,0.078556,-0.833005,0.233805,0.905410,0.743647
0.256000,-0.499909,-0.499881,0.800014,0.999924,0.004776,-0.011333,0.001042,-0.499835,-0.499612,0.800109,0.999924,0.004776,-0.011339,0.001044,200.000000,100.000000,0.000000,0.000844,0.000000,0.000000,0.000000,0.000000,0.000000,0.000000,1.598551,0.373061,0.078556,-0.833001,0.233805,0.905412,0.743647
0.257000,-0.499909,-0.499881,0.800013,0.999924,0.004776,-0.011333,0.001042,-0.499835,-0.499603,0.800109,0.999924,0.004776,-0.011339,0.001044,200.000000,100.000000,0.000000,0.000792,0.000000,0.000000,0.000000,0.000000,0.000000,0.000000,1.598552,0.373064,0.078556,-0.832997,0.233804,0.905413,0.743647
0.257000,-0.499910,-0.499882,0.800013,0.999924,0.004776,-0.011333,0.001042,-0.499835,-0.499593,0.800109,0.999924,0.004776,-0.011339,0.001044,200.000000,100.000000,0.000000,0.000835,0.000000,0.000000,0.000000,0.000000,0.000000,0.000000,1.598552,0.373066,0.078556,-0.832993,0.233804,0.905415,0.743648
0.259000,-0.499910,-0.499882,0.800012,0.999924,0.004776,-0.011333,0.001042,-0.499835,-0.499593,0.800109,0.999924,0.004776,-0.011339,0.001044,200.000000,100.000000,0.000000,0.000783,0.000000,0.000000,0.000000,0.000000,0.000000,0.000000,1.598552,0.373069,0.078556,-0.832989,0.233803,0.905416,0.743648
0.260000,-0.499911,-0.499882,0.800011,0.999924,0.004776,-0.011333,0.001042,-0.499835,-0.499574,0.800109,0.999924,0.004776,-0.011339,0.001044,200.000000,100.000000,0.000000,0.000827,0.000000,0.000000,0.000000,0.000000,0.000000,0.000000,1.598552,0.373072,0.078556,-0.832985,0.233803,0.905417,0.743649
0.261000,-0.499911,-0.499882,0.800011,0.999924,0.004776,-0.011333,0.001042,-0.499835,-0.499564,0.800109,0.999924,0.004776,-0.011339,0.001044,200.000000,100.000000,0.000000,0.000775,0.000000,0.000000,0.000000,0.000000,0.000000,0.000000,1.598552,0.373074,0.078556,-0.832981,0.233802,0.905419,0.743649
0.262000,-0.499912,-0.499883,0.800010,0.999924,0.004776,-0.011333,0.001042,-0.499835,-0.499564,0.800109,0.999924,0.004776,-0.011339,0.001044,200.000000,100.000000,0.000000,0.000817,0.000000,0.000000,0.000000,0.000000,0.000000,0.000000,1.598552,0.373077,0.078556,-0.832977,0.233802,0.905420,0.743649
0.263000,-0.499912,-0.499883,0.800010,0.999924,0.004776,-0.011333,0.001042,-0.499835,-0.499553,0.800109,0.999924,0.004776,-0.011339,0.001044,200.000000,100.000000,0.000000,0.000767,0.000000,0.000000,0.000000,0.000000,0.000000,0.000000,1.598553,0.373080,0.078556,-0.832973,0.233801,0.905421,0.743650
0.264000,-0.499913,-0.499883,0.800009,0.999924,0.004776,-0.011333,0.001042,-0.499835,-0.499532,0.800109,0.999924,0.004776,-0.011339,0.001044,200.000000,100.000000,0.000000,0.000811,0.000000,0.000000,0.000000,0.000000,0.000000,0.000000,1.598553,0.373082,0.078556,-0.832969,0.233801,0.905423,0.743650
0.265000,-0.499913,-0.499883,0.800008,0.999924,0.004776,-0.011333,0.001042,-0.499835,-0.499532,0.800109,0.999924,0.004776,-0.011339,0.001044,200.000000,100.000000,0.000000,0.000758,0.000000,0.000000,0.000000,0.000000,0.000000,0.000000,1.598553,0.373085,0.078556,-0.832966,0.233801,0.905424,0.743650
0.266000,-0.499913,-0.499884,0.800008,0.999924,0.004776,-0.011333,0.001042,-0.499835,-0.499521,0.800109,0.999924,0.004776,-0.011339,0.001044,200.000000,100.000000,0.000000,0.000803,0.000000,0.000000,0.000000,0.000000,0.000000,0.000000,1.598553,0.373087,0.078556,-0.832962,0.233800,0.905425,0.743651
0.267000,-0.499914,-0.499884,0.800007,0.999924,0.004776,-0.011333,0.001042,-0.499835,-0.499499,0.800109,0.999924,0.004776,-0.011339,0.001044,200.000000,100.000000,0.000000,0.000750,0.000000,0.000000,0.000000,0.000000,0.000000,0.000000,1.598553,0.373090,0.078556,-0.832958,0.233800,0.905427,0.743651
0.268000,-0.499914,-0.499884,0.800007,0.999924,0.004776,-0.011333,0.001042,-0.499835,-0.499499,0.800109,0.999924,0.004776,-0.011339,0.001044,200.000000,100.000000,0.000000,0.000795,0.000000,0.000000,0.000000,0.000000,0.000000,0.000000,1.598553,0.373092,0.078556,-0.832954,0.233799,0.905428,0.743651
0.269000,-0.499915,-0.499884,0.800006,0.999924,0.004776,-0.011333,0.001042,-0.499835,-0.499476,0.800109,0.999924,0.004776,-0.011339,0.001044,200.000000,100.000000,0.000000,0.000744,0.000000,0.000000,0.000000,0.000000,0.000000,0.000000,1.598553,0.373095,0.078556,-0.832951,0.233799,0.905429,0.743652
0.270000,-0.499915,-0.499884,0.800005,0.999924,0.004776,-0.011333,0.001041,-0.499835,-0.499464,0.800109,0.999924,0.004776,-0.011339,0.001044,200.000000,100.000000,0.000000,0.000788,0.000000,0.000000,0.000000,0.000000,0.000000,0.000000,1.598553,0.373097,0.078556,-0.832947,0.233799,0.905431,0.743652
0.271000,-0.499916,-0.499884,0.800005,0.999924,0.004776,-0.011333,0.001041,-0.499835,-0.499452,0.800109,0.999924,0.004776,-0.011339,0.001044,200.000000,100.000000,0.000000,0.000736,0.000000,0.000000,0.000000,0.000000,0.000000,0.000000,1.598554,0.373100,0.078556,-0.832944,0.233798,0.905432,0.743652
0.272000,-0.499916,-0.499885,0.800004,0.999924,0.004776,-0.011333,0.001041,-0.499835,-0.499452,0.800109,0.999924,0.004776,-0.011339,0.001044,200.000000,100.000000,0.000000,0.000782,0.000000,0.000000,0.000000,0.000000,0.000000,0.000000,1.598554,0.373102,0.078556,-0.832940,0.233798,0.905433,0.743652
0.273000,-0.499917,-0.499885,0.800004,0.999924,0.004776,-0.011333,0.001041,-0.499835,-0.499452,0.800109,0.999924,0.004776,-0.011339,0.001044,200.000000,100.000000,0.000000,0.000729,0.000000,0.000000,0.000000,0.000000,0.000000,0.000000,1.598554,0.373105,0.078556,-0.832937,0.233798,0.905434,0.743652
0.274000,-0.499917,-0.499885,0.800003,0.999924,0.004776,-0.011333,0.001041,-0.499835,-0.499414,0.800109,0.999924,0.004776,-0.011339,0.001044,200.000000,100.000000,0.000000,0.000775,0.000000,0.000000,0.000000,0.000000,0.000000,0.000000,1.598554,0.373107,0.078555,-0.832933,0.233798,0.905435,0.743653
0.275000,-0.499917,-0.499885,0.800002,0.999924,0.004776,-0.011333,0.001041,-0.499835,-0.499401,0.800109,0.999924,0.004776,-0.011339,0.001044,200.000000,100.000000,0.000000,0.000723,0.000000,0.000000,0.000000,0.000000,0.000000,0.000000,1.598554,0.373109,0.078555,-0.832930,0.233797,0.905436,0.743653
0.276000,-0.499918,-0.499885,0.800002,0.999924,0.004776,-0.011333,0.001041,-0.499835,-0.499388,0.800109,0.999924,0.004776,-0.011339,0.001044,200.000000,100.000000,0.000000,0.000769,0.000000,0.000000,0.000000,0.000000,0.000000,0.000000,1.598554,0.373112,0.078555,-0.832927,0.233797,0.905437,0.743653
0.277000,-0.499918,-0.499885,0.800001,0.999924,0.004776,-0.011333,0.001041,-0.499835,-0.499375,0.800109,0.999924,0.004776,-0.011339,0.001044,200.000000,100.000000,0.000000,0.000718,0.000000,0.000000,0.000000,0.000000,0.000000,0.000000,1.598554,0.373114,0.078555,-0.832924,0.233797,0.905439,0.743653
0.278000,-0.499919,-0.499885,0.800001,0.999924,0.004776,-0.011333,0.001041,-0.499835,-0.499361,0.800109,0.999924,0.004776,-0.011339,0.001044,200.000000,100.000000,0.000000,0.000765,0.000000,0.000000,0.000000,0.000000,0.000000,0.000000,1.598554,0.373117,0.078555,-0.832920,0.233797,0.905440,0.743653
0.279000,-0.499919,-0.499886,0.800000,0.999924,0.004776,-0.011333,0.001041,-0.499835,-0.499348,0.800109,0.999924,0.004776,-0.011339,0.001044,200.000000,100.000000,0.000000,0.000713,0.000000,0.000000,0.000000,0.000000,0.000000,0.000000,1.598554,0.373119,0.078555,-0.832917,0.233797,0.905441,0.743653
0.280000,-0.499920,-0.499886,0.799999,0.999924,0.004776,-0.011333,0.001041,-0.499835,-0.499334,0.800109,0.999924,0.004776,-0.011339,0.001044,200.000000,100.000000,0.000000,0.000760,0.000000,0.000000,0.000000,0.000000,0.000000,0.000000,1.598554,0.373121,0.078555,-0.832914,0.233796,0.905442,0.743653
0.281000,-0.499920,-0.499886,0.799999,0.999924,0.004776,-0.011333,0.001041,-0.499835,-0.499320,0.800109,0.999924,0.004776,-0.011339,0.001044,200.000000,100.000000,0.000000,0.000709,0.000000,0.000000,0.000000,0.000000,0.000000,0.000000,1.598554,0.373123,0.078555,-0.832911,0.233796,0.905443,0.743653
0.282000,-0.499920,-0.499886,0.799998,0.999924,0.004776,-0.011333,0.001041,-0.499835,-0.499305,0.800109,0.999924,0.004776,-0.011339,0.001044,200.000000,100.000000,0.000000,0.000756,0.000000,0.000000,0.000000,0.000000,0.000000,0.000000,1.598554,0.373126,0.078554,-0.832908,0.233796,0.905444,0.743653
0.283000,-0.499921,-0.499886,0.799998,0.999924,0.004776,-0.011333,0.001040,-0.499835,-0.499291,0.800109,0.999924,0.004776,-0.011339,0.001044,200.000000,100.000000,0.000000,0.000706,0.000000,0.000000,0.000000,0.000000,0.000000,0.000000,1.598554,0.373128,0.078554,-0.832905,0.233796,0.905445,0.743653
0.284000,-0.499921,-0.499886,0.799997,0.999924,0.004776,-0.011333,0.001040,-0.499835,-0.499291,0.800109,0.999924,0.004776,-0.011339,0.001044,200.000000,100.000000,0.000000,0.000754,0.000000,0.000000,0.000000,0.000000,0.000000,0.000000,1.598554,0.373130,0.078554,-0.832902,0.233796,0.905446,0.743653
0.285000,-0.499922,-0.499886,0.799996,0.999924,0.004776,-0.011332,0.001040,-0.499835,-0.499261,0.800109,0.999924,0.004776,-0.011339,0.001044,200.000000,100.000000,0.000000,0.000704,0.000000,0.000000,0.000000,0.000000,0.000000,0.000000,1.598554,0.373132,0.078554,-0.832899,0.233796,0.905446,0.743653
0.286000,-0.499922,-0.499886,0.799996,0.999924,0.004776,-0.011332,0.001040,-0.499835,-0.499261,0.800109,0.999924,0.004776,-0.011339,0.001044,200.000000,100.000000,0.000000,0.000752,0.000000,0.000000,0.000000,0.000000,0.000000,0.000000,1.598554,0.373134,0.078554,-0.832897,0.233796,0.905447,0.743653
0.287000,-0.499923,-0.499886,0.799995,0.999924,0.004776,-0.011332,0.001040,-0.499835,-0.499231,0.800109,0.999924,0.004776,-0.011339,0.001044,200.000000,100.000000,0.000000,0.000703,0.000000,0.000000,0.000000,0.000000,0.000000,0.000000,1.598554,0.373136,0.078554,-0.832894,0.233796,0.905448,0.743653
0.288000,-0.499923,-0.499886,0.799995,0.999924,0.004776,-0.011332,0.001040,-0.499835,-0.499215,0.800109,0.999924,0.004776,-0.011339,0.001044,200.000000,100.000000,0.000000,0.000752,0.000000,0.000000,0.000000,0.000000,0.000000,0.000000,1.598554,0.373139,0.078553,-0.832891,0.233796,0.905449,0.743653
0.289000,-0.499923,-0.499886,0.799994,0.999924,0.004776,-0.011332,0.001040,-0.499835,-0.499200,0.800109,0.999924,0.004776,-0.011339,0.001044,200.000000,100.000000,0.000000,0.000704,0.000000,0.000000,0.000000,0.000000,0.000000,0.000000,1.598554,0.373141,0.078553,-0.832889,0.233796,0.905450,0.743653
0.290000,-0.499924,-0.499886,0.799993,0.999924,0.004776,-0.011332,0.001040,-0.499835,-0.499184,0.800109,0.999924,0.004776,-0.011339,0.001044,200.000000,100.000000,0.000000,0.000753,0.000000,0.000000,0.000000,0.000000,0.000000,0.000000,1.598554,0.373143,0.078553,-0.832886,0.233796,0.905451,0.743653
0.291000,-0.499924,-0.499886,0.799993,0.999924,0.004776,-0.011332,0.001040,-0.499835,-0.499184,0.800109,0.999924,0.004776,-0.011339,0.001044,200.000000,100.000000,0.000000,0.000705,0.000000,0.000000,0.000000,0.000000,0.000000,0.000000,1.598553,0.373145,0.078553,-0.832884,0.233796,0.905451,0.743652
0.292000,-0.499925,-0.499886,0.799992,0.999924,0.004776,-0.011332,0.001039,-0.499835,-0.499151,0.800109,0.999924,0.004776,-0.011339,0.001044,200.000000,100.000000,0.000000,0.000754,0.000000,0.000000,0.000000,0.000000,0.000000,0.000000,1.598553,0.373147,0.078553,-0.832881,0.233796,0.905452,0.743652
0.293000,-0.499925,-0.499886,0.799992,0.999924,0.004776,-0.011332,0.001039,-0.499835,-0.499135,0.800109,0.999924,0.004776,-0.011339,0.001044,200.000000,100.000000,0.000000,0.000709,0.000000,0.000000,0.000000,0.000000,0.000000,0.000000,1.598553,0.373149,0.078552,-0.832879,0.233796,0.905453,0.743652
0.294000,-0.499925,-0.499886,0.799991,0.999924,0.004776,-0.011332,0.001039,-0.499835,-0.499135,0.800109,0.999924,0.004776,-0.011339,0.001044,200.000000,100.000000,0.000000,0.000759,0.000000,0.000000,0.000000,0.000000,0.000000,0.000000,1.598553,0.373151,0.078552,-0.832876,0.233796,0.905453,0.743652
0.295000,-0.499926,-0.499885,0.799991,0.999924,0.004776,-0.011332,0.001039,-0.499835,-0.499101,0.800109,0.999924,0.004776,-0.011339,0.001044,200.000000,100.000000,0.000000,0.000713,0.000000,0.000000,0.000000,0.000000,0.000000,0.000000,1.598553,0.373153,0.078552,-0.832874,0.233797,0.905454,0.743651
0.296000,-0.499926,-0.499885,0.799990,0.999924,0.004776,-0.011332,0.001039,-0.499835,-0.499101,0.800109,0.999924,0.004776,-0.011339,0.001044,200.000000,100.000000,0.000000,0.000764,0.000000,0.000000,0.000000,0.000000,0.000000,0.000000,1.598553,0.373155,0.078552,-0.832872,0.233797,0.905455,0.743651
0.297000,-0.499927,-0.499885,0.799989,0.999924,0.004776,-0.011332,0.001039,-0.499835,-0.499067,0.800109,0.999924,0.004776,-0.011339,0.001044,200.000000,100.000000,0.000000,0.000720,0.000000,0.000000,0.000000,0.000000,0.000000,0.000000,1.598553,0.373156,0.078551,-0.832870,0.233797,0.905455,0.743651
0.298000,-0.499927,-0.499885,0.799989,0.999924,0.004776,-0.011332,0.001039,-0.499835,-0.499049,0.800109,0.999924,0.004776,-0.011339,0.001044,200.000000,100.000000,0.000000,0.000770,0.000000,0.000000,0.000000,0.000000,0.000000,0.000000,1.598553,0.373158,0.078551,-0.832868,0.233797,0.905456,0.743650
0.299000,-0.499928,-0.499885,0.799988,0.999924,0.004776,-0.011332,0.001039,-0.499835,-0.499049,0.800109,0.999924,0.004776,-0.011339,0.001044,200.000000,100.000000,0.000000,0.000728,0.000000,0.000000,0.000000,0.000000,0.000000,0.000000,1.598552,0.373160,0.078551,-0.832866,0.233798,0.905456,0.743650
0.300000,-0.499928,-0.499885,0.799988,0.999924,0.004776,-0.011332,0.001038,-0.499835,-0.499014,0.800109,0.999924,0.004776,-0.011339,0.001044,200.000000,100.000000,0.000000,0.000779,0.000000,0.000000,0.000000,0.000000,0.000000,0.000000,1.598552,0.373162,0.078550,-0.832864,0.233798,0.905457,0.743649
0.301000,-0.499928,-0.499885,0.799987,0.999924,0.004776,-0.011332,0.001038,-0.499835,-0.499014,0.800109,0.999924,0.004776,-0.011339,0.001044,200.000000,100.000000,0.000000,0.000738,0.000000,0.000000,0.000000,0.000000,0.000000,0.000000,1.598552,0.373164,0.078550,-0.832862,0.233798,0.905457,0.743649
0.302000,-0.499929,-0.499884,0.799986,0.999924,0.004776,-0.011332,0.001038,-0.499835,-0.498977,0.800109,0.999924,0.004776,-0.011339,0.001044,200.000000,100.000000,0.000000,0.000789,0.000000,0.000000,0.000000,0.000000,0.000000,0.000000,1.598552,0.373166,0.078550,-0.832860,0.233799,0.905458,0.743648
0.303000,-0.499929,-0.499884,0.799986,0.999924,0.004776,-0.011332,0.001038,-0.499835,-0.498959,0.800109,0.999924,0.004776,-0.011339,0.001044,200.000000,100.000000,0.000000,0.000750,0.000000,0.000000,0.000000,0.000000,0.000000,0.000000,1.598551,0.373167,0.078549,-0.832859,0.233799,0.905458,0.743648
0.303000,-0.499930,-0.499884,0.799985,0.999924,0.004776,-0.011332,0.001038,-0.499835,-0.498940,0.800109,0.999924,0.004776,-0.011339,0.001044,200.000000,100.000000,0.000000,0.000802,0.000000,0.000000,0.000000,0.000000,0.000000,0.000000,1.598551,0.373169,0.078549,-0.832857,0.233800,0.905458,0.743647
0.305000,-0.499930,-0.499884,0.799985,0.999924,0.004776,-0.011332,0.001038,-0.499835,-0.498921,0.800109,0.999924,0.004776,-0.011339,0.001044,200.000000,100.000000,0.000000,0.000765,0.000000,0.000000,0.000000,0.000000,0.000000,0.000000,1.598551,0.373171,0.078549,-0.832855,0.233800,0.905459,0.743646
0.305000,-0.499931,-0.499883,0.799984,0.999924,0.004776,-0.011332,0.001037,-0.499835,-0.498902,0.800109,0.999924,0.004776,-0.011339,0.001044,200.000000,100.000000,0.000000,0.000815,0.000000,0.000000,0.000000,0.000000,0.000000,0.000000,1.598551,0.373172,0.078548,-0.832854,0.233801,0.905459,0.743646
0.307000,-0.499931,-0.499883,0.799983,0.999924,0.004776,-0.011332,0.001037,-0.499835,-0.498883,0.800109,0.999924,0.004776,-0.011339,0.001044,200.000000,100.000000,0.000000,0.000782,0.000000,0.000000,0.000000,0.000000,0.000000,0.000000,1.598550,0.373174,0.078548,-0.832852,0.233801,0.905459,0.743645
0.308000,-0.499931,-0.499883,0.799983,0.999924,0.004776,-0.011332,0.001037,-0.499835,-0.498863,0.800109,0.999924,0.004776,-0.011339,0.001044,200.000000,100.000000,0.000000,0.000832,0.000000,0.000000,0.000000,0.000000,0.000000,0.000000,1.598550,0.373176,0.078547,-0.832851,0.233802,0.905459,0.743644
0.309000,-0.499932,-0.499882,0.799982,0.999924,0.004776,-0.011332,0.001037,-0.499835,-0.498863,0.800109,0.999924,0.004776,-0.011339,0.001044,200.000000,100.000000,0.000000,0.000800,0.000000,0.000000,0.000000,0.000000,0.000000,0.000000,1.598549,0.373177,0.078547,-0.832850,0.233803,0.905459,0.743643
0.310000,-0.499932,-0.499882,0.799981,0.999924,0.004776,-0.011332,0.001037,-0.499835,-0.498824,0.800109,0.999924,0.004776,-0.011339,0.001044,200.000000,100.000000,0.000000,0.000851,0.000000,0.000000,0.000000,0.000000,0.000000,0.000000,1.598549,0.373179,0.078547,-0.832849,0.233803,0.905460,0.743643
0.311000,-0.499933,-0.499882,0.799981,0.999924,0.004776,-0.011332,0.001037,-0.499835,-0.498804,0.800109,0.999924,0.004776,-0.011339,0.001044,200.000000,100.000000,0.000000,0.000820,0.000000,0.000000,0.000000,0.000000,0.000000,0.000000,1.598549,0.373180,0.078546,-0.832848,0.233804,0.905460,0.743642
0.312000,-0.499933,-0.499881,0.799980,0.999924,0.004776,-0.011332,0.001036,-0.499835,-0.498783,0.800109,0.999924,0.004776,-0.011339,0.001044,200.000000,100.000000,0.000000,0.000870,0.000000,0.000000,0.000000,0.000000,0.000000,0.000000,1.598548,0.373182,0.078546,-0.832846,0.233805,0.905460,0.743641
0.312000,-0.499933,-0.499881,0.799980,0.999924,0.004776,-0.011332,0.001036,-0.499835,-0.498763,0.800109,0.999924,0.004776,-0.011339,0.001044,200.000000,100.000000,0.000000,0.000844,0.000000,0.000000,0.000000,0.000000,0.000000,0.000000,1.598548,0.373183,0.078545,-0.832846,0.233805,0.905460,0.743640
0.314000,-0.499934,-0.499880,0.799979,0.999924,0.004776,-0.011332,0.001036,-0.499835,-0.498763,0.800109,0.999924,0.004776,-0.011339,0.001044,200.000000,100.000000,0.000000,0.000894,0.000000,0.000000,0.000000,0.000000,0.000000,0.000000,1.598548,0.373185,0.078545,-0.832845,0.233806,0.905460,0.743639
0.315000,-0.499934,-0.499880,0.799978,0.999924,0.004776,-0.011332,0.001036,-0.499835,-0.498721,0.800109,0.999924,0.004776,-0.011339,0.001044,200.000000,100.000000,0.000000,0.000868,0.000000,0.000000,0.000000,0.000000,0.000000,0.000000,1.598547,0.373186,0.078544,-0.832844,0.233807,0.905460,0.743638
0.316000,-0.499935,-0.499879,0.799978,0.999924,0.004776,-0.011332,0.001036,-0.499835,-0.498700,0.800109,0.999924,0.004776,-0.011339,0.001044,200.000000,100.000000,0.000000,0.000919,0.000000,0.000000,0.000000,0.000000,0.000000,0.000000,1.598547,0.373187,0.078544,-0.832843,0.233808,0.905460,0.743637
0.317000,-0.499935,-0.499879,0.799977,0.999924,0.004776,-0.011332,0.001035,-0.499835,-0.498679,0.800109,0.999924,0.004776,-0.011339,0.001044,200.000000,100.000000,0.000000,0.000895,0.000000,0.000000,0.000000,0.000000,0.000000,0.000000,1.598546,0.373189,0.078543,-0.832842,0.233809,0.905459,0.743636
0.318000,-0.499936,-0.499878,0.799976,0.999924,0.004776,-0.011332,0.001035,-0.499835,-0.498657,0.800109,0.999924,0.004776,-0.011339,0.001044,200.000000,100.000000,0.000000,0.000946,0.000000,0.000000,0.000000,0.000000,0.000000,0.000000,1.598546,0.373190,0.078543,-0.832842,0.233810,0.905459,0.743635
0.319000,-0.499936,-0.499878,0.799976,0.999924,0.004776,-0.011332,0.001035,-0.499835,-0.498636,0.800109,0.999924,0.004776,-0.011339,0.001044,200.000000,100.000000,0.000000,0.000925,0.000000,0.000000,0.000000,0.000000,0.000000,0.000000,1.598545,0.373191,0.078542,-0.832841,0.233811,0.905459,0.743633
0.320000,-0.499937,-0.499877,0.799975,0.999924,0.004776,-0.011332,0.001035,-0.499835,-0.498614,0.800109,0.999924,0.004776,-0.011339,0.001044,200.000000,100.000000,0.000000,0.000976,0.000000,0.000000,0.000000,0.000000,0.000000,0.000000,1.598545,0.373193,0.078541,-0.832841,0.233812,0.905459,0.743632
0.321000,-0.499937,-0.499877,0.799975,0.999924,0.004776,-0.011332,0.001034,-0.499835,-0.498592,0.800109,0.999924,0.004776,-0.011339,0.001044,200.000000,100.000000,0.000000,0.000956,0.000000,0.000000,0.000000,0.000000,0.000000,0.000000,1.598544,0.373194,0.078541,-0.832841,0.233813,0.905459,0.743631
0.322000,-0.499937,-0.499876,0.799974,0.999924,0.004776,-0.011332,0.001034,-0.499835,-0.498569,0.800109,0.999924,0.004776,-0.011339,0.001044,200.000000,100.000000,0.000000,0.001007,0.000000,0.000000,0.000000,0.000000,0.000000,0.000000,1.598543,0.373195,0.078540,-0.832840,0.233814,0.905458,0.743629
0.323000,-0.499938,-0.499875,0.799973,0.999924,0.004776,-0.011332,0.001034,-0.499835,-0.498569,0.800109,0.999924,0.004776,-0.011339,0.001044,200.000000,100.000000,0.000000,0.000990,0.000000,0.000000,0.000000,0.000000,0.000000,0.000000,1.598543,0.373196,0.078540,-0.832840,0.233816,0.905458,0.743628
0.324000,-0.499938,-0.499875,0.799973,0.999924,0.004776,-0.011331,0.001034,-0.499836,-0.498524,0.800109,0.999924,0.004776,-0.011339,0.001044,200.000000,100.000000,0.000000,0.001040,0.000000,0.000000,0.000000,0.000000,0.000000,0.000000,1.598542,0.373197,0.078539,-0.832840,0.233817,0.905457,0.743627
0.325000,-0.499939,-0.499874,0.799972,0.999924,0.004776,-0.011331,0.001034,-0.499836,-0.498501,0.800109,0.999924,0.004776,-0.011339,0.001044,200.000000,100.000000,0.000000,0.001026,0.000000,0.000000,0.000000,0.000000,0.000000,0.000000,1.598541,0.373198,0.078538,-0.832840,0.233818,0.905457,0.743625
0.326000,-0.499939,-0.499873,0.799971,0.999924,0.004776,-0.011331,0.001033,-0.499836,-0.498478,0.800109,0.999924,0.004776,-0.011339,0.001044,200.000000,100.000000,0.000000,0.001075,0.000000,0.000000,0.000000,0.000000,0.000000,0.000000,1.598541,0.373199,0.078537,-0.832841,0.233819,0.905456,0.743624
0.327000,-0.499940,-0.499873,0.799971,0.999924,0.004776,-0.011331,0.001033,-0.499836,-0.498455,0.800109,0.999924,0.004776,-0.011339,0.001044,200.000000,100.000000,0.000000,0.001064,0.000000,0.000000,0.000000,0.000000,0.000000,0.000000,1.598540,0.373200,0.078537,-0.832841,0.233821,0.905456,0.743622
0.328000,-0.499940,-0.499872,0.799970,0.999924,0.004776,-0.011331,0.001033,-0.499836,-0.498455,0.800109,0.999924,0.004776,-0.011339,0.001044,200.000000,100.000000,0.000000,0.001114,0.000000,0.000000,0.000000,0.000000,0.000000,0.000000,1.598539,0.373201,0.078536,-0.832841,0.233822,0.905455,0.743620
0.329000,-0.499940,-0.499871,0.799969,0.999924,0.004776,-0.011331,0.001032,-0.499836,-0.498455,0.800109,0.999924,0.004776,-0.011339,0.001044,200.000000,100.000000,0.000000,0.001104,0.000000,0.000000,0.000000,0.000000,0.000000,0.000000,1.598539,0.373202,0.078535,-0.832842,0.233824,0.905455,0.743619
0.330000,-0.499941,-0.499870,0.799969,0.999924,0.004776,-0.011331,0.001032,-0.499836,-0.498384,0.800109,0.999924,0.004776,-0.011339,0.001044,200.000000,100.000000,0.000000,0.001153,0.000000,0.000000,0.000000,0.000000,0.000000,0.000000,1.598538,0.373203,0.078535,-0.832842,0.233825,0.905454,0.743617
0.331000,-0.499941,-0.499869,0.799968,0.999924,0.004776,-0.011331,0.001032,-0.499836,-0.498360,0.800109,0.999924,0.004776,-0.011339,0.001044,200.000000,100.000000,0.000000,0.001144,0.000000,0.000000,0.000000,0.000000,0.000000,0.000000,1.598537,0.373204,0.078534,-0.832843,0.233827,0.905453,0.743615
0.331000,-0.499942,-0.499869,0.799967,0.999924,0.004776,-0.011331,0.001032,-0.499836,-0.498360,0.800109,0.999924,0.004776,-0.011339,0.001044,200.000000,100.000000,0.000000,0.001194,0.000000,0.000000,0.000000,0.000000,0.000000,0.000000,1.598536,0.373205,0.078533,-0.832843,0.233828,0.905452,0.743613
