matthias-mayr/cartesian_trajectory_generator/generated_logs/publish_rate5.txt
time,position_x,position_y,position_z,orientation_x,orientation_y,orientation_z,orientation_w,position_d_x,position_d_y,position_d_z,orientation_d_x,orientation_d_y,orientation_d_z,orientation_d_w,translational_stiffness,rotational_stiffness,nullspace_stiffness,velocity,f_x,f_y,f_z,tau_x,tau_x,tau_z,joint1,joint2,joint3,joint4,joint5,joint6,joint7
0.000000,-0.500000,-0.500000,0.800000,0.999924,0.004776,-0.011320,0.001026,-0.500000,-0.500000,0.800000,0.999924,0.004776,-0.011320,0.001026,200.000000,100.000000,0.000000,0.000034,0.000000,0.000000,0.000000,0.000000,0.000000,0.000000,1.598399,0.373507,0.078924,-0.832052,0.233405,0.905924,0.743932
0.001000,-0.500000,-0.500000,0.800000,0.999924,0.004776,-0.011320,0.001026,-0.500000,-0.500000,0.800000,0.999924,0.004776,-0.011320,0.001026,200.000000,100.000000,0.000000,0.000034,0.000000,0.000000,0.000000,0.000000,0.000000,0.000000,1.598399,0.373507,0.078924,-0.832052,0.233405,0.905924,0.743932
0.002000,-0.500000,-0.500000,0.800000,0.999924,0.004776,-0.011320,0.001026,-0.500000,-0.500000,0.800000,0.999924,0.004776,-0.011320,0.001026,200.000000,100.000000,0.000000,0.000035,0.000000,0.000000,0.000000,0.000000,0.000000,0.000000,1.598399,0.373507,0.078924,-0.832052,0.233405,0.905924,0.743932
0.003000,-0.500000,-0.500000,0.800000,0.999924,0.004776,-0.011320,0.001026,-0.500000,-0.500000,0.800000,0.999924,0.004776,-0.011320,0.001026,200.000000,100.000000,0.000000,0.000035,0.000000,0.000000,0.000000,0.000000,0.000000,0.000000,1.598399,0.373507,0.078924,-0.832052,0.233405,0.905924,0.743932
0.004000,-0.500000,-0.500000,0.800000,0.999924,0.004776,-0.011320,0.001026,-0.500000,-0.500000,0.800000,0.999924,0.004776,-0.011320,0.001026,200.000000,100.000000,0.000000,0.000034,0.000000,0.000000,0.000000,0.000000,0.000000,0.000000,1.598399,0.373507,0.078924,-0.832052,0.233405,0.905924,0.743932
0.005000,-0.500000,-0.500000,0.800000,0.999924,0.004776,-0.011320,0.001026,-0.500000,-0.500000,0.800000,0.999924,0.004776,-0.011320,0.001026,200.000000,100.000000,0.000000,0.000034,0.000000,0.000000,0.000000,0.000000,0.000000,0.000000,1.598399,0.373507,0.078924,-0.832052,0.233405,0.905924,0.743932
0.006000,-0.500000,-0.500000,0.800000,0.999924,0.004776,-0.011320,0.001026,-0.500000,-0.500000,0.800000,0.999924,0.004776,-0.011320,0.001026,200.000000,100.000000,0.000000,0.000035,0.000000,0.000000,0.000000,0.000000,0.000000,0.000000,1.598399,0.373507,0.078924,-0.832052,0.233405,0.905924,0.743932
0.007000,-0.500000,-0.500000,0.800000,0.999924,0.004776,-0.011320,0.001026,-0.500000,-0.500000,0.800000,0.999924,0.004776,-0.011320,0.001026,200.000000,100.000000,0.000000,0.000035,0.000000,0.000000,0.000000,0.000000,0.000000,0.000000,1.598399,0.373507,0.078924,-0.832052,0.233405,0.905924,0.743932
0.008000,-0.500000,-0.500000,0.800000,0.999924,0.004776,-0.011320,0.001026,-0.500000,-0.500000,0.800000,0.999924,0.004776,-0.011320,0.001026,200.000000,100.000000,0.000000,0.000034,0.000000,0.000000,0.000000,0.000000,0.000000,0.000000,1.598399,0.373507,0.078924,-0.832052,0.233405,0.905924,0.743932
0.009000,-0.500000,-0.500000,0.800000,0.999924,0.004776,-0.011320,0.001026,-0.500000,-0.500000,0.800000,0.999924,0.004776,-0.011320,0.001026,200.000000,100.000000,0.000000,0.000034,0.000000,0.000000,0.000000,0.000000,0.000000,0.000000,1.598399,0.373507,0.078924,-0.832052,0.233405,0.905924,0.743932
0.010000,-0.500000,-0.500000,0.800000,0.999924,0.004776,-0.011320,0.001026,-0.500000,-0.500000,0.800000,0.999924,0.004776,-0.011320,0.001026,200.000000,100.000000,0.000000,0.000034,0.000000,0.000000,0.000000,0.000000,0.000000,0.000000,1.598399,0.373507,0.078924,-0.832052,0.233405,0.905924,0.743932
0.011000,-0.500000,-0.500000,0.800000,0.999924,0.004776,-0.011320,0.001026,-0.500000,-0.500000,0.800000,0.999924,0.004776,-0.011320,0.001026,200.000000,100.000000,0.000000,0.000035,0.000000,0.000000,0.000000,0.000000,0.000000,0.000000,1.598399,0.373507,0.078924,-0.832052,0.233405,0.905924,0.743932
0.012000,-0.500000,-0.500000,0.800000,0.999924,0.004776,-0.011320,0.001026,-0.500000,-0.500000,0.800000,0.999924,0.004776,-0.011320,0.001026,200.000000,100.000000,0.000000,0.000035,0.000000,0.000000,0.000000,0.000000,0.000000,0.000000,1.598399,0.373507,0.078924,-0.832052,0.233405,0.905924,0.743932
0.013000,-0.500000,-0.500000,0.800000,0.999924,0.004776,-0.011320,0.001026,-0.500000,-0.500000,0.800000,0.999924,0.004776,-0.011320,0.001026,200.000000,100.000000,0.000000,0.000034,0.000000,0.000000,0.000000,0.000000,0.000000,0.000000,1.598399,0.373507,0.078924,-0.832052,0.233405,0.905924,0.743932
0.014000,-0.500000,-0.500000,0.800000,0.999924,0.004776,-0.011320,0.001026,-0.500000,-0.500000,0.800000,0.999924,0.004776,-0.011320,0.001026,200.000000,100.000000,0.000000,0.000034,0.000000,0.000000,0.000000,0.000000,0.000000,0.000000,1.598399,0.373507,0.078924,-0.832052,0.233405,0.905924,0.743932
0.015000,-0.500000,-0.500000,0.800000,0.999924,0.004776,-0.011320,0.001026,-0.500000,-0.500000,0.800000,0.999924,0.004776,-0.011320,0.001026,200.000000,100.000000,0.000000,0.000035,0.000000,0.000000,0.000000,0.000000,0.000000,0.000000,1.598399,0.373507,0.078924,-0.832052,0.233405,0.905924,0.743932
0.016000,-0.500000,-0.500000,0.800000,0.999924,0.004776,-0.011320,0.001026,-0.500000,-0.500000,0.800000,0.999924,0.004776,-0.011320,0.001026,200.000000,100.000000,0.000000,0.000035,0.000000,0.000000,0.000000,0.000000,0.000000,0.000000,1.598399,0.373507,0.078924,-0.832052,0.233405,0.905924,0.743932
0.017000,-0.500000,-0.500000,0.800000,0.999924,0.004776,-0.011320,0.001026,-0.500000,-0.500000,0.800000,0.999924,0.004776,-0.011320,0.001026,200.000000,100.000000,0.000000,0.000034,0.000000,0.000000,0.000000,0.000000,0.000000,0.000000,1.598399,0.373507,0.078924,-0.832052,0.233405,0.905924,0.743932
0.018000,-0.500000,-0.500000,0.800000,0.999924,0.004776,-0.011320,0.001026,-0.500000,-0.500000,0.800000,0.999924,0.004776,-0.011320,0.001026,200.000000,100.000000,0.000000,0.000034,0.000000,0.000000,0.000000,0.000000,0.000000,0.000000,1.598399,0.373507,0.078924,-0.832052,0.233405,0.905924,0.743932
0.019000,-0.500000,-0.500000,0.800000,0.999924,0.004776,-0.011320,0.001026,-0.500000,-0.500000,0.800000,0.999924,0.004776,-0.011320,0.001026,200.000000,100.000000,0.000000,0.000035,0.000000,0.000000,0.000000,0.000000,0.000000,0.000000,1.598399,0.373507,0.078924,-0.832052,0.233405,0.905924,0.743932
0.020000,-0.500000,-0.500000,0.800000,0.999924,0.004776,-0.011320,0.001026,-0.500000,-0.500000,0.800000,0.999924,0.004776,-0.011320,0.001026,200.000000,100.000000,0.000000,0.000035,0.000000,0.000000,0.000000,0.000000,0.000000,0.000000,1.598399,0.373507,0.078924,-0.832052,0.233405,0.905924,0.743932
0.021000,-0.500000,-0.500000,0.800000,0.999924,0.004776,-0.011320,0.001026,-0.500000,-0.500000,0.800000,0.999924,0.004776,-0.011320,0.001026,200.000000,100.000000,0.000000,0.000034,0.000000,0.000000,0.000000,0.000000,0.000000,0.000000,1.598399,0.373507,0.078924,-0.832052,0.233405,0.905924,0.743932
0.022000,-0.500000,-0.500000,0.800000,0.999924,0.004776,-0.011320,0.001026,-0.500000,-0.500000,0.800000,0.999924,0.004776,-0.011320,0.001026,200.000000,100.000000,0.000000,0.000034,0.000000,0.000000,0.000000,0.000000,0.000000,0.000000,1.598399,0.373507,0.078924,-0.832052,0.233405,0.905924,0.743932
0.023000,-0.500000,-0.500000,0.800000,0.999924,0.004776,-0.011320,0.001026,-0.500000,-0.500000,0.800000,0.999924,0.004776,-0.011320,0.001026,200.000000,100.000000,0.000000,0.000035,0.000000,0.000000,0.000000,0.000000,0.000000,0.000000,1.598399,0.373507,0.078924,-0.832052,0.233405,0.905924,0.743932
0.024000,-0.500000,-0.500000,0.800000,0.999924,0.004776,-0.011320,0.001026,-0.500000,-0.500000,0.800000,0.999924,0.004776,-0.011320,0.001026,200.000000,100.000000,0.000000,0.000034,0.000000,0.000000,0.000000,0.000000,0.000000,0.000000,1.598399,0.373507,0.078924,-0.832052,0.233405,0.905924,0.743932
0.025000,-0.500000,-0.500000,0.800000,0.999924,0.004776,-0.011320,0.001026,-0.500000,-0.500000,0.800000,0.999924,0.004776,-0.011320,0.001026,200.000000,100.000000,0.000000,0.000034,0.000000,0.000000,0.000000,0.000000,0.000000,0.000000,1.598399,0.373507,0.078924,-0.832052,0.233405,0.905924,0.743932
0.026000,-0.500000,-0.500000,0.800000,0.999924,0.004776,-0.011320,0.001026,-0.500000,-0.500000,0.800000,0.999924,0.004776,-0.011320,0.001026,200.000000,100.000000,0.000000,0.000035,0.000000,0.000000,0.000000,0.000000,0.000000,0.000000,1.598399,0.373507,0.078924,-0.832052,0.233405,0.905924,0.743932
0.027000,-0.500000,-0.500000,0.800000,0.999924,0.004776,-0.011320,0.001026,-0.500000,-0.500000,0.800000,0.999924,0.004776,-0.011320,0.001026,200.000000,100.000000,0.000000,0.000035,0.000000,0.000000,0.000000,0.000000,0.000000,0.000000,1.598399,0.373507,0.078924,-0.832052,0.233405,0.905924,0.743932
0.028000,-0.500000,-0.500000,0.800000,0.999924,0.004776,-0.011320,0.001026,-0.500000,-0.500000,0.800000,0.999924,0.004776,-0.011320,0.001026,200.000000,100.000000,0.000000,0.000034,0.000000,0.000000,0.000000,0.000000,0.000000,0.000000,1.598399,0.373507,0.078924,-0.832052,0.233405,0.905924,0.743932
0.029000,-0.500000,-0.500000,0.800000,0.999924,0.004776,-0.011320,0.001026,-0.500000,-0.500000,0.800000,0.999924,0.004776,-0.011320,0.001026,200.000000,100.000000,0.000000,0.000034,0.000000,0.000000,0.000000,0.000000,0.000000,0.000000,1.598399,0.373507,0.078924,-0.832052,0.233405,0.905924,0.743932
0.030000,-0.500000,-0.500000,0.800000,0.999924,0.004776,-0.011320,0.001026,-0.500000,-0.500000,0.800000,0.999924,0.004776,-0.011320,0.001026,200.000000,100.000000,0.000000,0.000035,0.000000,0.000000,0.000000,0.000000,0.000000,0.000000,1.598399,0.373507,0.078924,-0.832052,0.233405,0.905924,0.743932
0.031000,-0.500000,-0.500000,0.800000,0.999924,0.004776,-0.011320,0.001026,-0.500000,-0.500000,0.800000,0.999924,0.004776,-0.011320,0.001026,200.000000,100.000000,0.000000,0.000035,0.000000,0.000000,0.000000,0.000000,0.000000,0.000000,1.598399,0.373507,0.078924,-0.832052,0.233405,0.905924,0.743932
0.032000,-0.500000,-0.500000,0.800000,0.999924,0.004776,-0.011320,0.001026,-0.500000,-0.500000,0.800000,0.999924,0.004776,-0.011320,0.001026,200.000000,100.000000,0.000000,0.000034,0.000000,0.000000,0.000000,0.000000,0.000000,0.000000,1.598399,0.373507,0.078924,-0.832052,0.233405,0.905924,0.743932
0.032000,-0.500000,-0.500000,0.800000,0.999924,0.004776,-0.011320,0.001026,-0.500000,-0.500000,0.800000,0.999924,0.004776,-0.011320,0.001026,200.000000,100.000000,0.000000,0.000034,0.000000,0.000000,0.000000,0.000000,0.000000,0.000000,1.598399,0.373507,0.078924,-0.832052,0.233405,0.905924,0.743932
0.034000,-0.500000,-0.500000,0.800000,0.999924,0.004776,-0.011320,0.001026,-0.500000,-0.500000,0.800000,0.999924,0.004776,-0.011320,0.001026,200.000000,100.000000,0.000000,0.000035,0.000000,0.000000,0.000000,0.000000,0.000000,0.000000,1.598399,0.373507,0.078924,-0.832052,0.233405,0.905924,0.743932
0.035000,-0.500000,-0.500000,0.800000,0.999924,0.004776,-0.011320,0.001026,-0.500000,-0.500000,0.800000,0.999924,0.004776,-0.011320,0.001026,200.000000,100.000000,0.000000,0.000035,0.000000,0.000000,0.000000,0.000000,0.000000,0.000000,1.598399,0.373507,0.078924,-0.832052,0.233405,0.905924,0.743932
0.036000,-0.500000,-0.500000,0.800000,0.999924,0.004776,-0.011320,0.001026,-0.500000,-0.500000,0.800000,0.999924,0.004776,-0.011320,0.001026,200.000000,100.000000,0.000000,0.000034,0.000000,0.000000,0.000000,0.000000,0.000000,0.000000,1.598399,0.373507,0.078924,-0.832052,0.233405,0.905924,0.743932
0.037000,-0.500000,-0.500000,0.800000,0.999924,0.004776,-0.011320,0.001026,-0.500000,-0.500000,0.800000,0.999924,0.004776,-0.011320,0.001026,200.000000,100.000000,0.000000,0.000034,0.000000,0.000000,0.000000,0.000000,0.000000,0.000000,1.598399,0.373507,0.078924,-0.832052,0.233405,0.905924,0.743932
0.038000,-0.500000,-0.500000,0.800000,0.999924,0.004776,-0.011320,0.001026,-0.500000,-0.500000,0.800000,0.999924,0.004776,-0.011320,0.001026,200.000000,100.000000,0.000000,0.000034,0.000000,0.000000,0.000000,0.000000,0.000000,0.000000,1.598399,0.373507,0.078924,-0.832052,0.233405,0.905924,0.743932
0.039000,-0.500000,-0.500000,0.800000,0.999924,0.004776,-0.011320,0.001026,-0.500000,-0.500000,0.800000,0.999924,0.004776,-0.011320,0.001026,200.000000,100.000000,0.000000,0.000035,0.000000,0.000000,0.000000,0.000000,0.000000,0.000000,1.598399,0.373507,0.078924,-0.832052,0.233405,0.905924,0.743932
0.040000,-0.500000,-0.500000,0.800000,0.999924,0.004776,-0.011320,0.001026,-0.500000,-0.500000,0.800000,0.999924,0.004776,-0.011320,0.001026,200.000000,100.000000,0.000000,0.000035,0.000000,0.000000,0.000000,0.000000,0.000000,0.000000,1.598399,0.373507,0.078924,-0.832052,0.233405,0.905924,0.743932
0.041000,-0.500000,-0.500000,0.800000,0.999924,0.004776,-0.011320,0.001026,-0.500000,-0.500000,0.800000,0.999924,0.004776,-0.011320,0.001026,200.000000,100.000000,0.000000,0.000034,0.000000,0.000000,0.000000,0.000000,0.000000,0.000000,1.598399,0.373507,0.078924,-0.832052,0.233405,0.905924,0.743932
0.042000,-0.500000,-0.500000,0.800000,0.999924,0.004776,-0.011320,0.001026,-0.500000,-0.500000,0.800000,0.999924,0.004776,-0.011320,0.001026,200.000000,100.000000,0.000000,0.000034,0.000000,0.000000,0.000000,0.000000,0.000000,0.000000,1.598399,0.373507,0.078924,-0.832052,0.233405,0.905924,0.743932
0.043000,-0.500000,-0.500000,0.800000,0.999924,0.004776,-0.011320,0.001026,-0.500000,-0.500000,0.800000,0.999924,0.004776,-0.011320,0.001026,200.000000,100.000000,0.000000,0.000035,0.000000,0.000000,0.000000,0.000000,0.000000,0.000000,1.598399,0.373507,0.078924,-0.832052,0.233405,0.905924,0.743932
0.043000,-0.500000,-0.500000,0.800000,0.999924,0.004776,-0.011320,0.001026,-0.500000,-0.500000,0.800000,0.999924,0.004776,-0.011320,0.001026,200.000000,100.000000,0.000000,0.000035,0.000000,0.000000,0.000000,0.000000,0.000000,0.000000,1.598399,0.373507,0.078924,-0.832052,0.233405,0.905924,0.743932
0.045000,-0.500000,-0.500000,0.800000,0.999924,0.004776,-0.011320,0.001026,-0.500000,-0.500000,0.800000,0.999924,0.004776,-0.011320,0.001026,200.000000,100.000000,0.000000,0.000034,0.000000,0.000000,0.000000,0.000000,0.000000,0.000000,1.598399,0.373507,0.078924,-0.832052,0.233405,0.905924,0.743932
0.046000,-0.500000,-0.500000,0.800000,0.999924,0.004776,-0.011320,0.001026,-0.500000,-0.500000,0.800000,0.999924,0.004776,-0.011320,0.001026,200.000000,100.000000,0.000000,0.000034,0.000000,0.000000,0.000000,0.000000,0.000000,0.000000,1.598399,0.373507,0.078924,-0.832052,0.233405,0.905924,0.743932
0.047000,-0.500000,-0.500000,0.800000,0.999924,0.004776,-0.011320,0.001026,-0.500000,-0.500000,0.800000,0.999924,0.004776,-0.011320,0.001026,200.000000,100.000000,0.000000,0.000035,0.000000,0.000000,0.000000,0.000000,0.000000,0.000000,1.598399,0.373507,0.078924,-0.832052,0.233405,0.905924,0.743932
0.048000,-0.500000,-0.500000,0.800000,0.999924,0.004776,-0.011320,0.001026,-0.500000,-0.500000,0.800000,0.999924,0.004776,-0.011320,0.001026,200.000000,100.000000,0.000000,0.000035,0.000000,0.000000,0.000000,0.000000,0.000000,0.000000,1.598399,0.373507,0.078924,-0.832052,0.233405,0.905924,0.743932
0.049000,-0.500000,-0.500000,0.800000,0.999924,0.004776,-0.011320,0.001026,-0.500000,-0.500000,0.800000,0.999924,0.004776,-0.011320,0.001026,200.000000,100.000000,0.000000,0.000034,0.000000,0.000000,0.000000,0.000000,0.000000,0.000000,1.598399,0.373507,0.078924,-0.832052,0.233405,0.905924,0.743932
0.050000,-0.500000,-0.500000,0.800000,0.999924,0.004776,-0.011320,0.001026,-0.500000,-0.500000,0.800000,0.999924,0.004776,-0.011320,0.001026,200.000000,100.000000,0.000000,0.000034,0.000000,0.000000,0.000000,0.000000,0.000000,0.000000,1.598399,0.373507,0.078924,-0.832052,0.233405,0.905924,0.743932
0.051000,-0.500000,-0.500000,0.800000,0.999924,0.004776,-0.011320,0.001026,-0.500000,-0.500000,0.800000,0.999924,0.004776,-0.011320,0.001026,200.000000,100.000000,0.000000,0.000035,0.000000,0.000000,0.000000,0.000000,0.000000,0.000000,1.598399,0.373507,0.078924,-0.832052,0.233405,0.905924,0.743932
0.052000,-0.500000,-0.500000,0.800000,0.999924,0.004776,-0.011320,0.001026,-0.500000,-0.500000,0.800000,0.999924,0.004776,-0.011320,0.001026,200.000000,100.000000,0.000000,0.000034,0.000000,0.000000,0.000000,0.000000,0.000000,0.000000,1.598399,0.373507,0.078924,-0.832052,0.233405,0.905924,0.743932
0.053000,-0.500000,-0.500000,0.800000,0.999924,0.004776,-0.011320,0.001026,-0.500000,-0.500000,0.800000,0.999924,0.004776,-0.011320,0.001026,200.000000,100.000000,0.000000,0.000034,0.000000,0.000000,0.000000,0.000000,0.000000,0.000000,1.598399,0.373507,0.078924,-0.832052,0.233405,0.905924,0.743932
0.054000,-0.500000,-0.500000,0.800000,0.999924,0.004776,-0.011320,0.001026,-0.500000,-0.500000,0.800000,0.999924,0.004776,-0.011320,0.001026,200.000000,100.000000,0.000000,0.000035,0.000000,0.000000,0.000000,0.000000,0.000000,0.000000,1.598399,0.373507,0.078924,-0.832052,0.233405,0.905924,0.743932
0.055000,-0.500000,-0.500000,0.800000,0.999924,0.004776,-0.011320,0.001026,-0.500000,-0.500000,0.800000,0.999924,0.004776,-0.011320,0.001026,200.000000,100.000000,0.000000,0.000035,0.000000,0.000000,0.000000,0.000000,0.000000,0.000000,1.598399,0.373507,0.078924,-0.832052,0.233405,0.905924,0.743932
0.056000,-0.500000,-0.500000,0.800000,0.999924,0.004776,-0.011320,0.001026,-0.500000,-0.500000,0.800000,0.999924,0.004776,-0.011320,0.001026,200.000000,100.000000,0.000000,0.000035,0.000000,0.000000,0.000000,0.000000,0.000000,0.000000,1.598399,0.373507,0.078924,-0.832052,0.233405,0.905924,0.743932
0.057000,-0.500000,-0.500000,0.800000,0.999924,0.004776,-0.011320,0.001026,-0.500000,-0.500000,0.800000,0.999924,0.004776,-0.011320,0.001026,200.000000,100.000000,0.000000,0.000034,0.000000,0.000000,0.000000,0.000000,0.000000,0.000000,1.598399,0.373507,0.078924,-0.832052,0.233405,0.905924,0.743932
0.057000,-0.500000,-0.500000,0.800000,0.999924,0.004776,-0.011320,0.001026,-0.500000,-0.500000,0.800000,0.999924,0.004776,-0.011320,0.001026,200.000000,100.000000,0.000000,0.000034,0.000000,0.000000,0.000000,0.000000,0.000000,0.000000,1.598399,0.373507,0.078924,-0.832052,0.233405,0.905924,0.743932
0.057000,-0.500000,-0.500000,0.800000,0.999924,0.004776,-0.011320,0.001026,-0.500000,-0.500000,0.800000,0.999924,0.004776,-0.011320,0.001026,200.000000,100.000000,0.000000,0.000035,0.000000,0.000000,0.000000,0.000000,0.000000,0.000000,1.598399,0.373507,0.078924,-0.832052,0.233405,0.905924,0.743932
0.060000,-0.500000,-0.500000,0.800000,0.999924,0.004776,-0.011320,0.001026,-0.500000,-0.500000,0.800000,0.999924,0.004776,-0.011320,0.001026,200.000000,100.000000,0.000000,0.000034,0.000000,0.000000,0.000000,0.000000,0.000000,0.000000,1.598399,0.373507,0.078924,-0.832052,0.233405,0.905924,0.743932
0.061000,-0.500000,-0.500000,0.800000,0.999924,0.004776,-0.011320,0.001026,-0.500000,-0.500000,0.800000,0.999924,0.004776,-0.011320,0.001026,200.000000,100.000000,0.000000,0.000034,0.000000,0.000000,0.000000,0.000000,0.000000,0.000000,1.598399,0.373507,0.078924,-0.832052,0.233405,0.905924,0.743932
0.062000,-0.500000,-0.500000,0.800000,0.999924,0.004776,-0.011320,0.001026,-0.500000,-0.500000,0.800000,0.999924,0.004776,-0.011320,0.001026,200.000000,100.000000,0.000000,0.000035,0.000000,0.000000,0.000000,0.000000,0.000000,0.000000,1.598399,0.373507,0.078924,-0.832052,0.233405,0.905924,0.743932
0.063000,-0.500000,-0.500000,0.800000,0.999924,0.004776,-0.011320,0.001026,-0.500000,-0.500000,0.800000,0.999924,0.004776,-0.011320,0.001026,200.000000,100.000000,0.000000,0.000035,0.000000,0.000000,0.000000,0.000000,0.000000,0.000000,1.598399,0.373507,0.078924,-0.832052,0.233405,0.905924,0.743932
0.064000,-0.500000,-0.500000,0.800000,0.999924,0.004776,-0.011320,0.001026,-0.500000,-0.500000,0.800000,0.999924,0.004776,-0.011320,0.001026,200.000000,100.000000,0.000000,0.000034,0.000000,0.000000,0.000000,0.000000,0.000000,0.000000,1.598399,0.373507,0.078924,-0.832052,0.233405,0.905924,0.743932
0.065000,-0.500000,-0.500000,0.800000,0.999924,0.004776,-0.011320,0.001026,-0.500000,-0.500000,0.800000,0.999924,0.004776,-0.011320,0.001026,200.000000,100.000000,0.000000,0.000034,0.000000,0.000000,0.000000,0.000000,0.000000,0.000000,1.598399,0.373507,0.078924,-0.832052,0.233405,0.905924,0.743932
0.066000,-0.500000,-0.500000,0.800000,0.999924,0.004776,-0.011320,0.001026,-0.500000,-0.500000,0.800000,0.999924,0.004776,-0.011320,0.001026,200.000000,100.000000,0.000000,0.000035,0.000000,0.000000,0.000000,0.000000,0.000000,0.000000,1.598399,0.373507,0.078924,-0.832052,0.233405,0.905924,0.743932
0.067000,-0.500000,-0.500000,0.800000,0.999924,0.004776,-0.011320,0.001026,-0.500000,-0.500000,0.800000,0.999924,0.004776,-0.011320,0.001026,200.000000,100.000000,0.000000,0.000035,0.000000,0.000000,0.000000,0.000000,0.000000,0.000000,1.598399,0.373507,0.078924,-0.832052,0.233405,0.905924,0.743932
0.068000,-0.500000,-0.500000,0.800000,0.999924,0.004776,-0.011320,0.001026,-0.500000,-0.500000,0.800000,0.999924,0.004776,-0.011320,0.001026,200.000000,100.000000,0.000000,0.000035,0.000000,0.000000,0.000000,0.000000,0.000000,0.000000,1.598399,0.373507,0.078924,-0.832052,0.233405,0.905924,0.743932
0.069000,-0.500000,-0.500000,0.800000,0.999924,0.004776,-0.011320,0.001026,-0.500000,-0.500000,0.800000,0.999924,0.004776,-0.011320,0.001026,200.000000,100.000000,0.000000,0.000034,0.000000,0.000000,0.000000,0.000000,0.000000,0.000000,1.598399,0.373507,0.078924,-0.832052,0.233405,0.905924,0.743932
0.069000,-0.500000,-0.500000,0.800000,0.999924,0.004776,-0.011320,0.001026,-0.500000,-0.500000,0.800000,0.999924,0.004776,-0.011320,0.001026,200.000000,100.000000,0.000000,0.000035,0.000000,0.000000,0.000000,0.000000,0.000000,0.000000,1.598399,0.373507,0.078924,-0.832052,0.233405,0.905924,0.743932
0.071000,-0.500000,-0.500000,0.800000,0.999924,0.004776,-0.011320,0.001026,-0.500000,-0.500000,0.800000,0.999924,0.004776,-0.011320,0.001026,200.000000,100.000000,0.000000,0.000035,0.000000,0.000000,0.000000,0.000000,0.000000,0.000000,1.598399,0.373507,0.078924,-0.832052,0.233405,0.905924,0.743932
0.072000,-0.500000,-0.500000,0.800000,0.999924,0.004776,-0.011320,0.001026,-0.500000,-0.500000,0.800000,0.999924,0.004776,-0.011320,0.001026,200.000000,100.000000,0.000000,0.000034,0.000000,0.000000,0.000000,0.000000,0.000000,0.000000,1.598399,0.373507,0.078924,-0.832052,0.233405,0.905924,0.743932
0.073000,-0.500000,-0.500000,0.800000,0.999924,0.004776,-0.011320,0.001026,-0.500000,-0.500000,0.800000,0.999924,0.004776,-0.011320,0.001026,200.000000,100.000000,0.000000,0.000034,0.000000,0.000000,0.000000,0.000000,0.000000,0.000000,1.598399,0.373507,0.078924,-0.832052,0.233405,0.905924,0.743932
0.074000,-0.500000,-0.500000,0.800000,0.999924,0.004776,-0.011320,0.001026,-0.500000,-0.500000,0.800000,0.999924,0.004776,-0.011320,0.001026,200.000000,100.000000,0.000000,0.000034,0.000000,0.000000,0.000000,0.000000,0.000000,0.000000,1.598399,0.373507,0.078924,-0.832052,0.233405,0.905924,0.743932
0.075000,-0.500000,-0.500000,0.800000,0.999924,0.004776,-0.011320,0.001026,-0.500000,-0.500000,0.800000,0.999924,0.004776,-0.011320,0.001026,200.000000,100.000000,0.000000,0.000035,0.000000,0.000000,0.000000,0.000000,0.000000,0.000000,1.598399,0.373507,0.078924,-0.832052,0.233405,0.905924,0.743932
0.076000,-0.500000,-0.500000,0.800000,0.999924,0.004776,-0.011320,0.001026,-0.500000,-0.500000,0.800000,0.999924,0.004776,-0.011320,0.001026,200.000000,100.000000,0.000000,0.000035,0.000000,0.000000,0.000000,0.000000,0.000000,0.000000,1.598399,0.373507,0.078924,-0.832052,0.233405,0.905924,0.743932
0.077000,-0.500000,-0.500000,0.800000,0.999924,0.004776,-0.011320,0.001026,-0.500000,-0.500000,0.800000,0.999924,0.004776,-0.011320,0.001026,200.000000,100.000000,0.000000,0.000034,0.000000,0.000000,0.000000,0.000000,0.000000,0.000000,1.598399,0.373507,0.078924,-0.832052,0.233405,0.905924,0.743932
0.078000,-0.500000,-0.500000,0.800000,0.999924,0.004776,-0.011320,0.001026,-0.500000,-0.500000,0.800000,0.999924,0.004776,-0.011320,0.001026,200.000000,100.000000,0.000000,0.000035,0.000000,0.000000,0.000000,0.000000,0.000000,0.000000,1.598399,0.373507,0.078924,-0.832052,0.233405,0.905924,0.743932
0.079000,-0.500000,-0.500000,0.800000,0.999924,0.004776,-0.011320,0.001026,-0.500000,-0.500000,0.800000,0.999924,0.004776,-0.011320,0.001026,200.000000,100.000000,0.000000,0.000035,0.000000,0.000000,0.000000,0.000000,0.000000,0.000000,1.598399,0.373507,0.078924,-0.832052,0.233405,0.905924,0.743932
0.080000,-0.500000,-0.500000,0.800000,0.999924,0.004776,-0.011320,0.001026,-0.500000,-0.500000,0.800000,0.999924,0.004776,-0.011320,0.001026,200.000000,100.000000,0.000000,0.000034,0.000000,0.000000,0.000000,0.000000,0.000000,0.000000,1.598399,0.373507,0.078924,-0.832052,0.233405,0.905924,0.743932
0.081000,-0.500000,-0.500000,0.800000,0.999924,0.004776,-0.011320,0.001026,-0.500000,-0.500000,0.800000,0.999924,0.004776,-0.011320,0.001026,200.000000,100.000000,0.000000,0.000034,0.000000,0.000000,0.000000,0.000000,0.000000,0.000000,1.598399,0.373507,0.078924,-0.832052,0.233405,0.905924,0.743932
0.081000,-0.500000,-0.500000,0.800000,0.999924,0.004776,-0.011320,0.001026,-0.500000,-0.500000,0.800000,0.999924,0.004776,-0.011320,0.001026,200.000000,100.000000,0.000000,0.000035,0.000000,0.000000,0.000000,0.000000,0.000000,0.000000,1.598399,0.373507,0.078924,-0.832052,0.233405,0.905924,0.743932
0.083000,-0.500000,-0.500000,0.800000,0.999924,0.004776,-0.011320,0.001026,-0.500000,-0.500000,0.800000,0.999924,0.004776,-0.011320,0.001026,200.000000,100.000000,0.000000,0.000035,0.000000,0.000000,0.000000,0.000000,0.000000,0.000000,1.598399,0.373507,0.078924,-0.832052,0.233405,0.905924,0.743932
0.084000,-0.500000,-0.500000,0.800000,0.999924,0.004776,-0.011320,0.001026,-0.500000,-0.500000,0.800000,0.999924,0.004776,-0.011320,0.001026,200.000000,100.000000,0.000000,0.000035,0.000000,0.000000,0.000000,0.000000,0.000000,0.000000,1.598399,0.373507,0.078924,-0.832052,0.233405,0.905924,0.743932
0.085000,-0.500000,-0.500000,0.800000,0.999924,0.004776,-0.011320,0.001026,-0.500000,-0.500000,0.800000,0.999924,0.004776,-0.011320,0.001026,200.000000,100.000000,0.000000,0.000034,0.000000,0.000000,0.000000,0.000000,0.000000,0.000000,1.598399,0.373507,0.078924,-0.832052,0.233405,0.905924,0.743932
0.086000,-0.500000,-0.500000,0.800000,0.999924,0.004776,-0.011320,0.001026,-0.500000,-0.500000,0.800000,0.999924,0.004776,-0.011320,0.001026,200.000000,100.000000,0.000000,0.000035,0.000000,0.000000,0.000000,0.000000,0.000000,0.000000,1.598399,0.373507,0.078924,-0.832052,0.233405,0.905924,0.743932
0.087000,-0.500000,-0.500000,0.800000,0.999924,0.004776,-0.011320,0.001026,-0.500000,-0.500000,0.800000,0.999924,0.004776,-0.011320,0.001026,200.000000,100.000000,0.000000,0.000035,0.000000,0.000000,0.000000,0.000000,0.000000,0.000000,1.598399,0.373507,0.078924,-0.832052,0.233405,0.905924,0.743932
0.088000,-0.500000,-0.500000,0.800000,0.999924,0.004776,-0.011320,0.001026,-0.500000,-0.500000,0.800000,0.999924,0.004776,-0.011320,0.001026,200.000000,100.000000,0.000000,0.000034,0.000000,0.000000,0.000000,0.000000,0.000000,0.000000,1.598399,0.373507,0.078924,-0.832052,0.233405,0.905924,0.743932
0.089000,-0.500000,-0.500000,0.800000,0.999924,0.004776,-0.011320,0.001026,-0.500000,-0.500000,0.800000,0.999924,0.004776,-0.011320,0.001026,200.000000,100.000000,0.000000,0.000034,0.000000,0.000000,0.000000,0.000000,0.000000,0.000000,1.598399,0.373507,0.078924,-0.832052,0.233405,0.905924,0.743932
0.090000,-0.500000,-0.500000,0.800000,0.999924,0.004776,-0.011320,0.001026,-0.500000,-0.500000,0.800000,0.999924,0.004776,-0.011320,0.001026,200.000000,100.000000,0.000000,0.000035,0.000000,0.000000,0.000000,0.000000,0.000000,0.000000,1.598399,0.373507,0.078924,-0.832052,0.233405,0.905924,0.743932
0.091000,-0.500000,-0.500000,0.800000,0.999924,0.004776,-0.011320,0.001026,-0.500000,-0.500000,0.800000,0.999924,0.004776,-0.011320,0.001026,200.000000,100.000000,0.000000,0.000035,0.000000,0.000000,0.000000,0.000000,0.000000,0.000000,1.598399,0.373507,0.078924,-0.832052,0.233405,0.905924,0.743932
0.092000,-0.500000,-0.500000,0.800000,0.999924,0.004776,-0.011320,0.001026,-0.500000,-0.500000,0.800000,0.999924,0.004776,-0.011320,0.001026,200.000000,100.000000,0.000000,0.000035,0.000000,0.000000,0.000000,0.000000,0.000000,0.000000,1.598399,0.373507,0.078924,-0.832052,0.233405,0.905924,0.743932
0.093000,-0.500000,-0.500000,0.800000,0.999924,0.004776,-0.011320,0.001026,-0.500000,-0.500000,0.800000,0.999924,0.004776,-0.011320,0.001026,200.000000,100.000000,0.000000,0.000034,0.000000,0.000000,0.000000,0.000000,0.000000,0.000000,1.598399,0.373507,0.078924,-0.832052,0.233405,0.905924,0.743932
0.094000,-0.500000,-0.500000,0.800000,0.999924,0.004776,-0.011320,0.001026,-0.500000,-0.500000,0.800000,0.999924,0.004776,-0.011320,0.001026,200.000000,100.000000,0.000000,0.000034,0.000000,0.000000,0.000000,0.000000,0.000000,0.000000,1.598399,0.373507,0.078924,-0.832052,0.233405,0.905924,0.743932
0.095000,-0.500000,-0.500000,0.800000,0.999924,0.004776,-0.011320,0.001026,-0.500000,-0.500000,0.800000,0.999924,0.004776,-0.011320,0.001026,200.000000,100.000000,0.000000,0.000035,0.000000,0.000000,0.000000,0.000000,0.000000,0.000000,1.598399,0.373507,0.078924,-0.832052,0.233405,0.905924,0.743932
0.096000,-0.500000,-0.500000,0.800000,0.999924,0.004776,-0.011320,0.001026,-0.500000,-0.500000,0.800000,0.999924,0.004776,-0.011320,0.001026,200.000000,100.000000,0.000000,0.000035,0.000000,0.000000,0.000000,0.000000,0.000000,0.000000,1.598399,0.373507,0.078924,-0.832052,0.233405,0.905924,0.743932
0.096000,-0.500000,-0.500000,0.800000,0.999924,0.004776,-0.011320,0.001026,-0.500000,-0.500000,0.800000,0.999924,0.004776,-0.011320,0.001026,200.000000,100.000000,0.000000,0.000034,0.000000,0.000000,0.000000,0.000000,0.000000,0.000000,1.598399,0.373507,0.078924,-0.832052,0.233405,0.905924,0.743932
0.098000,-0.500000,-0.500000,0.800000,0.999924,0.004776,-0.011320,0.001026,-0.500000,-0.500000,0.800000,0.999924,0.004776,-0.011320,0.001026,200.000000,100.000000,0.000000,0.000035,0.000000,0.000000,0.000000,0.000000,0.000000,0.000000,1.598399,0.373507,0.078924,-0.832052,0.233405,0.905924,0.743932
0.099000,-0.500000,-0.500000,0.800000,0.999924,0.004776,-0.011320,0.001026,-0.500000,-0.500000,0.800000,0.999924,0.004776,-0.011320,0.001026,200.000000,100.000000,0.000000,0.000035,0.000000,0.000000,0.000000,0.000000,0.000000,0.000000,1.598399,0.373507,0.078924,-0.832052,0.233405,0.905924,0.743932
0.100000,-0.500000,-0.500000,0.800000,0.999924,0.004776,-0.011320,0.001026,-0.500000,-0.500000,0.800000,0.999924,0.004776,-0.011320,0.001026,200.000000,100.000000,0.000000,0.000035,0.000000,0.000000,0.000000,0.000000,0.000000,0.000000,1.598399,0.373507,0.078924,-0.832052,0.233405,0.905924,0.743932
0.101000,-0.500000,-0.500000,0.800000,0.999924,0.004776,-0.011320,0.001026,-0.500000,-0.500000,0.800000,0.999924,0.004776,-0.011320,0.001026,200.000000,100.000000,0.000000,0.000034,0.000000,0.000000,0.000000,0.000000,0.000000,0.000000,1.598399,0.373507,0.078924,-0.832052,0.233405,0.905924,0.743932
0.102000,-0.500000,-0.500000,0.800000,0.999924,0.004776,-0.011320,0.001026,-0.500000,-0.500000,0.800000,0.999924,0.004776,-0.011320,0.001026,200.000000,100.000000,0.000000,0.000034,0.000000,0.000000,0.000000,0.000000,0.000000,0.000000,1.598399,0.373507,0.078924,-0.832052,0.233405,0.905924,0.743932
0.103000,-0.500000,-0.500000,0.800000,0.999924,0.004776,-0.011320,0.001026,-0.500000,-0.500000,0.800000,0.999924,0.004776,-0.011320,0.001026,200.000000,100.000000,0.000000,0.000035,0.000000,0.000000,0.000000,0.000000,0.000000,0.000000,1.598399,0.373507,0.078924,-0.832052,0.233405,0.905924,0.743932
0.104000,-0.500000,-0.500000,0.800000,0.999924,0.004776,-0.011320,0.001026,-0.500000,-0.500000,0.800000,0.999924,0.004776,-0.011320,0.001026,200.000000,100.000000,0.000000,0.000035,0.000000,0.000000,0.000000,0.000000,0.000000,0.000000,1.598399,0.373507,0.078924,-0.832052,0.233405,0.905924,0.743932
0.105000,-0.500000,-0.500000,0.800000,0.999924,0.004776,-0.011320,0.001026,-0.500000,-0.500000,0.800000,0.999924,0.004776,-0.011320,0.001026,200.000000,100.000000,0.000000,0.000034,0.000000,0.000000,0.000000,0.000000,0.000000,0.000000,1.598399,0.373507,0.078924,-0.832052,0.233405,0.905924,0.743932
0.106000,-0.500000,-0.500000,0.800000,0.999924,0.004776,-0.011320,0.001026,-0.500000,-0.500000,0.800000,0.999924,0.004776,-0.011320,0.001026,200.000000,100.000000,0.000000,0.000035,0.000000,0.000000,0.000000,0.000000,0.000000,0.000000,1.598399,0.373507,0.078924,-0.832052,0.233405,0.905924,0.743932
0.107000,-0.500000,-0.500000,0.800000,0.999924,0.004776,-0.011320,0.001026,-0.500000,-0.500000,0.800000,0.999924,0.004776,-0.011320,0.001026,200.000000,100.000000,0.000000,0.000035,0.000000,0.000000,0.000000,0.000000,0.000000,0.000000,1.598399,0.373507,0.078924,-0.832052,0.233405,0.905924,0.743932
0.108000,-0.500000,-0.500000,0.800000,0.999924,0.004776,-0.011320,0.001026,-0.500000,-0.500000,0.800000,0.999924,0.004776,-0.011320,0.001026,200.000000,100.000000,0.000000,0.000034,0.000000,0.000000,0.000000,0.000000,0.000000,0.000000,1.598399,0.373507,0.078924,-0.832052,0.233405,0.905924,0.743932
0.109000,-0.500000,-0.500000,0.800000,0.999924,0.004776,-0.011320,0.001026,-0.500000,-0.500000,0.800000,0.999924,0.004776,-0.011320,0.001026,200.000000,100.000000,0.000000,0.000034,0.000000,0.000000,0.000000,0.000000,0.000000,0.000000,1.598399,0.373507,0.078924,-0.832052,0.233405,0.905924,0.743932
0.110000,-0.500000,-0.500000,0.800000,0.999924,0.004776,-0.011320,0.001026,-0.500000,-0.500000,0.800000,0.999924,0.004776,-0.011320,0.001026,200.000000,100.000000,0.000000,0.000035,0.000000,0.000000,0.000000,0.000000,0.000000,0.000000,1.598399,0.373507,0.078924,-0.832052,0.233405,0.905924,0.743932
0.111000,-0.500000,-0.500000,0.800000,0.999924,0.004776,-0.011320,0.001026,-0.500000,-0.500000,0.800000,0.999924,0.004776,-0.011320,0.001026,200.000000,100.000000,0.000000,0.000035,0.000000,0.000000,0.000000,0.000000,0.000000,0.000000,1.598399,0.373507,0.078924,-0.832052,0.233405,0.905924,0.743932
0.112000,-0.500000,-0.500000,0.800000,0.999924,0.004776,-0.011320,0.001026,-0.500000,-0.500000,0.800000,0.999924,0.004776,-0.011320,0.001026,200.000000,100.000000,0.000000,0.000035,0.000000,0.000000,0.000000,0.000000,0.000000,0.000000,1.598399,0.373507,0.078924,-0.832052,0.233405,0.905924,0.743932
0.113000,-0.500000,-0.500000,0.800000,0.999924,0.004776,-0.011320,0.001026,-0.500000,-0.500000,0.800000,0.999924,0.004776,-0.011320,0.001026,200.000000,100.000000,0.000000,0.000034,0.000000,0.000000,0.000000,0.000000,0.000000,0.000000,1.598399,0.373507,0.078924,-0.832052,0.233405,0.905924,0.743932
0.114000,-0.500000,-0.500000,0.800000,0.999924,0.004776,-0.011320,0.001026,-0.500000,-0.500000,0.800000,0.999924,0.004776,-0.011320,0.001026,200.000000,100.000000,0.000000,0.000035,0.000000,0.000000,0.000000,0.000000,0.000000,0.000000,1.598399,0.373507,0.078924,-0.832052,0.233405,0.905924,0.743932
0.115000,-0.500000,-0.500000,0.800000,0.999924,0.004776,-0.011320,0.001026,-0.500000,-0.500000,0.800000,0.999924,0.004776,-0.011320,0.001026,200.000000,100.000000,0.000000,0.000035,0.000000,0.000000,0.000000,0.000000,0.000000,0.000000,1.598399,0.373507,0.078924,-0.832052,0.233405,0.905924,0.743932
0.116000,-0.500000,-0.500000,0.800000,0.999924,0.004776,-0.011320,0.001026,-0.500000,-0.500000,0.800000,0.999924,0.004776,-0.011320,0.001026,200.000000,100.000000,0.000000,0.000034,0.000000,0.000000,0.000000,0.000000,0.000000,0.000000,1.598399,0.373507,0.078924,-0.832052,0.233405,0.905924,0.743932
0.117000,-0.500000,-0.500000,0.800000,0.999924,0.004776,-0.011320,0.001026,-0.500000,-0.500000,0.800000,0.999924,0.004776,-0.011320,0.001026,200.000000,100.000000,0.000000,0.000034,0.000000,0.000000,0.000000,0.000000,0.000000,0.000000,1.598399,0.373507,0.078924,-0.832052,0.233405,0.905924,0.743932
0.118000,-0.500000,-0.500000,0.800000,0.999924,0.004776,-0.011320,0.001026,-0.500000,-0.500000,0.800000,0.999924,0.004776,-0.011320,0.001026,200.000000,100.000000,0.000000,0.000035,0.000000,0.000000,0.000000,0.000000,0.000000,0.000000,1.598399,0.373507,0.078924,-0.832052,0.233405,0.905924,0.743932
0.119000,-0.500000,-0.500000,0.800000,0.999924,0.004776,-0.011320,0.001026,-0.500000,-0.500000,0.800000,0.999924,0.004776,-0.011320,0.001026,200.000000,100.000000,0.000000,0.000035,0.000000,0.000000,0.000000,0.000000,0.000000,0.000000,1.598399,0.373507,0.078924,-0.832052,0.233405,0.905924,0.743932
0.120000,-0.500000,-0.500000,0.800000,0.999924,0.004776,-0.011320,0.001026,-0.500000,-0.500000,0.800000,0.999924,0.004776,-0.011320,0.001026,200.000000,100.000000,0.000000,0.000035,0.000000,0.000000,0.000000,0.000000,0.000000,0.000000,1.598399,0.373507,0.078924,-0.832052,0.233405,0.905924,0.743932
0.121000,-0.500000,-0.500000,0.800000,0.999924,0.004776,-0.011320,0.001026,-0.500000,-0.500000,0.800000,0.999924,0.004776,-0.011320,0.001026,200.000000,100.000000,0.000000,0.000034,0.000000,0.000000,0.000000,0.000000,0.000000,0.000000,1.598399,0.373507,0.078924,-0.832052,0.233405,0.905924,0.743932
0.122000,-0.500000,-0.500000,0.800000,0.999924,0.004776,-0.011320,0.001026,-0.500000,-0.500000,0.800000,0.999924,0.004776,-0.011320,0.001026,200.000000,100.000000,0.000000,0.000034,0.000000,0.000000,0.000000,0.000000,0.000000,0.000000,1.598399,0.373507,0.078924,-0.832052,0.233405,0.905924,0.743932
0.123000,-0.500000,-0.500000,0.800000,0.999924,0.004776,-0.011320,0.001026,-0.500000,-0.500000,0.800000,0.999924,0.004776,-0.011320,0.001026,200.000000,100.000000,0.000000,0.000035,0.000000,0.000000,0.000000,0.000000,0.000000,0.000000,1.598399,0.373507,0.078924,-0.832052,0.233405,0.905924,0.743932
0.124000,-0.500000,-0.500000,0.800000,0.999924,0.004776,-0.011320,0.001026,-0.500000,-0.500000,0.800000,0.999924,0.004776,-0.011320,0.001026,200.000000,100.000000,0.000000,0.000034,0.000000,0.000000,0.000000,0.000000,0.000000,0.000000,1.598399,0.373507,0.078924,-0.832052,0.233405,0.905924,0.743932
0.125000,-0.500000,-0.500000,0.800000,0.999924,0.004776,-0.011320,0.001026,-0.500000,-0.500000,0.800000,0.999924,0.004776,-0.011320,0.001026,200.000000,100.000000,0.000000,0.000034,0.000000,0.000000,0.000000,0.000000,0.000000,0.000000,1.598399,0.373507,0.078924,-0.832052,0.233405,0.905924,0.743932
0.126000,-0.500000,-0.500000,0.800000,0.999924,0.004776,-0.011320,0.001026,-0.500000,-0.500000,0.800000,0.999924,0.004776,-0.011320,0.001026,200.000000,100.000000,0.000000,0.000035,0.000000,0.000000,0.000000,0.000000,0.000000,0.000000,1.598399,0.373507,0.078924,-0.832052,0.233405,0.905924,0.743932
0.127000,-0.500000,-0.500000,0.800000,0.999924,0.004776,-0.011320,0.001026,-0.500000,-0.500000,0.800000,0.999924,0.004776,-0.011320,0.001026,200.000000,100.000000,0.000000,0.000035,0.000000,0.000000,0.000000,0.000000,0.000000,0.000000,1.598399,0.373507,0.078924,-0.832052,0.233405,0.905924,0.743932
0.128000,-0.500000,-0.500000,0.800000,0.999924,0.004776,-0.011320,0.001026,-0.500000,-0.500000,0.800000,0.999924,0.004776,-0.011320,0.001026,200.000000,100.000000,0.000000,0.000035,0.000000,0.000000,0.000000,0.000000,0.000000,0.000000,1.598399,0.373507,0.078924,-0.832052,0.233405,0.905924,0.743932
0.129000,-0.500000,-0.500000,0.800000,0.999924,0.004776,-0.011320,0.001026,-0.500000,-0.500000,0.800000,0.999924,0.004776,-0.011320,0.001026,200.000000,100.000000,0.000000,0.000034,0.000000,0.000000,0.000000,0.000000,0.000000,0.000000,1.598399,0.373507,0.078924,-0.832052,0.233405,0.905924,0.743932
0.130000,-0.500000,-0.500000,0.800000,0.999924,0.004776,-0.011320,0.001026,-0.500000,-0.500000,0.800000,0.999924,0.004776,-0.011320,0.001026,200.000000,100.000000,0.000000,0.000034,0.000000,0.000000,0.000000,0.000000,0.000000,0.000000,1.598399,0.373507,0.078924,-0.832052,0.233405,0.905924,0.743932
0.131000,-0.500000,-0.500000,0.800000,0.999924,0.004776,-0.011320,0.001026,-0.500000,-0.500000,0.800000,0.999924,0.004776,-0.011320,0.001026,200.000000,100.000000,0.000000,0.000035,0.000000,0.000000,0.000000,0.000000,0.000000,0.000000,1.598399,0.373507,0.078924,-0.832052,0.233405,0.905924,0.743932
0.132000,-0.500000,-0.500000,0.800000,0.999924,0.004776,-0.011320,0.001026,-0.500000,-0.500000,0.800000,0.999924,0.004776,-0.011320,0.001026,200.000000,100.000000,0.000000,0.000034,0.000000,0.000000,0.000000,0.000000,0.000000,0.000000,1.598399,0.373507,0.078924,-0.832052,0.233405,0.905924,0.743932
0.133000,-0.500000,-0.500000,0.800000,0.999924,0.004776,-0.011320,0.001026,-0.500000,-0.500000,0.800000,0.999924,0.004776,-0.011320,0.001026,200.000000,100.000000,0.000000,0.000034,0.000000,0.000000,0.000000,0.000000,0.000000,0.000000,1.598399,0.373507,0.078924,-0.832052,0.233405,0.905924,0.743932
0.134000,-0.500000,-0.500000,0.800000,0.999924,0.004776,-0.011320,0.001026,-0.500000,-0.500000,0.800000,0.999924,0.004776,-0.011320,0.001026,200.000000,100.000000,0.000000,0.000035,0.000000,0.000000,0.000000,0.000000,0.000000,0.000000,1.598399,0.373507,0.078924,-0.832052,0.233405,0.905924,0.743932
0.135000,-0.500000,-0.500000,0.800000,0.999924,0.004776,-0.011320,0.001026,-0.500000,-0.500000,0.800000,0.999924,0.004776,-0.011320,0.001026,200.000000,100.000000,0.000000,0.000035,0.000000,0.000000,0.000000,0.000000,0.000000,0.000000,1.598399,0.373507,0.078924,-0.832052,0.233405,0.905924,0.743932
0.136000,-0.500000,-0.500000,0.800000,0.999924,0.004776,-0.011320,0.001026,-0.500000,-0.500000,0.800000,0.999924,0.004776,-0.011320,0.001026,200.000000,100.000000,0.000000,0.000035,0.000000,0.000000,0.000000,0.000000,0.000000,0.000000,1.598399,0.373507,0.078924,-0.832052,0.233405,0.905924,0.743932
0.136000,-0.500000,-0.500000,0.800000,0.999924,0.004776,-0.011320,0.001026,-0.500000,-0.500000,0.800000,0.999924,0.004776,-0.011320,0.001026,200.000000,100.000000,0.000000,0.000035,0.000000,0.000000,0.000000,0.000000,0.000000,0.000000,1.598399,0.373507,0.078924,-0.832052,0.233405,0.905924,0.743932
0.138000,-0.500000,-0.500000,0.800000,0.999924,0.004776,-0.011320,0.001026,-0.500000,-0.500000,0.800000,0.999924,0.004776,-0.011320,0.001026,200.000000,100.000000,0.000000,0.000035,0.000000,0.000000,0.000000,0.000000,0.000000,0.000000,1.598399,0.373507,0.078924,-0.832052,0.233405,0.905924,0.743932
0.139000,-0.500000,-0.500000,0.800000,0.999924,0.004776,-0.011320,0.001026,-0.500000,-0.500000,0.800000,0.999924,0.004776,-0.011320,0.001026,200.000000,100.000000,0.000000,0.000035,0.000000,0.000000,0.000000,0.000000,0.000000,0.000000,1.598399,0.373507,0.078924,-0.832052,0.233405,0.905924,0.743932
0.140000,-0.500000,-0.500000,0.800000,0.999924,0.004776,-0.011320,0.001026,-0.500000,-0.500000,0.800000,0.999924,0.004776,-0.011320,0.001026,200.000000,100.000000,0.000000,0.000035,0.000000,0.000000,0.000000,0.000000,0.000000,0.000000,1.598399,0.373507,0.078924,-0.832052,0.233405,0.905924,0.743932
0.141000,-0.500000,-0.500000,0.800000,0.999924,0.004776,-0.011320,0.001026,-0.500000,-0.500000,0.800000,0.999924,0.004776,-0.011320,0.001026,200.000000,100.000000,0.000000,0.000035,0.000000,0.000000,0.000000,0.000000,0.000000,0.000000,1.598399,0.373507,0.078924,-0.832052,0.233405,0.905924,0.743932
0.142000,-0.500000,-0.500000,0.800000,0.999924,0.004776,-0.011320,0.001026,-0.500000,-0.500000,0.800000,0.999924,0.004776,-0.011320,0.001026,200.000000,100.000000,0.000000,0.000035,0.000000,0.000000,0.000000,0.000000,0.000000,0.000000,1.598399,0.373507,0.078924,-0.832052,0.233405,0.905924,0.743932
0.143000,-0.500000,-0.500000,0.800000,0.999924,0.004776,-0.011320,0.001026,-0.500000,-0.500000,0.800000,0.999924,0.004776,-0.011320,0.001026,200.000000,100.000000,0.000000,0.000035,0.000000,0.000000,0.000000,0.000000,0.000000,0.000000,1.598399,0.373507,0.078924,-0.832052,0.233405,0.905924,0.743932
0.144000,-0.500000,-0.500000,0.800000,0.999924,0.004776,-0.011320,0.001026,-0.500000,-0.500000,0.800000,0.999924,0.004776,-0.011320,0.001026,200.000000,100.000000,0.000000,0.000035,0.000000,0.000000,0.000000,0.000000,0.000000,0.000000,1.598399,0.373507,0.078924,-0.832052,0.233405,0.905924,0.743932
0.145000,-0.500000,-0.500000,0.800000,0.999924,0.004776,-0.011320,0.001026,-0.500000,-0.500000,0.800000,0.999924,0.004776,-0.011320,0.001026,200.000000,100.000000,0.000000,0.000035,0.000000,0.000000,0.000000,0.000000,0.000000,0.000000,1.598399,0.373507,0.078924,-0.832052,0.233405,0.905924,0.743932
0.146000,-0.500000,-0.500000,0.800000,0.999924,0.004776,-0.011320,0.001026,-0.500000,-0.500000,0.800000,0.999924,0.004776,-0.011320,0.001026,200.000000,100.000000,0.000000,0.000034,0.000000,0.000000,0.000000,0.000000,0.000000,0.000000,1.598399,0.373507,0.078924,-0.832052,0.233405,0.905924,0.743932
0.147000,-0.500000,-0.500000,0.800000,0.999924,0.004776,-0.011320,0.001026,-0.500000,-0.500000,0.800000,0.999924,0.004776,-0.011320,0.001026,200.000000,100.000000,0.000000,0.000035,0.000000,0.000000,0.000000,0.000000,0.000000,0.000000,1.598399,0.373507,0.078924,-0.832052,0.233405,0.905924,0.743932
0.148000,-0.500000,-0.500000,0.800000,0.999924,0.004776,-0.011320,0.001026,-0.500000,-0.500000,0.800000,0.999924,0.004776,-0.011320,0.001026,200.000000,100.000000,0.000000,0.000034,0.000000,0.000000,0.000000,0.000000,0.000000,0.000000,1.598399,0.373507,0.078924,-0.832052,0.233405,0.905924,0.743932
0.149000,-0.500000,-0.500000,0.800000,0.999924,0.004776,-0.011320,0.001026,-0.500000,-0.500000,0.800000,0.999924,0.004776,-0.011320,0.001026,200.000000,100.000000,0.000000,0.000034,0.000000,0.000000,0.000000,0.000000,0.000000,0.000000,1.598399,0.373507,0.078924,-0.832052,0.233405,0.905924,0.743932
0.149000,-0.500000,-0.500000,0.800000,0.999924,0.004776,-0.011320,0.001026,-0.500000,-0.500000,0.800000,0.999924,0.004776,-0.011320,0.001026,200.000000,100.000000,0.000000,0.000035,0.000000,0.000000,0.000000,0.000000,0.000000,0.000000,1.598399,0.373507,0.078924,-0.832052,0.233405,0.905924,0.743932
0.151000,-0.500000,-0.500000,0.800000,0.999924,0.004776,-0.011320,0.001026,-0.500000,-0.500000,0.800000,0.999924,0.004776,-0.011320,0.001026,200.000000,100.000000,0.000000,0.000035,0.000000,0.000000,0.000000,0.000000,0.000000,0.000000,1.598399,0.373507,0.078924,-0.832052,0.233405,0.905924,0.743932
0.152000,-0.500000,-0.500000,0.800000,0.999924,0.004776,-0.011320,0.001026,-0.500000,-0.500000,0.800000,0.999924,0.004776,-0.011320,0.001026,200.000000,100.000000,0.000000,0.000034,0.000000,0.000000,0.000000,0.000000,0.000000,0.000000,1.598399,0.373507,0.078924,-0.832052,0.233405,0.905924,0.743932
0.153000,-0.500000,-0.500000,0.800000,0.999924,0.004776,-0.011320,0.001026,-0.500000,-0.500000,0.800000,0.999924,0.004776,-0.011320,0.001026,200.000000,100.000000,0.000000,0.000034,0.000000,0.000000,0.000000,0.000000,0.000000,0.000000,1.598399,0.373507,0.078924,-0.832052,0.233405,0.905924,0.743932
0.154000,-0.500000,-0.500000,0.800000,0.999924,0.004776,-0.011320,0.001026,-0.500000,-0.500000,0.800000,0.999924,0.004776,-0.011320,0.001026,200.000000,100.000000,0.000000,0.000035,0.000000,0.000000,0.000000,0.000000,0.000000,0.000000,1.598399,0.373507,0.078924,-0.832052,0.233405,0.905924,0.743932
0.155000,-0.500000,-0.500000,0.800000,0.999924,0.004776,-0.011320,0.001026,-0.500000,-0.500000,0.800000,0.999924,0.004776,-0.011320,0.001026,200.000000,100.000000,0.000000,0.000035,0.000000,0.000000,0.000000,0.000000,0.000000,0.000000,1.598399,0.373507,0.078924,-0.832052,0.233405,0.905924,0.743932
0.156000,-0.500000,-0.500000,0.800000,0.999924,0.004776,-0.011320,0.001026,-0.500000,-0.500000,0.800000,0.999924,0.004776,-0.011320,0.001026,200.000000,100.000000,0.000000,0.000035,0.000000,0.000000,0.000000,0.000000,0.000000,0.000000,1.598399,0.373507,0.078924,-0.832052,0.233405,0.905924,0.743932
0.157000,-0.500000,-0.500000,0.800000,0.999924,0.004776,-0.011320,0.001026,-0.500000,-0.500000,0.800000,0.999924,0.004776,-0.011320,0.001026,200.000000,100.000000,0.000000,0.000034,0.000000,0.000000,0.000000,0.000000,0.000000,0.000000,1.598399,0.373507,0.078924,-0.832052,0.233405,0.905924,0.743932
0.158000,-0.500000,-0.500000,0.800000,0.999924,0.004776,-0.011320,0.001026,-0.500000,-0.500000,0.800000,0.999924,0.004776,-0.011320,0.001026,200.000000,100.000000,0.000000,0.000035,0.000000,0.000000,0.000000,0.000000,0.000000,0.000000,1.598399,0.373507,0.078924,-0.832052,0.233405,0.905924,0.743932
0.159000,-0.500000,-0.500000,0.800000,0.999924,0.004776,-0.011320,0.001026,-0.500000,-0.500000,0.800000,0.999924,0.004776,-0.011320,0.001026,200.000000,100.000000,0.000000,0.000035,0.000000,0.000000,0.000000,0.000000,0.000000,0.000000,1.598399,0.373507,0.078924,-0.832052,0.233405,0.905924,0.743932
0.160000,-0.500000,-0.500000,0.800000,0.999924,0.004776,-0.011320,0.001026,-0.500000,-0.500000,0.800000,0.999924,0.004776,-0.011320,0.001026,200.000000,100.000000,0.000000,0.000034,0.000000,0.000000,0.000000,0.000000,0.000000,0.000000,1.598399,0.373507,0.078924,-0.832052,0.233405,0.905924,0.743932
0.161000,-0.500000,-0.500000,0.800000,0.999924,0.004776,-0.011320,0.001026,-0.500000,-0.500000,0.800000,0.999924,0.004776,-0.011320,0.001026,200.000000,100.000000,0.000000,0.000034,0.000000,0.000000,0.000000,0.000000,0.000000,0.000000,1.598399,0.373507,0.078924,-0.832052,0.233405,0.905924,0.743932
0.162000,-0.500000,-0.500000,0.800000,0.999924,0.004776,-0.011320,0.001026,-0.500000,-0.500000,0.800000,0.999924,0.004776,-0.011320,0.001026,200.000000,100.000000,0.000000,0.000034,0.000000,0.000000,0.000000,0.000000,0.000000,0.000000,1.598399,0.373507,0.078924,-0.832052,0.233405,0.905924,0.743932
0.163000,-0.500000,-0.500000,0.800000,0.999924,0.004776,-0.011320,0.001026,-0.500000,-0.500000,0.800000,0.999924,0.004776,-0.011320,0.001026,200.000000,100.000000,0.000000,0.000035,0.000000,0.000000,0.000000,0.000000,0.000000,0.000000,1.598399,0.373507,0.078924,-0.832052,0.233405,0.905924,0.743932
0.164000,-0.500000,-0.500000,0.800000,0.999924,0.004776,-0.011320,0.001026,-0.500000,-0.500000,0.800000,0.999924,0.004776,-0.011320,0.001026,200.000000,100.000000,0.000000,0.000035,0.000000,0.000000,0.000000,0.000000,0.000000,0.000000,1.598399,0.373507,0.078924,-0.832052,0.233405,0.905924,0.743932
0.165000,-0.500000,-0.500000,0.800000,0.999924,0.004776,-0.011320,0.001026,-0.500000,-0.500000,0.800000,0.999924,0.004776,-0.011320,0.001026,200.000000,100.000000,0.000000,0.000034,0.000000,0.000000,0.000000,0.000000,0.000000,0.000000,1.598399,0.373507,0.078924,-0.832052,0.233405,0.905924,0.743932
0.166000,-0.500000,-0.500000,0.800000,0.999924,0.004776,-0.011320,0.001026,-0.500000,-0.500000,0.800000,0.999924,0.004776,-0.011320,0.001026,200.000000,100.000000,0.000000,0.000034,0.000000,0.000000,0.000000,0.000000,0.000000,0.000000,1.598399,0.373507,0.078924,-0.832052,0.233405,0.905924,0.743932
0.167000,-0.500000,-0.500000,0.800000,0.999924,0.004776,-0.011320,0.001026,-0.500000,-0.500000,0.800000,0.999924,0.004776,-0.011320,0.001026,200.000000,100.000000,0.000000,0.000035,0.000000,0.000000,0.000000,0.000000,0.000000,0.000000,1.598399,0.373507,0.078924,-0.832052,0.233405,0.905924,0.743932
0.168000,-0.500000,-0.500000,0.800000,0.999924,0.004776,-0.011320,0.001026,-0.500000,-0.500000,0.800000,0.999924,0.004776,-0.011320,0.001026,200.000000,100.000000,0.000000,0.000035,0.000000,0.000000,0.000000,0.000000,0.000000,0.000000,1.598399,0.373507,0.078924,-0.832052,0.233405,0.905924,0.743932
0.169000,-0.500000,-0.500000,0.800000,0.999924,0.004776,-0.011320,0.001026,-0.500000,-0.500000,0.800000,0.999924,0.004776,-0.011320,0.001026,200.000000,100.000000,0.000000,0.000035,0.000000,0.000000,0.000000,0.000000,0.000000,0.000000,1.598399,0.373507,0.078924,-0.832052,0.233405,0.905924,0.743932
0.170000,-0.500000,-0.500000,0.800000,0.999924,0.004776,-0.011320,0.001026,-0.500000,-0.500000,0.800000,0.999924,0.004776,-0.011320,0.001026,200.000000,100.000000,0.000000,0.000035,0.000000,0.000000,0.000000,0.000000,0.000000,0.000000,1.598399,0.373507,0.078924,-0.832052,0.233405,0.905924,0.743932
0.171000,-0.500000,-0.500000,0.800000,0.999924,0.004776,-0.011320,0.001026,-0.500000,-0.500000,0.800000,0.999924,0.004776,-0.011320,0.001026,200.000000,100.000000,0.000000,0.000035,0.000000,0.000000,0.000000,0.000000,0.000000,0.000000,1.598399,0.373507,0.078924,-0.832052,0.233405,0.905924,0.743932
0.171000,-0.500000,-0.500000,0.800000,0.999924,0.004776,-0.011320,0.001026,-0.500000,-0.500000,0.800000,0.999924,0.004776,-0.011320,0.001026,200.000000,100.000000,0.000000,0.000035,0.000000,0.000000,0.000000,0.000000,0.000000,0.000000,1.598399,0.373507,0.078924,-0.832052,0.233405,0.905924,0.743932
0.173000,-0.500000,-0.500000,0.800000,0.999924,0.004776,-0.011320,0.001026,-0.500000,-0.500000,0.800000,0.999924,0.004776,-0.011320,0.001026,200.000000,100.000000,0.000000,0.000035,0.000000,0.000000,0.000000,0.000000,0.000000,0.000000,1.598399,0.373507,0.078924,-0.832052,0.233405,0.905924,0.743932
0.174000,-0.500000,-0.500000,0.800000,0.999924,0.004776,-0.011320,0.001026,-0.500000,-0.500000,0.800000,0.999924,0.004776,-0.011320,0.001026,200.000000,100.000000,0.000000,0.000034,0.000000,0.000000,0.000000,0.000000,0.000000,0.000000,1.598399,0.373507,0.078924,-0.832052,0.233405,0.905924,0.743932
0.175000,-0.500000,-0.500000,0.800000,0.999924,0.004776,-0.011320,0.001026,-0.500000,-0.500000,0.800000,0.999924,0.004776,-0.011320,0.001026,200.000000,100.000000,0.000000,0.000035,0.000000,0.000000,0.000000,0.000000,0.000000,0.000000,1.598399,0.373507,0.078924,-0.832052,0.233405,0.905924,0.743932
0.176000,-0.500000,-0.500000,0.800000,0.999924,0.004776,-0.011320,0.001026,-0.500000,-0.500000,0.800000,0.999924,0.004776,-0.011320,0.001026,200.000000,100.000000,0.000000,0.000035,0.000000,0.000000,0.000000,0.000000,0.000000,0.000000,1.598399,0.373507,0.078924,-0.832052,0.233405,0.905924,0.743932
0.177000,-0.500000,-0.500000,0.800000,0.999924,0.004776,-0.011320,0.001026,-0.500000,-0.500000,0.800000,0.999924,0.004776,-0.011320,0.001026,200.000000,100.000000,0.000000,0.000035,0.000000,0.000000,0.000000,0.000000,0.000000,0.000000,1.598399,0.373507,0.078924,-0.832052,0.233405,0.905924,0.743932
0.178000,-0.500000,-0.500000,0.800000,0.999924,0.004776,-0.011320,0.001026,-0.500000,-0.500000,0.800000,0.999924,0.004776,-0.011320,0.001026,200.000000,100.000000,0.000000,0.000035,0.000000,0.000000,0.000000,0.000000,0.000000,0.000000,1.598399,0.373507,0.078924,-0.832052,0.233405,0.905924,0.743932
0.179000,-0.500000,-0.500000,0.800000,0.999924,0.004776,-0.011320,0.001026,-0.500000,-0.500000,0.800000,0.999924,0.004776,-0.011320,0.001026,200.000000,100.000000,0.000000,0.000035,0.000000,0.000000,0.000000,0.000000,0.000000,0.000000,1.598399,0.373507,0.078924,-0.832052,0.233405,0.905924,0.743932
0.180000,-0.500000,-0.500000,0.800000,0.999924,0.004776,-0.011320,0.001026,-0.500000,-0.500000,0.800000,0.999924,0.004776,-0.011320,0.001026,200.000000,100.000000,0.000000,0.000034,0.000000,0.000000,0.000000,0.000000,0.000000,0.000000,1.598399,0.373507,0.078924,-0.832052,0.233405,0.905924,0.743932
0.181000,-0.500000,-0.500000,0.800000,0.999924,0.004776,-0.011320,0.001026,-0.500000,-0.500000,0.800000,0.999924,0.004776,-0.011320,0.001026,200.000000,100.000000,0.000000,0.000035,0.000000,0.000000,0.000000,0.000000,0.000000,0.000000,1.598399,0.373507,0.078924,-0.832052,0.233405,0.905924,0.743932
0.182000,-0.500000,-0.500000,0.800000,0.999924,0.004776,-0.011320,0.001026,-0.500000,-0.500000,0.800000,0.999924,0.004776,-0.011320,0.001026,200.000000,100.000000,0.000000,0.000035,0.000000,0.000000,0.000000,0.000000,0.000000,0.000000,1.598399,0.373507,0.078924,-0.832052,0.233405,0.905924,0.743932
0.183000,-0.500000,-0.500000,0.800000,0.999924,0.004776,-0.011320,0.001026,-0.500000,-0.500000,0.800000,0.999924,0.004776,-0.011320,0.001026,200.000000,100.000000,0.000000,0.000035,0.000000,0.000000,0.000000,0.000000,0.000000,0.000000,1.598399,0.373507,0.078924,-0.832052,0.233405,0.905924,0.743932
0.184000,-0.500000,-0.500000,0.800000,0.999924,0.004776,-0.011320,0.001026,-0.500000,-0.500000,0.800000,0.999924,0.004776,-0.011320,0.001026,200.000000,100.000000,0.000000,0.000035,0.000000,0.000000,0.000000,0.000000,0.000000,0.000000,1.598399,0.373507,0.078924,-0.832052,0.233405,0.905924,0.743932
0.185000,-0.500000,-0.500000,0.800000,0.999924,0.004776,-0.011320,0.001026,-0.500000,-0.500000,0.800000,0.999924,0.004776,-0.011320,0.001026,200.000000,100.000000,0.000000,0.000035,0.000000,0.000000,0.000000,0.000000,0.000000,0.000000,1.598399,0.373507,0.078924,-0.832052,0.233405,0.905924,0.743932
0.186000,-0.500000,-0.500000,0.800000,0.999924,0.004776,-0.011320,0.001026,-0.500000,-0.500000,0.800000,0.999924,0.004776,-0.011320,0.001026,200.000000,100.000000,0.000000,0.000035,0.000000,0.000000,0.000000,0.000000,0.000000,0.000000,1.598399,0.373507,0.078924,-0.832052,0.233405,0.905924,0.743932
0.187000,-0.500000,-0.500000,0.800000,0.999924,0.004776,-0.011320,0.001026,-0.500000,-0.500000,0.800000,0.999924,0.004776,-0.011320,0.001026,200.000000,100.000000,0.000000,0.000035,0.000000,0.000000,0.000000,0.000000,0.000000,0.000000,1.598399,0.373507,0.078924,-0.832052,0.233405,0.905924,0.743932
0.188000,-0.500000,-0.500000,0.800000,0.999924,0.004776,-0.011320,0.001026,-0.500000,-0.500000,0.800000,0.999924,0.004776,-0.011320,0.001026,200.000000,100.000000,0.000000,0.000035,0.000000,0.000000,0.000000,0.000000,0.000000,0.000000,1.598399,0.373507,0.078924,-0.832052,0.233405,0.905924,0.743932
0.189000,-0.500000,-0.500000,0.800000,0.999924,0.004776,-0.011320,0.001026,-0.500000,-0.500000,0.800000,0.999924,0.004776,-0.011320,0.001026,200.000000,100.000000,0.000000,0.000035,0.000000,0.000000,0.000000,0.000000,0.000000,0.000000,1.598399,0.373507,0.078924,-0.832052,0.233405,0.905924,0.743932
0.190000,-0.500000,-0.500000,0.800000,0.999924,0.004776,-0.011320,0.001026,-0.500000,-0.500000,0.800000,0.999924,0.004776,-0.011320,0.001026,200.000000,100.000000,0.000000,0.000035,0.000000,0.000000,0.000000,0.000000,0.000000,0.000000,1.598399,0.373507,0.078924,-0.832052,0.233405,0.905924,0.743932
0.191000,-0.500000,-0.500000,0.800000,0.999924,0.004776,-0.011320,0.001026,-0.500000,-0.500000,0.800000,0.999924,0.004776,-0.011320,0.001026,200.000000,100.000000,0.000000,0.000035,0.000000,0.000000,0.000000,0.000000,0.000000,0.000000,1.598399,0.373507,0.078924,-0.832052,0.233405,0.905924,0.743932
0.192000,-0.500000,-0.500000,0.800000,0.999924,0.004776,-0.011320,0.001026,-0.500000,-0.500000,0.800000,0.999924,0.004776,-0.011320,0.001026,200.000000,100.000000,0.000000,0.000034,0.000000,0.000000,0.000000,0.000000,0.000000,0.000000,1.598399,0.373507,0.078924,-0.832052,0.233405,0.905924,0.743932
0.193000,-0.500000,-0.500000,0.800000,0.999924,0.004776,-0.011320,0.001026,-0.500000,-0.500000,0.800000,0.999924,0.004776,-0.011320,0.001026,200.000000,100.000000,0.000000,0.000034,0.000000,0.000000,0.000000,0.000000,0.000000,0.000000,1.598399,0.373507,0.078924,-0.832052,0.233405,0.905924,0.743932
0.194000,-0.500000,-0.500000,0.800000,0.999924,0.004776,-0.011320,0.001026,-0.500000,-0.500000,0.800000,0.999924,0.004776,-0.011320,0.001026,200.000000,100.000000,0.000000,0.000035,0.000000,0.000000,0.000000,0.000000,0.000000,0.000000,1.598399,0.373507,0.078924,-0.832052,0.233405,0.905924,0.743932
0.195000,-0.500000,-0.500000,0.800000,0.999924,0.004776,-0.011320,0.001026,-0.500000,-0.500000,0.800000,0.999924,0.004776,-0.011320,0.001026,200.000000,100.000000,0.000000,0.000035,0.000000,0.000000,0.000000,0.000000,0.000000,0.000000,1.598399,0.373507,0.078924,-0.832052,0.233405,0.905924,0.743932
0.196000,-0.500000,-0.500000,0.800000,0.999924,0.004776,-0.011320,0.001026,-0.500000,-0.500000,0.800000,0.999924,0.004776,-0.011320,0.001026,200.000000,100.000000,0.000000,0.000034,0.000000,0.000000,0.000000,0.000000,0.000000,0.000000,1.598399,0.373507,0.078924,-0.832052,0.233405,0.905924,0.743932
0.197000,-0.500000,-0.500000,0.800000,0.999924,0.004776,-0.011320,0.001026,-0.500000,-0.500000,0.800000,0.999924,0.004776,-0.011320,0.001026,200.000000,100.000000,0.000000,0.000034,0.000000,0.000000,0.000000,0.000000,0.000000,0.000000,1.598399,0.373507,0.078924,-0.832052,0.233405,0.905924,0.743932
0.198000,-0.500000,-0.500000,0.800000,0.999924,0.004776,-0.011320,0.001026,-0.500000,-0.500000,0.800000,0.999924,0.004776,-0.011320,0.001026,200.000000,100.000000,0.000000,0.000035,0.000000,0.000000,0.000000,0.000000,0.000000,0.000000,1.598399,0.373507,0.078924,-0.832052,0.233405,0.905924,0.743932
0.199000,-0.500000,-0.500000,0.800000,0.999924,0.004776,-0.011320,0.001026,-0.500000,-0.500000,0.800000,0.999924,0.004776,-0.011320,0.001026,200.000000,100.000000,0.000000,0.000035,0.000000,0.000000,0.000000,0.000000,0.000000,0.000000,1.598399,0.373507,0.078924,-0.832052,0.233405,0.905924,0.743932
0.200000,-0.500000,-0.500000,0.800000,0.999924,0.004776,-0.011320,0.001026,-0.500000,-0.500000,0.800000,0.999924,0.004776,-0.011320,0.001026,200.000000,100.000000,0.000000,0.000034,0.000000,0.000000,0.000000,0.000000,0.000000,0.000000,1.598399,0.373507,0.078924,-0.832052,0.233405,0.905924,0.743932
0.201000,-0.500000,-0.500000,0.800000,0.999924,0.004776,-0.011320,0.001026,-0.500000,-0.500000,0.800000,0.999924,0.004776,-0.011320,0.001026,200.000000,100.000000,0.000000,0.000034,0.000000,0.000000,0.000000,0.000000,0.000000,0.000000,1.598399,0.373507,0.078924,-0.832052,0.233405,0.905924,0.743932
0.202000,-0.500000,-0.500000,0.800000,0.999924,0.004776,-0.011320,0.001026,-0.500000,-0.500000,0.800000,0.999924,0.004776,-0.011320,0.001026,200.000000,100.000000,0.000000,0.000034,0.000000,0.000000,0.000000,0.000000,0.000000,0.000000,1.598399,0.373507,0.078924,-0.832052,0.233405,0.905924,0.743932
0.203000,-0.500000,-0.500000,0.800000,0.999924,0.004776,-0.011320,0.001026,-0.500000,-0.500000,0.800000,0.999924,0.004776,-0.011320,0.001026,200.000000,100.000000,0.000000,0.000035,0.000000,0.000000,0.000000,0.000000,0.000000,0.000000,1.598399,0.373507,0.078924,-0.832052,0.233405,0.905924,0.743932
0.204000,-0.500000,-0.500000,0.800000,0.999924,0.004776,-0.011320,0.001026,-0.500000,-0.500000,0.800000,0.999924,0.004776,-0.011320,0.001026,200.000000,100.000000,0.000000,0.000035,0.000000,0.000000,0.000000,0.000000,0.000000,0.000000,1.598399,0.373507,0.078924,-0.832052,0.233405,0.905924,0.743932
0.205000,-0.500000,-0.500000,0.800000,0.999924,0.004776,-0.011320,0.001026,-0.500000,-0.500000,0.800000,0.999924,0.004776,-0.011320,0.001026,200.000000,100.000000,0.000000,0.000034,0.000000,0.000000,0.000000,0.000000,0.000000,0.000000,1.598399,0.373507,0.078924,-0.832052,0.233405,0.905924,0.743932
0.206000,-0.500000,-0.500000,0.800000,0.999924,0.004776,-0.011320,0.001026,-0.500000,-0.500000,0.800000,0.999924,0.004776,-0.011320,0.001026,200.000000,100.000000,0.000000,0.000034,0.000000,0.000000,0.000000,0.000000,0.000000,0.000000,1.598399,0.373507,0.078924,-0.832052,0.233405,0.905924,0.743932
0.207000,-0.500000,-0.500000,0.800000,0.999924,0.004776,-0.011320,0.001026,-0.500000,-0.500000,0.800000,0.999924,0.004776,-0.011320,0.001026,200.000000,100.000000,0.000000,0.000035,0.000000,0.000000,0.000000,0.000000,0.000000,0.000000,1.598399,0.373507,0.078924,-0.832052,0.233405,0.905924,0.743932
0.208000,-0.500000,-0.500000,0.800000,0.999924,0.004776,-0.011320,0.001026,-0.500000,-0.500000,0.800000,0.999924,0.004776,-0.011320,0.001026,200.000000,100.000000,0.000000,0.000035,0.000000,0.000000,0.000000,0.000000,0.000000,0.000000,1.598399,0.373507,0.078924,-0.832052,0.233405,0.905924,0.743932
0.209000,-0.500000,-0.500000,0.800000,0.999924,0.004776,-0.011320,0.001026,-0.500000,-0.500000,0.800000,0.999924,0.004776,-0.011320,0.001026,200.000000,100.000000,0.000000,0.000034,0.000000,0.000000,0.000000,0.000000,0.000000,0.000000,1.598399,0.373507,0.078924,-0.832052,0.233405,0.905924,0.743932
0.210000,-0.500000,-0.500000,0.800000,0.999924,0.004776,-0.011320,0.001026,-0.500000,-0.500000,0.800000,0.999924,0.004776,-0.011320,0.001026,200.000000,100.000000,0.000000,0.000034,0.000000,0.000000,0.000000,0.000000,0.000000,0.000000,1.598399,0.373507,0.078924,-0.832052,0.233405,0.905924,0.743932
0.211000,-0.500000,-0.500000,0.800000,0.999924,0.004776,-0.011320,0.001026,-0.500000,-0.500000,0.800000,0.999924,0.004776,-0.011320,0.001026,200.000000,100.000000,0.000000,0.000035,0.000000,0.000000,0.000000,0.000000,0.000000,0.000000,1.598399,0.373507,0.078924,-0.832052,0.233405,0.905924,0.743932
0.212000,-0.500000,-0.500000,0.800000,0.999924,0.004776,-0.011320,0.001026,-0.500000,-0.500000,0.800000,0.999924,0.004776,-0.011320,0.001026,200.000000,100.000000,0.000000,0.000035,0.000000,0.000000,0.000000,0.000000,0.000000,0.000000,1.598399,0.373507,0.078924,-0.832052,0.233405,0.905924,0.743932
0.213000,-0.500000,-0.500000,0.800000,0.999924,0.004776,-0.011320,0.001026,-0.500000,-0.500000,0.800000,0.999924,0.004776,-0.011320,0.001026,200.000000,100.000000,0.000000,0.000034,0.000000,0.000000,0.000000,0.000000,0.000000,0.000000,1.598399,0.373507,0.078924,-0.832052,0.233405,0.905924,0.743932
0.214000,-0.500000,-0.500000,0.800000,0.999924,0.004776,-0.011320,0.001026,-0.500000,-0.500000,0.800000,0.999924,0.004776,-0.011320,0.001026,200.000000,100.000000,0.000000,0.000034,0.000000,0.000000,0.000000,0.000000,0.000000,0.000000,1.598399,0.373507,0.078924,-0.832052,0.233405,0.905924,0.743932
0.215000,-0.500000,-0.500000,0.800000,0.999924,0.004776,-0.011320,0.001026,-0.500000,-0.500000,0.800000,0.999924,0.004776,-0.011320,0.001026,200.000000,100.000000,0.000000,0.000035,0.000000,0.000000,0.000000,0.000000,0.000000,0.000000,1.598399,0.373507,0.078924,-0.832052,0.233405,0.905924,0.743932
0.216000,-0.500000,-0.500000,0.800000,0.999924,0.004776,-0.011320,0.001026,-0.500000,-0.500000,0.800000,0.999924,0.004776,-0.011320,0.001026,200.000000,100.000000,0.000000,0.000035,0.000000,0.000000,0.000000,0.000000,0.000000,0.000000,1.598399,0.373507,0.078924,-0.832052,0.233405,0.905924,0.743932
0.217000,-0.500000,-0.500000,0.800000,0.999924,0.004776,-0.011320,0.001026,-0.500000,-0.500000,0.800000,0.999924,0.004776,-0.011320,0.001026,200.000000,100.000000,0.000000,0.000034,0.000000,0.000000,0.000000,0.000000,0.000000,0.000000,1.598399,0.373507,0.078924,-0.832052,0.233405,0.905924,0.743932
0.218000,-0.500000,-0.500000,0.800000,0.999924,0.004776,-0.011320,0.001026,-0.500000,-0.500000,0.800000,0.999924,0.004776,-0.011320,0.001026,200.000000,100.000000,0.000000,0.000034,0.000000,0.000000,0.000000,0.000000,0.000000,0.000000,1.598399,0.373507,0.078924,-0.832052,0.233405,0.905924,0.743932
0.219000,-0.500000,-0.500000,0.800000,0.999924,0.004776,-0.011320,0.001026,-0.500000,-0.500000,0.800000,0.999924,0.004776,-0.011320,0.001026,200.000000,100.000000,0.000000,0.000035,0.000000,0.000000,0.000000,0.000000,0.000000,0.000000,1.598399,0.373507,0.078924,-0.832052,0.233405,0.905924,0.743932
0.220000,-0.500000,-0.500000,0.800000,0.999924,0.004776,-0.011320,0.001026,-0.500000,-0.500000,0.800000,0.999924,0.004776,-0.011320,0.001026,200.000000,100.000000,0.000000,0.000034,0.000000,0.000000,0.000000,0.000000,0.000000,0.000000,1.598399,0.373507,0.078924,-0.832052,0.233405,0.905924,0.743932
0.221000,-0.500000,-0.500000,0.800000,0.999924,0.004776,-0.011320,0.001026,-0.500000,-0.500000,0.800000,0.999924,0.004776,-0.011320,0.001026,200.000000,100.000000,0.000000,0.000034,0.000000,0.000000,0.000000,0.000000,0.000000,0.000000,1.598399,0.373507,0.078924,-0.832052,0.233405,0.905924,0.743932
0.222000,-0.500000,-0.500000,0.800000,0.999924,0.004776,-0.011320,0.001026,-0.500000,-0.500000,0.800000,0.999924,0.004776,-0.011320,0.001026,200.000000,100.000000,0.000000,0.000035,0.000000,0.000000,0.000000,0.000000,0.000000,0.000000,1.598399,0.373507,0.078924,-0.832052,0.233405,0.905924,0.743932
0.223000,-0.500000,-0.500000,0.800000,0.999924,0.004776,-0.011320,0.001026,-0.500000,-0.500000,0.800000,0.999924,0.004776,-0.011320,0.001026,200.000000,100.000000,0.000000,0.000035,0.000000,0.000000,0.000000,0.000000,0.000000,0.000000,1.598399,0.373507,0.078924,-0.832052,0.233405,0.905924,0.743932
0.224000,-0.500000,-0.500000,0.800000,0.999924,0.004776,-0.011320,0.001026,-0.500000,-0.500000,0.800000,0.999924,0.004776,-0.011320,0.001026,200.000000,100.000000,0.000000,0.000035,0.000000,0.000000,0.000000,0.000000,0.000000,0.000000,1.598399,0.373507,0.078924,-0.832052,0.233405,0.905924,0.743932
0.225000,-0.500000,-0.500000,0.800000,0.999924,0.004776,-0.011320,0.001026,-0.500000,-0.500000,0.800000,0.999924,0.004776,-0.011320,0.001026,200.000000,100.000000,0.000000,0.000034,0.000000,0.000000,0.000000,0.000000,0.000000,0.000000,1.598399,0.373507,0.078924,-0.832052,0.233405,0.905924,0.743932
0.226000,-0.500000,-0.500000,0.800000,0.999924,0.004776,-0.011320,0.001026,-0.500000,-0.500000,0.800000,0.999924,0.004776,-0.011320,0.001026,200.000000,100.000000,0.000000,0.000034,0.000000,0.000000,0.000000,0.000000,0.000000,0.000000,1.598399,0.373507,0.078924,-0.832052,0.233405,0.905924,0.743932
0.227000,-0.500000,-0.500000,0.800000,0.999924,0.004776,-0.011320,0.001026,-0.500000,-0.500000,0.800000,0.999924,0.004776,-0.011320,0.001026,200.000000,100.000000,0.000000,0.000035,0.000000,0.000000,0.000000,0.000000,0.000000,0.000000,1.598399,0.373507,0.078924,-0.832052,0.233405,0.905924,0.743932
0.228000,-0.500000,-0.500000,0.800000,0.999924,0.004776,-0.011320,0.001026,-0.500000,-0.500000,0.800000,0.999924,0.004776,-0.011320,0.001026,200.000000,100.000000,0.000000,0.000034,0.000000,0.000000,0.000000,0.000000,0.000000,0.000000,1.598399,0.373507,0.078924,-0.832052,0.233405,0.905924,0.743932
0.229000,-0.500000,-0.500000,0.800000,0.999924,0.004776,-0.011320,0.001026,-0.500000,-0.500000,0.800000,0.999924,0.004776,-0.011320,0.001026,200.000000,100.000000,0.000000,0.000034,0.000000,0.000000,0.000000,0.000000,0.000000,0.000000,1.598399,0.373507,0.078924,-0.832052,0.233405,0.905924,0.743932
0.230000,-0.500000,-0.500000,0.800000,0.999924,0.004776,-0.011320,0.001026,-0.500000,-0.500000,0.800000,0.999924,0.004776,-0.011320,0.001026,200.000000,100.000000,0.000000,0.000035,0.000000,0.000000,0.000000,0.000000,0.000000,0.000000,1.598399,0.373507,0.078924,-0.832052,0.233405,0.905924,0.743932
0.231000,-0.500000,-0.500000,0.800000,0.999924,0.004776,-0.011320,0.001026,-0.500000,-0.500000,0.800000,0.999924,0.004776,-0.011320,0.001026,200.000000,100.000000,0.000000,0.000035,0.000000,0.000000,0.000000,0.000000,0.000000,0.000000,1.598399,0.373507,0.078924,-0.832052,0.233405,0.905924,0.743932
0.232000,-0.500000,-0.500000,0.800000,0.999924,0.004776,-0.011320,0.001026,-0.500000,-0.500000,0.800000,0.999924,0.004776,-0.011320,0.001026,200.000000,100.000000,0.000000,0.000034,0.000000,0.000000,0.000000,0.000000,0.000000,0.000000,1.598399,0.373507,0.078924,-0.832052,0.233405,0.905924,0.743932
0.233000,-0.500000,-0.500000,0.800000,0.999924,0.004776,-0.011320,0.001026,-0.500000,-0.500000,0.800000,0.999924,0.004776,-0.011320,0.001026,200.000000,100.000000,0.000000,0.000034,0.000000,0.000000,0.000000,0.000000,0.000000,0.000000,1.598399,0.373507,0.078924,-0.832052,0.233405,0.905924,0.743932
0.234000,-0.500000,-0.500000,0.800000,0.999924,0.004776,-0.011320,0.001026,-0.500000,-0.500000,0.800000,0.999924,0.004776,-0.011320,0.001026,200.000000,100.000000,0.000000,0.000035,0.000000,0.000000,0.000000,0.000000,0.000000,0.000000,1.598399,0.373507,0.078924,-0.832052,0.233405,0.905924,0.743932
0.235000,-0.500000,-0.500000,0.800000,0.999924,0.004776,-0.011320,0.001026,-0.500000,-0.500000,0.800000,0.999924,0.004776,-0.011320,0.001026,200.000000,100.000000,0.000000,0.000035,0.000000,0.000000,0.000000,0.000000,0.000000,0.000000,1.598399,0.373507,0.078924,-0.832052,0.233405,0.905924,0.743932
0.236000,-0.500000,-0.500000,0.800000,0.999924,0.004776,-0.011320,0.001026,-0.500000,-0.500000,0.800000,0.999924,0.004776,-0.011320,0.001026,200.000000,100.000000,0.000000,0.000034,0.000000,0.000000,0.000000,0.000000,0.000000,0.000000,1.598399,0.373507,0.078924,-0.832052,0.233405,0.905924,0.743932
0.237000,-0.500000,-0.500000,0.800000,0.999924,0.004776,-0.011320,0.001026,-0.500000,-0.500000,0.800000,0.999924,0.004776,-0.011320,0.001026,200.000000,100.000000,0.000000,0.000034,0.000000,0.000000,0.000000,0.000000,0.000000,0.000000,1.598399,0.373507,0.078924,-0.832052,0.233405,0.905924,0.743932
0.238000,-0.500000,-0.500000,0.800000,0.999924,0.004776,-0.011320,0.001026,-0.500000,-0.500000,0.800000,0.999924,0.004776,-0.011320,0.001026,200.000000,100.000000,0.000000,0.000035,0.000000,0.000000,0.000000,0.000000,0.000000,0.000000,1.598399,0.373507,0.078924,-0.832052,0.233405,0.905924,0.743932
0.239000,-0.500000,-0.500000,0.800000,0.999924,0.004776,-0.011320,0.001026,-0.500000,-0.500000,0.800000,0.999924,0.004776,-0.011320,0.001026,200.000000,100.000000,0.000000,0.000035,0.000000,0.000000,0.000000,0.000000,0.000000,0.000000,1.598399,0.373507,0.078924,-0.832052,0.233405,0.905924,0.743932
0.240000,-0.500000,-0.500000,0.800000,0.999924,0.004776,-0.011320,0.001026,-0.500000,-0.500000,0.800000,0.999924,0.004776,-0.011320,0.001026,200.000000,100.000000,0.000000,0.000034,0.000000,0.000000,0.000000,0.000000,0.000000,0.000000,1.598399,0.373507,0.078924,-0.832052,0.233405,0.905924,0.743932
0.241000,-0.500000,-0.500000,0.800000,0.999924,0.004776,-0.011320,0.001026,-0.500000,-0.500000,0.800000,0.999924,0.004776,-0.011320,0.001026,200.000000,100.000000,0.000000,0.000034,0.000000,0.000000,0.000000,0.000000,0.000000,0.000000,1.598399,0.373507,0.078924,-0.832052,0.233405,0.905924,0.743932
0.242000,-0.500000,-0.500000,0.800000,0.999924,0.004776,-0.011320,0.001026,-0.500000,-0.500000,0.800000,0.999924,0.004776,-0.011320,0.001026,200.000000,100.000000,0.000000,0.000034,0.000000,0.000000,0.000000,0.000000,0.000000,0.000000,1.598399,0.373507,0.078924,-0.832052,0.233405,0.905924,0.743932
0.243000,-0.500000,-0.500000,0.800000,0.999924,0.004776,-0.011320,0.001026,-0.500000,-0.500000,0.800000,0.999924,0.004776,-0.011320,0.001026,200.000000,100.000000,0.000000,0.000035,0.000000,0.000000,0.000000,0.000000,0.000000,0.000000,1.598399,0.373507,0.078924,-0.832052,0.233405,0.905924,0.743932
0.244000,-0.500000,-0.500000,0.800000,0.999924,0.004776,-0.011320,0.001026,-0.500000,-0.500000,0.800000,0.999924,0.004776,-0.011320,0.001026,200.000000,100.000000,0.000000,0.000035,0.000000,0.000000,0.000000,0.000000,0.000000,0.000000,1.598399,0.373507,0.078924,-0.832052,0.233405,0.905924,0.743932
0.245000,-0.500000,-0.500000,0.800000,0.999924,0.004776,-0.011320,0.001026,-0.500000,-0.500000,0.800000,0.999924,0.004776,-0.011320,0.001026,200.000000,100.000000,0.000000,0.000034,0.000000,0.000000,0.000000,0.000000,0.000000,0.000000,1.598399,0.373507,0.078924,-0.832052,0.233405,0.905924,0.743932
0.246000,-0.500000,-0.500000,0.800000,0.999924,0.004776,-0.011320,0.001026,-0.500000,-0.500000,0.800000,0.999924,0.004776,-0.011320,0.001026,200.000000,100.000000,0.000000,0.000034,0.000000,0.000000,0.000000,0.000000,0.000000,0.000000,1.598399,0.373507,0.078924,-0.832052,0.233405,0.905924,0.743932
0.247000,-0.500000,-0.500000,0.800000,0.999924,0.004776,-0.011320,0.001026,-0.500000,-0.500000,0.800000,0.999924,0.004776,-0.011320,0.001026,200.000000,100.000000,0.000000,0.000035,0.000000,0.000000,0.000000,0.000000,0.000000,0.000000,1.598399,0.373507,0.078924,-0.832052,0.233405,0.905924,0.743932
0.248000,-0.500000,-0.500000,0.800000,0.999924,0.004776,-0.011320,0.001026,-0.500000,-0.500000,0.800000,0.999924,0.004776,-0.011320,0.001026,200.000000,100.000000,0.000000,0.000035,0.000000,0.000000,0.000000,0.000000,0.000000,0.000000,1.598399,0.373507,0.078924,-0.832052,0.233405,0.905924,0.743932
0.249000,-0.500000,-0.500000,0.800000,0.999924,0.004776,-0.011320,0.001026,-0.500000,-0.500000,0.800000,0.999924,0.004776,-0.011320,0.001026,200.000000,100.000000,0.000000,0.000034,0.000000,0.000000,0.000000,0.000000,0.000000,0.000000,1.598399,0.373507,0.078924,-0.832052,0.233405,0.905924,0.743932
0.250000,-0.500000,-0.500000,0.800000,0.999924,0.004776,-0.011320,0.001026,-0.500000,-0.500000,0.800000,0.999924,0.004776,-0.011320,0.001026,200.000000,100.000000,0.000000,0.000034,0.000000,0.000000,0.000000,0.000000,0.000000,0.000000,1.598399,0.373507,0.078924,-0.832052,0.233405,0.905924,0.743932
0.251000,-0.500000,-0.500000,0.800000,0.999924,0.004776,-0.011320,0.001026,-0.500000,-0.500000,0.800000,0.999924,0.004776,-0.011320,0.001026,200.000000,100.000000,0.000000,0.000035,0.000000,0.000000,0.000000,0.000000,0.000000,0.000000,1.598399,0.373507,0.078924,-0.832052,0.233405,0.905924,0.743932
0.252000,-0.500000,-0.500000,0.800000,0.999924,0.004776,-0.011320,0.001026,-0.500000,-0.500000,0.800000,0.999924,0.004776,-0.011320,0.001026,200.000000,100.000000,0.000000,0.000035,0.000000,0.000000,0.000000,0.000000,0.000000,0.000000,1.598399,0.373507,0.078924,-0.832052,0.233405,0.905924,0.743932
0.253000,-0.500000,-0.500000,0.800000,0.999924,0.004776,-0.011320,0.001026,-0.500000,-0.500000,0.800000,0.999924,0.004776,-0.011320,0.001026,200.000000,100.000000,0.000000,0.000034,0.000000,0.000000,0.000000,0.000000,0.000000,0.000000,1.598399,0.373507,0.078924,-0.832052,0.233405,0.905924,0.743932
0.254000,-0.500000,-0.500000,0.800000,0.999924,0.004776,-0.011320,0.001026,-0.500000,-0.500000,0.800000,0.999924,0.004776,-0.011320,0.001026,200.000000,100.000000,0.000000,0.000034,0.000000,0.000000,0.000000,0.000000,0.000000,0.000000,1.598399,0.373507,0.078924,-0.832052,0.233405,0.905924,0.743932
0.255000,-0.500000,-0.500000,0.800000,0.999924,0.004776,-0.011320,0.001026,-0.500000,-0.500000,0.800000,0.999924,0.004776,-0.011320,0.001026,200.000000,100.000000,0.000000,0.000035,0.000000,0.000000,0.000000,0.000000,0.000000,0.000000,1.598399,0.373507,0.078924,-0.832052,0.233405,0.905924,0.743932
0.256000,-0.500000,-0.500000,0.800000,0.999924,0.004776,-0.011320,0.001026,-0.500000,-0.500000,0.800000,0.999924,0.004776,-0.011320,0.001026,200.000000,100.000000,0.000000,0.000035,0.000000,0.000000,0.000000,0.000000,0.000000,0.000000,1.598399,0.373507,0.078924,-0.832052,0.233405,0.905924,0.743932
0.257000,-0.500000,-0.500000,0.800000,0.999924,0.004776,-0.011320,0.001026,-0.500000,-0.500000,0.800000,0.999924,0.004776,-0.011320,0.001026,200.000000,100.000000,0.000000,0.000034,0.000000,0.000000,0.000000,0.000000,0.000000,0.000000,1.598399,0.373507,0.078924,-0.832052,0.233405,0.905924,0.743932
0.258000,-0.500000,-0.500000,0.800000,0.999924,0.004776,-0.011320,0.001026,-0.500000,-0.495644,0.800000,0.999924,0.004776,-0.011320,0.001026,200.000000,100.000000,0.000000,0.000034,0.000000,0.000000,0.000000,0.000000,0.000000,0.000000,1.598399,0.373507,0.078924,-0.832052,0.233405,0.905924,0.743932
0.259000,-0.500000,-0.500000,0.800000,0.999924,0.004776,-0.011320,0.001026,-0.500000,-0.495644,0.800000,0.999924,0.004776,-0.011320,0.001026,200.000000,100.000000,0.000000,0.000118,0.000000,0.000000,0.000000,0.000000,0.000000,0.000000,1.598398,0.373507,0.078924,-0.832052,0.233406,0.905924,0.743932
0.260000,-0.500000,-0.500000,0.800000,0.999924,0.004776,-0.011320,0.001026,-0.500000,-0.495644,0.800000,0.999924,0.004776,-0.011320,0.001026,200.000000,100.000000,0.000000,0.000216,0.000000,0.000000,0.000000,0.000000,0.000000,0.000000,1.598398,0.373506,0.078924,-0.832053,0.233406,0.905923,0.743931
0.261000,-0.500000,-0.499999,0.800000,0.999924,0.004776,-0.011320,0.001026,-0.500000,-0.495644,0.800000,0.999924,0.004776,-0.011320,0.001026,200.000000,100.000000,0.000000,0.000317,0.000000,0.000000,0.000000,0.000000,0.000000,0.000000,1.598398,0.373506,0.078923,-0.832054,0.233407,0.905923,0.743931
0.262000,-0.500000,-0.499999,0.800000,0.999924,0.004776,-0.011321,0.001026,-0.500000,-0.495644,0.800000,0.999924,0.004776,-0.011320,0.001026,200.000000,100.000000,0.000000,0.000415,0.000000,0.000000,0.000000,0.000000,0.000000,0.000000,1.598398,0.373506,0.078923,-0.832055,0.233407,0.905922,0.743930
0.263000,-0.500000,-0.499998,0.800000,0.999924,0.004776,-0.011321,0.001025,-0.500000,-0.495644,0.800000,0.999924,0.004776,-0.011320,0.001026,200.000000,100.000000,0.000000,0.000523,0.000000,0.000000,0.000000,0.000000,0.000000,0.000000,1.598397,0.373505,0.078922,-0.832057,0.233408,0.905922,0.743929
0.264000,-0.500000,-0.499998,0.800000,0.999924,0.004776,-0.011321,0.001025,-0.500000,-0.495644,0.800000,0.999924,0.004776,-0.011320,0.001026,200.000000,100.000000,0.000000,0.000617,0.000000,0.000000,0.000000,0.000000,0.000000,0.000000,1.598397,0.373505,0.078921,-0.832058,0.233409,0.905921,0.743928
0.265000,-0.500001,-0.499997,0.799999,0.999924,0.004776,-0.011321,0.001025,-0.500000,-0.495644,0.800000,0.999924,0.004776,-0.011320,0.001026,200.000000,100.000000,0.000000,0.000725,0.000000,0.000000,0.000000,0.000000,0.000000,0.000000,1.598397,0.373504,0.078920,-0.832060,0.233411,0.905920,0.743927
0.266000,-0.500001,-0.499996,0.799999,0.999924,0.004776,-0.011321,0.001025,-0.500000,-0.495644,0.800000,0.999924,0.004776,-0.011320,0.001026,200.000000,100.000000,0.000000,0.000816,0.000000,0.000000,0.000000,0.000000,0.000000,0.000000,1.598396,0.373504,0.078919,-0.832063,0.233412,0.905919,0.743925
0.267000,-0.500001,-0.499996,0.799999,0.999924,0.004776,-0.011321,0.001024,-0.500000,-0.495644,0.800000,0.999924,0.004776,-0.011320,0.001026,200.000000,100.000000,0.000000,0.000923,0.000000,0.000000,0.000000,0.000000,0.000000,0.000000,1.598396,0.373503,0.078918,-0.832066,0.233414,0.905918,0.743923
0.267000,-0.500001,-0.499995,0.799999,0.999924,0.004776,-0.011321,0.001024,-0.500000,-0.495644,0.800000,0.999924,0.004776,-0.011320,0.001026,200.000000,100.000000,0.000000,0.001012,0.000000,0.000000,0.000000,0.000000,0.000000,0.000000,1.598395,0.373502,0.078917,-0.832069,0.233416,0.905916,0.743921
0.269000,-0.500001,-0.499994,0.799998,0.999924,0.004776,-0.011321,0.001024,-0.500000,-0.495644,0.800000,0.999924,0.004776,-0.011320,0.001026,200.000000,100.000000,0.000000,0.001117,0.000000,0.000000,0.000000,0.000000,0.000000,0.000000,1.598395,0.373501,0.078916,-0.832072,0.233417,0.905915,0.743919
0.270000,-0.500001,-0.499992,0.799998,0.999924,0.004776,-0.011321,0.001023,-0.500000,-0.495644,0.800000,0.999924,0.004776,-0.011320,0.001026,200.000000,100.000000,0.000000,0.001204,0.000000,0.000000,0.000000,0.000000,0.000000,0.000000,1.598394,0.373500,0.078914,-0.832075,0.233420,0.905913,0.743917
0.271000,-0.500002,-0.499991,0.799998,0.999924,0.004776,-0.011321,0.001023,-0.500000,-0.495644,0.800000,0.999924,0.004776,-0.011320,0.001026,200.000000,100.000000,0.000000,0.001308,0.000000,0.000000,0.000000,0.000000,0.000000,0.000000,1.598393,0.373499,0.078913,-0.832079,0.233422,0.905912,0.743915
0.272000,-0.500002,-0.499990,0.799998,0.999924,0.004776,-0.011321,0.001022,-0.500000,-0.495644,0.800000,0.999924,0.004776,-0.011320,0.001026,200.000000,100.000000,0.000000,0.001393,0.000000,0.000000,0.000000,0.000000,0.000000,0.000000,1.598392,0.373498,0.078911,-0.832083,0.233425,0.905910,0.743912
0.272000,-0.500002,-0.499988,0.799997,0.999924,0.004776,-0.011321,0.001022,-0.500000,-0.495644,0.800000,0.999924,0.004776,-0.011320,0.001026,200.000000,100.000000,0.000000,0.001495,0.000000,0.000000,0.000000,0.000000,0.000000,0.000000,1.598392,0.373497,0.078909,-0.832088,0.233427,0.905908,0.743909
0.274000,-0.500002,-0.499987,0.799997,0.999924,0.004776,-0.011321,0.001021,-0.500000,-0.495644,0.800000,0.999924,0.004776,-0.011320,0.001026,200.000000,100.000000,0.000000,0.001579,0.000000,0.000000,0.000000,0.000000,0.000000,0.000000,1.598391,0.373496,0.078907,-0.832092,0.233430,0.905906,0.743906
0.275000,-0.500002,-0.499985,0.799996,0.999924,0.004776,-0.011321,0.001021,-0.500000,-0.495644,0.800000,0.999924,0.004776,-0.011320,0.001026,200.000000,100.000000,0.000000,0.001679,0.000000,0.000000,0.000000,0.000000,0.000000,0.000000,1.598390,0.373495,0.078905,-0.832097,0.233433,0.905903,0.743903
0.276000,-0.500003,-0.499984,0.799996,0.999924,0.004776,-0.011321,0.001020,-0.500000,-0.495644,0.800000,0.999924,0.004776,-0.011320,0.001026,200.000000,100.000000,0.000000,0.001761,0.000000,0.000000,0.000000,0.000000,0.000000,0.000000,1.598389,0.373493,0.078903,-0.832103,0.233436,0.905901,0.743900
0.277000,-0.500003,-0.499982,0.799995,0.999924,0.004776,-0.011321,0.001019,-0.500000,-0.495644,0.800000,0.999924,0.004776,-0.011320,0.001026,200.000000,100.000000,0.000000,0.001859,0.000000,0.000000,0.000000,0.000000,0.000000,0.000000,1.598388,0.373492,0.078901,-0.832108,0.233440,0.905898,0.743896
0.278000,-0.500003,-0.499980,0.799995,0.999924,0.004776,-0.011321,0.001019,-0.500000,-0.495644,0.800000,0.999924,0.004776,-0.011320,0.001026,200.000000,100.000000,0.000000,0.001940,0.000000,0.000000,0.000000,0.000000,0.000000,0.000000,1.598387,0.373490,0.078899,-0.832114,0.233443,0.905896,0.743892
0.279000,-0.500004,-0.499978,0.799994,0.999924,0.004776,-0.011321,0.001018,-0.500000,-0.495644,0.800000,0.999924,0.004776,-0.011320,0.001026,200.000000,100.000000,0.000000,0.002037,0.000000,0.000000,0.000000,0.000000,0.000000,0.000000,1.598386,0.373489,0.078897,-0.832120,0.233447,0.905893,0.743888
0.280000,-0.500004,-0.499976,0.799994,0.999924,0.004776,-0.011321,0.001018,-0.500000,-0.495644,0.800000,0.999924,0.004776,-0.011320,0.001026,200.000000,100.000000,0.000000,0.002115,0.000000,0.000000,0.000000,0.000000,0.000000,0.000000,1.598384,0.373487,0.078894,-0.832126,0.233451,0.905890,0.743884
0.281000,-0.500004,-0.499974,0.799993,0.999924,0.004776,-0.011321,0.001017,-0.500000,-0.495644,0.800000,0.999924,0.004776,-0.011320,0.001026,200.000000,100.000000,0.000000,0.002211,0.000000,0.000000,0.000000,0.000000,0.000000,0.000000,1.598383,0.373485,0.078892,-0.832133,0.233455,0.905887,0.743880
0.282000,-0.500005,-0.499972,0.799993,0.999924,0.004776,-0.011321,0.001016,-0.500000,-0.495644,0.800000,0.999924,0.004776,-0.011320,0.001026,200.000000,100.000000,0.000000,0.002288,0.000000,0.000000,0.000000,0.000000,0.000000,0.000000,1.598382,0.373484,0.078889,-0.832140,0.233459,0.905883,0.743876
0.283000,-0.500005,-0.499969,0.799992,0.999924,0.004776,-0.011321,0.001015,-0.500000,-0.495644,0.800000,0.999924,0.004776,-0.011320,0.001026,200.000000,100.000000,0.000000,0.002382,0.000000,0.000000,0.000000,0.000000,0.000000,0.000000,1.598380,0.373482,0.078886,-0.832147,0.233463,0.905880,0.743871
0.284000,-0.500005,-0.499967,0.799992,0.999924,0.004776,-0.011321,0.001015,-0.500000,-0.495644,0.800000,0.999924,0.004776,-0.011320,0.001026,200.000000,100.000000,0.000000,0.002458,0.000000,0.000000,0.000000,0.000000,0.000000,0.000000,1.598379,0.373480,0.078884,-0.832154,0.233468,0.905877,0.743866
0.285000,-0.500006,-0.499965,0.799991,0.999924,0.004776,-0.011321,0.001014,-0.500000,-0.495644,0.800000,0.999924,0.004776,-0.011320,0.001026,200.000000,100.000000,0.000000,0.002550,0.000000,0.000000,0.000000,0.000000,0.000000,0.000000,1.598377,0.373478,0.078881,-0.832162,0.233473,0.905873,0.743861
0.286000,-0.500006,-0.499962,0.799990,0.999924,0.004776,-0.011321,0.001013,-0.500000,-0.495644,0.800000,0.999924,0.004776,-0.011320,0.001026,200.000000,100.000000,0.000000,0.002625,0.000000,0.000000,0.000000,0.000000,0.000000,0.000000,1.598375,0.373476,0.078878,-0.832170,0.233478,0.905869,0.743856
0.287000,-0.500007,-0.499959,0.799990,0.999924,0.004776,-0.011321,0.001012,-0.500000,-0.495644,0.800000,0.999924,0.004776,-0.011320,0.001026,200.000000,100.000000,0.000000,0.002715,0.000000,0.000000,0.000000,0.000000,0.000000,0.000000,1.598374,0.373474,0.078875,-0.832178,0.233483,0.905865,0.743851
0.288000,-0.500007,-0.499957,0.799989,0.999924,0.004776,-0.011321,0.001011,-0.500000,-0.495644,0.800000,0.999924,0.004776,-0.011320,0.001026,200.000000,100.000000,0.000000,0.002788,0.000000,0.000000,0.000000,0.000000,0.000000,0.000000,1.598372,0.373471,0.078872,-0.832186,0.233488,0.905861,0.743845
0.289000,-0.500007,-0.499954,0.799988,0.999924,0.004776,-0.011321,0.001011,-0.500000,-0.495644,0.800000,0.999924,0.004776,-0.011320,0.001026,200.000000,100.000000,0.000000,0.002877,0.000000,0.000000,0.000000,0.000000,0.000000,0.000000,1.598370,0.373469,0.078869,-0.832195,0.233493,0.905857,0.743840
0.290000,-0.500008,-0.499951,0.799988,0.999924,0.004776,-0.011321,0.001010,-0.500000,-0.495644,0.800000,0.999924,0.004776,-0.011320,0.001026,200.000000,100.000000,0.000000,0.002949,0.000000,0.000000,0.000000,0.000000,0.000000,0.000000,1.598368,0.373467,0.078866,-0.832204,0.233499,0.905853,0.743834
0.291000,-0.500008,-0.499948,0.799987,0.999924,0.004776,-0.011321,0.001009,-0.500000,-0.495644,0.800000,0.999924,0.004776,-0.011320,0.001026,200.000000,100.000000,0.000000,0.003036,0.000000,0.000000,0.000000,0.000000,0.000000,0.000000,1.598366,0.373464,0.078863,-0.832213,0.233504,0.905848,0.743828
0.292000,-0.500009,-0.499945,0.799986,0.999924,0.004776,-0.011321,0.001008,-0.500000,-0.495644,0.800000,0.999924,0.004776,-0.011320,0.001026,200.000000,100.000000,0.000000,0.003106,0.000000,0.000000,0.000000,0.000000,0.000000,0.000000,1.598364,0.373462,0.078859,-0.832222,0.233510,0.905844,0.743822
0.293000,-0.500009,-0.499942,0.799985,0.999924,0.004776,-0.011321,0.001007,-0.500000,-0.495644,0.800000,0.999924,0.004776,-0.011320,0.001026,200.000000,100.000000,0.000000,0.003192,0.000000,0.000000,0.000000,0.000000,0.000000,0.000000,1.598362,0.373459,0.078856,-0.832232,0.233516,0.905839,0.743816
0.294000,-0.500010,-0.499939,0.799984,0.999924,0.004776,-0.011321,0.001006,-0.500000,-0.495644,0.800000,0.999924,0.004776,-0.011320,0.001026,200.000000,100.000000,0.000000,0.003261,0.000000,0.000000,0.000000,0.000000,0.000000,0.000000,1.598360,0.373457,0.078853,-0.832242,0.233522,0.905834,0.743809
0.295000,-0.500010,-0.499936,0.799984,0.999924,0.004776,-0.011321,0.001005,-0.500000,-0.495644,0.800000,0.999924,0.004776,-0.011320,0.001026,200.000000,100.000000,0.000000,0.003346,0.000000,0.000000,0.000000,0.000000,0.000000,0.000000,1.598358,0.373454,0.078849,-0.832252,0.233529,0.905829,0.743803
0.296000,-0.500011,-0.499933,0.799983,0.999924,0.004776,-0.011322,0.001005,-0.500000,-0.495644,0.800000,0.999924,0.004776,-0.011320,0.001026,200.000000,100.000000,0.000000,0.003413,0.000000,0.000000,0.000000,0.000000,0.000000,0.000000,1.598355,0.373451,0.078846,-0.832262,0.233535,0.905824,0.743796
0.297000,-0.500012,-0.499929,0.799982,0.999924,0.004776,-0.011322,0.001004,-0.500000,-0.495644,0.800000,0.999924,0.004776,-0.011320,0.001026,200.000000,100.000000,0.000000,0.003497,0.000000,0.000000,0.000000,0.000000,0.000000,0.000000,1.598353,0.373449,0.078842,-0.832273,0.233542,0.905819,0.743789
0.298000,-0.500012,-0.499926,0.799981,0.999924,0.004776,-0.011322,0.001003,-0.500000,-0.495644,0.800000,0.999924,0.004776,-0.011320,0.001026,200.000000,100.000000,0.000000,0.003563,0.000000,0.000000,0.000000,0.000000,0.000000,0.000000,1.598350,0.373446,0.078839,-0.832284,0.233548,0.905813,0.743782
0.299000,-0.500013,-0.499922,0.799980,0.999924,0.004776,-0.011322,0.001002,-0.500000,-0.495644,0.800000,0.999924,0.004776,-0.011320,0.001026,200.000000,100.000000,0.000000,0.003645,0.000000,0.000000,0.000000,0.000000,0.000000,0.000000,1.598348,0.373443,0.078835,-0.832295,0.233555,0.905808,0.743775
0.300000,-0.500013,-0.499919,0.799979,0.999924,0.004776,-0.011322,0.001001,-0.500000,-0.495644,0.800000,0.999924,0.004776,-0.011320,0.001026,200.000000,100.000000,0.000000,0.003709,0.000000,0.000000,0.000000,0.000000,0.000000,0.000000,1.598345,0.373440,0.078831,-0.832306,0.233562,0.905802,0.743767
0.301000,-0.500014,-0.499915,0.799978,0.999924,0.004775,-0.011322,0.001000,-0.500000,-0.495644,0.800000,0.999924,0.004776,-0.011320,0.001026,200.000000,100.000000,0.000000,0.003790,0.000000,0.000000,0.000000,0.000000,0.000000,0.000000,1.598343,0.373437,0.078828,-0.832317,0.233569,0.905797,0.743760
0.302000,-0.500014,-0.499912,0.799977,0.999924,0.004775,-0.011322,0.000999,-0.500000,-0.495644,0.800000,0.999924,0.004776,-0.011320,0.001026,200.000000,100.000000,0.000000,0.003854,0.000000,0.000000,0.000000,0.000000,0.000000,0.000000,1.598340,0.373433,0.078824,-0.832329,0.233577,0.905791,0.743752
0.303000,-0.500015,-0.499908,0.799976,0.999924,0.004775,-0.011322,0.000998,-0.500000,-0.495644,0.800000,0.999924,0.004776,-0.011320,0.001026,200.000000,100.000000,0.000000,0.003933,0.000000,0.000000,0.000000,0.000000,0.000000,0.000000,1.598337,0.373430,0.078820,-0.832341,0.233584,0.905785,0.743744
0.304000,-0.500016,-0.499904,0.799975,0.999924,0.004775,-0.011322,0.000997,-0.500000,-0.495644,0.800000,0.999924,0.004776,-0.011320,0.001026,200.000000,100.000000,0.000000,0.003995,0.000000,0.000000,0.000000,0.000000,0.000000,0.000000,1.598334,0.373427,0.078816,-0.832353,0.233592,0.905779,0.743736
0.305000,-0.500016,-0.499900,0.799974,0.999924,0.004775,-0.011322,0.000996,-0.500000,-0.495644,0.800000,0.999924,0.004776,-0.011320,0.001026,200.000000,100.000000,0.000000,0.004073,0.000000,0.000000,0.000000,0.000000,0.000000,0.000000,1.598331,0.373424,0.078812,-0.832366,0.233600,0.905772,0.743728
0.306000,-0.500017,-0.499896,0.799973,0.999924,0.004775,-0.011322,0.000995,-0.500000,-0.495644,0.800000,0.999924,0.004776,-0.011320,0.001026,200.000000,100.000000,0.000000,0.004134,0.000000,0.000000,0.000000,0.000000,0.000000,0.000000,1.598328,0.373420,0.078809,-0.832379,0.233608,0.905766,0.743720
0.307000,-0.500018,-0.499892,0.799972,0.999924,0.004775,-0.011322,0.000994,-0.500000,-0.495644,0.800000,0.999924,0.004776,-0.011320,0.001026,200.000000,100.000000,0.000000,0.004210,0.000000,0.000000,0.000000,0.000000,0.000000,0.000000,1.598325,0.373417,0.078805,-0.832391,0.233615,0.905759,0.743711
0.308000,-0.500018,-0.499888,0.799971,0.999924,0.004775,-0.011322,0.000993,-0.500000,-0.495644,0.800000,0.999924,0.004776,-0.011320,0.001026,200.000000,100.000000,0.000000,0.004270,0.000000,0.000000,0.000000,0.000000,0.000000,0.000000,1.598322,0.373413,0.078801,-0.832405,0.233624,0.905753,0.743702
0.309000,-0.500019,-0.499884,0.799970,0.999924,0.004775,-0.011322,0.000992,-0.500000,-0.495644,0.800000,0.999924,0.004776,-0.011320,0.001026,200.000000,100.000000,0.000000,0.004345,0.000000,0.000000,0.000000,0.000000,0.000000,0.000000,1.598319,0.373410,0.078797,-0.832418,0.233632,0.905746,0.743694
0.310000,-0.500020,-0.499880,0.799969,0.999924,0.004775,-0.011322,0.000991,-0.500000,-0.495644,0.800000,0.999924,0.004776,-0.011320,0.001026,200.000000,100.000000,0.000000,0.004404,0.000000,0.000000,0.000000,0.000000,0.000000,0.000000,1.598315,0.373406,0.078793,-0.832431,0.233640,0.905739,0.743685
0.311000,-0.500020,-0.499875,0.799968,0.999924,0.004775,-0.011322,0.000990,-0.500000,-0.495644,0.800000,0.999924,0.004776,-0.011320,0.001026,200.000000,100.000000,0.000000,0.004477,0.000000,0.000000,0.000000,0.000000,0.000000,0.000000,1.598312,0.373403,0.078789,-0.832445,0.233649,0.905732,0.743676
0.312000,-0.500021,-0.499871,0.799967,0.999924,0.004775,-0.011322,0.000989,-0.500000,-0.495644,0.800000,0.999924,0.004776,-0.011320,0.001026,200.000000,100.000000,0.000000,0.004535,0.000000,0.000000,0.000000,0.000000,0.000000,0.000000,1.598308,0.373399,0.078785,-0.832459,0.233658,0.905725,0.743667
0.313000,-0.500022,-0.499867,0.799966,0.999924,0.004775,-0.011322,0.000988,-0.500000,-0.495644,0.800000,0.999924,0.004776,-0.011320,0.001026,200.000000,100.000000,0.000000,0.004608,0.000000,0.000000,0.000000,0.000000,0.000000,0.000000,1.598305,0.373395,0.078780,-0.832473,0.233666,0.905718,0.743657
0.314000,-0.500022,-0.499862,0.799965,0.999924,0.004775,-0.011322,0.000987,-0.500000,-0.495644,0.800000,0.999924,0.004776,-0.011320,0.001026,200.000000,100.000000,0.000000,0.004664,0.000000,0.000000,0.000000,0.000000,0.000000,0.000000,1.598301,0.373391,0.078776,-0.832488,0.233675,0.905710,0.743648
0.315000,-0.500023,-0.499858,0.799964,0.999924,0.004775,-0.011322,0.000986,-0.500000,-0.495644,0.800000,0.999924,0.004776,-0.011320,0.001026,200.000000,100.000000,0.000000,0.004735,0.000000,0.000000,0.000000,0.000000,0.000000,0.000000,1.598297,0.373387,0.078772,-0.832502,0.233684,0.905703,0.743638
0.316000,-0.500024,-0.499853,0.799962,0.999924,0.004775,-0.011322,0.000985,-0.500000,-0.495644,0.800000,0.999924,0.004776,-0.011320,0.001026,200.000000,100.000000,0.000000,0.004790,0.000000,0.000000,0.000000,0.000000,0.000000,0.000000,1.598294,0.373383,0.078768,-0.832517,0.233694,0.905695,0.743629
0.317000,-0.500025,-0.499848,0.799961,0.999924,0.004775,-0.011322,0.000984,-0.500000,-0.495644,0.800000,0.999924,0.004776,-0.011320,0.001026,200.000000,100.000000,0.000000,0.004860,0.000000,0.000000,0.000000,0.000000,0.000000,0.000000,1.598290,0.373379,0.078764,-0.832532,0.233703,0.905688,0.743619
0.318000,-0.500025,-0.499844,0.799960,0.999924,0.004775,-0.011323,0.000982,-0.500000,-0.495644,0.800000,0.999924,0.004776,-0.011320,0.001026,200.000000,100.000000,0.000000,0.004914,0.000000,0.000000,0.000000,0.000000,0.000000,0.000000,1.598286,0.373375,0.078760,-0.832547,0.233712,0.905680,0.743609
0.319000,-0.500026,-0.499839,0.799959,0.999924,0.004775,-0.011323,0.000981,-0.500000,-0.495644,0.800000,0.999924,0.004776,-0.011320,0.001026,200.000000,100.000000,0.000000,0.004983,0.000000,0.000000,0.000000,0.000000,0.000000,0.000000,1.598282,0.373371,0.078755,-0.832563,0.233722,0.905672,0.743599
0.320000,-0.500027,-0.499834,0.799958,0.999924,0.004775,-0.011323,0.000980,-0.500000,-0.495644,0.800000,0.999924,0.004776,-0.011320,0.001026,200.000000,100.000000,0.000000,0.005036,0.000000,0.000000,0.000000,0.000000,0.000000,0.000000,1.598278,0.373367,0.078751,-0.832578,0.233732,0.905664,0.743588
0.321000,-0.500028,-0.499829,0.799956,0.999924,0.004775,-0.011323,0.000979,-0.500000,-0.495644,0.800000,0.999924,0.004776,-0.011320,0.001026,200.000000,100.000000,0.000000,0.005104,0.000000,0.000000,0.000000,0.000000,0.000000,0.000000,1.598274,0.373363,0.078747,-0.832594,0.233741,0.905655,0.743578
0.322000,-0.500029,-0.499824,0.799955,0.999924,0.004774,-0.011323,0.000978,-0.500000,-0.495644,0.800000,0.999924,0.004776,-0.011320,0.001026,200.000000,100.000000,0.000000,0.005155,0.000000,0.000000,0.000000,0.000000,0.000000,0.000000,1.598269,0.373358,0.078743,-0.832610,0.233751,0.905647,0.743567
0.323000,-0.500029,-0.499819,0.799954,0.999924,0.004774,-0.011323,0.000977,-0.500000,-0.495644,0.800000,0.999924,0.004776,-0.011320,0.001026,200.000000,100.000000,0.000000,0.005222,0.000000,0.000000,0.000000,0.000000,0.000000,0.000000,1.598265,0.373354,0.078738,-0.832626,0.233761,0.905639,0.743557
0.324000,-0.500030,-0.499814,0.799953,0.999924,0.004774,-0.011323,0.000976,-0.500000,-0.495644,0.800000,0.999924,0.004776,-0.011320,0.001026,200.000000,100.000000,0.000000,0.005272,0.000000,0.000000,0.000000,0.000000,0.000000,0.000000,1.598261,0.373349,0.078734,-0.832643,0.233772,0.905630,0.743546
0.325000,-0.500031,-0.499809,0.799951,0.999924,0.004774,-0.011323,0.000975,-0.500000,-0.495644,0.800000,0.999924,0.004776,-0.011320,0.001026,200.000000,100.000000,0.000000,0.005338,0.000000,0.000000,0.000000,0.000000,0.000000,0.000000,1.598256,0.373345,0.078730,-0.832659,0.233782,0.905622,0.743535
0.326000,-0.500032,-0.499804,0.799950,0.999924,0.004774,-0.011323,0.000974,-0.500000,-0.495644,0.800000,0.999924,0.004776,-0.011320,0.001026,200.000000,100.000000,0.000000,0.005387,0.000000,0.000000,0.000000,0.000000,0.000000,0.000000,1.598252,0.373340,0.078726,-0.832676,0.233792,0.905613,0.743524
0.327000,-0.500033,-0.499799,0.799949,0.999924,0.004774,-0.011323,0.000973,-0.500000,-0.495644,0.800000,0.999924,0.004776,-0.011320,0.001026,200.000000,100.000000,0.000000,0.005451,0.000000,0.000000,0.000000,0.000000,0.000000,0.000000,1.598247,0.373336,0.078721,-0.832693,0.233803,0.905604,0.743513
0.328000,-0.500034,-0.499793,0.799948,0.999924,0.004774,-0.011323,0.000972,-0.500000,-0.495644,0.800000,0.999924,0.004776,-0.011320,0.001026,200.000000,100.000000,0.000000,0.005499,0.000000,0.000000,0.000000,0.000000,0.000000,0.000000,1.598242,0.373331,0.078717,-0.832710,0.233813,0.905595,0.743501
0.329000,-0.500035,-0.499788,0.799946,0.999924,0.004774,-0.011323,0.000971,-0.500000,-0.495644,0.800000,0.999924,0.004776,-0.011320,0.001026,200.000000,100.000000,0.000000,0.005563,0.000000,0.000000,0.000000,0.000000,0.000000,0.000000,1.598238,0.373327,0.078713,-0.832728,0.233824,0.905586,0.743490
0.329000,-0.500035,-0.499783,0.799945,0.999924,0.004774,-0.011323,0.000970,-0.500000,-0.495644,0.800000,0.999924,0.004776,-0.011320,0.001026,200.000000,100.000000,0.000000,0.005610,0.000000,0.000000,0.000000,0.000000,0.000000,0.000000,1.598233,0.373322,0.078708,-0.832745,0.233835,0.905577,0.743478
0.331000,-0.500036,-0.499777,0.799944,0.999924,0.004774,-0.011323,0.000969,-0.500000,-0.495644,0.800000,0.999924,0.004776,-0.011320,0.001026,200.000000,100.000000,0.000000,0.005672,0.000000,0.000000,0.000000,0.000000,0.000000,0.000000,1.598228,0.373317,0.078704,-0.832763,0.233846,0.905567,0.743467
0.332000,-0.500037,-0.499772,0.799942,0.999924,0.004774,-0.011323,0.000968,-0.500000,-0.495644,0.800000,0.999924,0.004776,-0.011320,0.001026,200.000000,100.000000,0.000000,0.005718,0.000000,0.000000,0.000000,0.000000,0.000000,0.000000,1.598223,0.373312,0.078700,-0.832781,0.233857,0.905558,0.743455
