matthias-mayr/cartesian_trajectory_generator/generated_logs/publish_rate100.txt
time,position_x,position_y,position_z,orientation_x,orientation_y,orientation_z,orientation_w,position_d_x,position_d_y,position_d_z,orientation_d_x,orientation_d_y,orientation_d_z,orientation_d_w,translational_stiffness,rotational_stiffness,nullspace_stiffness,velocity,f_x,f_y,f_z,tau_x,tau_x,tau_z,joint1,joint2,joint3,joint4,joint5,joint6,joint7
0.000000,-0.500000,-0.500000,0.800000,0.999924,0.004772,-0.011324,0.001005,-0.500000,-0.500000,0.800000,0.999924,0.004772,-0.011324,0.001005,200.000000,100.000000,0.000000,0.000037,0.000000,0.000000,0.000000,0.000000,0.000000,0.000000,1.538603,0.376418,0.184584,-0.832031,0.166288,0.901573,0.771541
0.001000,-0.500000,-0.500000,0.800000,0.999924,0.004772,-0.011324,0.001005,-0.500000,-0.500000,0.800000,0.999924,0.004772,-0.011324,0.001005,200.000000,100.000000,0.000000,0.000037,0.000000,0.000000,0.000000,0.000000,0.000000,0.000000,1.538603,0.376418,0.184584,-0.832031,0.166288,0.901573,0.771541
0.001000,-0.500000,-0.500000,0.800000,0.999924,0.004772,-0.011324,0.001005,-0.500000,-0.500000,0.800000,0.999924,0.004772,-0.011324,0.001005,200.000000,100.000000,0.000000,0.000037,0.000000,0.000000,0.000000,0.000000,0.000000,0.000000,1.538603,0.376418,0.184584,-0.832031,0.166288,0.901573,0.771541
0.003000,-0.500000,-0.500000,0.800000,0.999924,0.004772,-0.011324,0.001005,-0.500000,-0.500000,0.800000,0.999924,0.004772,-0.011324,0.001005,200.000000,100.000000,0.000000,0.000037,0.000000,0.000000,0.000000,0.000000,0.000000,0.000000,1.538603,0.376418,0.184584,-0.832031,0.166288,0.901573,0.771541
0.004000,-0.500000,-0.500000,0.800000,0.999924,0.004772,-0.011324,0.001005,-0.500000,-0.500000,0.800000,0.999924,0.004772,-0.011324,0.001005,200.000000,100.000000,0.000000,0.000037,0.000000,0.000000,0.000000,0.000000,0.000000,0.000000,1.538603,0.376418,0.184584,-0.832031,0.166288,0.901573,0.771541
0.005000,-0.500000,-0.500000,0.800000,0.999924,0.004772,-0.011324,0.001005,-0.500000,-0.500000,0.800000,0.999924,0.004772,-0.011324,0.001005,200.000000,100.000000,0.000000,0.000037,0.000000,0.000000,0.000000,0.000000,0.000000,0.000000,1.538603,0.376418,0.184584,-0.832031,0.166288,0.901573,0.771541
0.006000,-0.500000,-0.500000,0.800000,0.999924,0.004772,-0.011324,0.001005,-0.500000,-0.500000,0.800000,0.999924,0.004772,-0.011324,0.001005,200.000000,100.000000,0.000000,0.000037,0.000000,0.000000,0.000000,0.000000,0.000000,0.000000,1.538603,0.376418,0.184584,-0.832031,0.166288,0.901573,0.771541
0.006000,-0.500000,-0.500000,0.800000,0.999924,0.004772,-0.011324,0.001005,-0.500000,-0.500000,0.800000,0.999924,0.004772,-0.011324,0.001005,200.000000,100.000000,0.000000,0.000037,0.000000,0.000000,0.000000,0.000000,0.000000,0.000000,1.538603,0.376418,0.184584,-0.832031,0.166288,0.901573,0.771541
0.008000,-0.500000,-0.500000,0.800000,0.999924,0.004772,-0.011324,0.001005,-0.500000,-0.500000,0.800000,0.999924,0.004772,-0.011324,0.001005,200.000000,100.000000,0.000000,0.000037,0.000000,0.000000,0.000000,0.000000,0.000000,0.000000,1.538603,0.376418,0.184584,-0.832031,0.166288,0.901573,0.771541
0.008000,-0.500000,-0.500000,0.800000,0.999924,0.004772,-0.011324,0.001005,-0.500000,-0.500000,0.800000,0.999924,0.004772,-0.011324,0.001005,200.000000,100.000000,0.000000,0.000037,0.000000,0.000000,0.000000,0.000000,0.000000,0.000000,1.538603,0.376418,0.184584,-0.832031,0.166288,0.901573,0.771541
0.010000,-0.500000,-0.500000,0.800000,0.999924,0.004772,-0.011324,0.001005,-0.500000,-0.500000,0.800000,0.999924,0.004772,-0.011324,0.001005,200.000000,100.000000,0.000000,0.000037,0.000000,0.000000,0.000000,0.000000,0.000000,0.000000,1.538603,0.376418,0.184584,-0.832031,0.166288,0.901573,0.771541
0.011000,-0.500000,-0.500000,0.800000,0.999924,0.004772,-0.011324,0.001005,-0.500000,-0.500000,0.800000,0.999924,0.004772,-0.011324,0.001005,200.000000,100.000000,0.000000,0.000036,0.000000,0.000000,0.000000,0.000000,0.000000,0.000000,1.538603,0.376418,0.184584,-0.832031,0.166288,0.901573,0.771541
0.012000,-0.500000,-0.500000,0.800000,0.999924,0.004772,-0.011324,0.001005,-0.500000,-0.500000,0.800000,0.999924,0.004772,-0.011324,0.001005,200.000000,100.000000,0.000000,0.000036,0.000000,0.000000,0.000000,0.000000,0.000000,0.000000,1.538603,0.376418,0.184584,-0.832031,0.166288,0.901573,0.771541
0.013000,-0.500000,-0.500000,0.800000,0.999924,0.004772,-0.011324,0.001005,-0.500000,-0.500000,0.800000,0.999924,0.004772,-0.011324,0.001005,200.000000,100.000000,0.000000,0.000037,0.000000,0.000000,0.000000,0.000000,0.000000,0.000000,1.538603,0.376418,0.184584,-0.832031,0.166288,0.901573,0.771541
0.013000,-0.500000,-0.500000,0.800000,0.999924,0.004772,-0.011324,0.001005,-0.500000,-0.500000,0.800000,0.999924,0.004772,-0.011324,0.001005,200.000000,100.000000,0.000000,0.000037,0.000000,0.000000,0.000000,0.000000,0.000000,0.000000,1.538603,0.376418,0.184584,-0.832031,0.166288,0.901573,0.771541
0.015000,-0.500000,-0.500000,0.800000,0.999924,0.004772,-0.011324,0.001005,-0.500000,-0.500000,0.800000,0.999924,0.004772,-0.011324,0.001005,200.000000,100.000000,0.000000,0.000038,0.000000,0.000000,0.000000,0.000000,0.000000,0.000000,1.538603,0.376418,0.184584,-0.832031,0.166288,0.901573,0.771541
0.015000,-0.500000,-0.500000,0.800000,0.999924,0.004772,-0.011324,0.001005,-0.500000,-0.500000,0.800000,0.999924,0.004772,-0.011324,0.001005,200.000000,100.000000,0.000000,0.000037,0.000000,0.000000,0.000000,0.000000,0.000000,0.000000,1.538603,0.376418,0.184584,-0.832031,0.166288,0.901573,0.771541
0.017000,-0.500000,-0.500000,0.800000,0.999924,0.004772,-0.011324,0.001005,-0.500000,-0.500000,0.800000,0.999924,0.004772,-0.011324,0.001005,200.000000,100.000000,0.000000,0.000037,0.000000,0.000000,0.000000,0.000000,0.000000,0.000000,1.538603,0.376418,0.184584,-0.832031,0.166288,0.901573,0.771541
0.018000,-0.500000,-0.500000,0.800000,0.999924,0.004772,-0.011324,0.001005,-0.500000,-0.500000,0.800000,0.999924,0.004772,-0.011324,0.001005,200.000000,100.000000,0.000000,0.000037,0.000000,0.000000,0.000000,0.000000,0.000000,0.000000,1.538603,0.376418,0.184584,-0.832031,0.166288,0.901573,0.771541
0.019000,-0.500000,-0.500000,0.800000,0.999924,0.004772,-0.011324,0.001005,-0.500000,-0.500000,0.800000,0.999924,0.004772,-0.011324,0.001005,200.000000,100.000000,0.000000,0.000037,0.000000,0.000000,0.000000,0.000000,0.000000,0.000000,1.538603,0.376418,0.184584,-0.832031,0.166288,0.901573,0.771541
0.019000,-0.500000,-0.500000,0.800000,0.999924,0.004772,-0.011324,0.001005,-0.500000,-0.500000,0.800000,0.999924,0.004772,-0.011324,0.001005,200.000000,100.000000,0.000000,0.000037,0.000000,0.000000,0.000000,0.000000,0.000000,0.000000,1.538603,0.376418,0.184584,-0.832031,0.166288,0.901573,0.771541
0.021000,-0.500000,-0.500000,0.800000,0.999924,0.004772,-0.011324,0.001005,-0.500000,-0.500000,0.800000,0.999924,0.004772,-0.011324,0.001005,200.000000,100.000000,0.000000,0.000037,0.000000,0.000000,0.000000,0.000000,0.000000,0.000000,1.538603,0.376418,0.184584,-0.832031,0.166288,0.901573,0.771541
0.022000,-0.500000,-0.500000,0.800000,0.999924,0.004772,-0.011324,0.001005,-0.500000,-0.500000,0.800000,0.999924,0.004772,-0.011324,0.001005,200.000000,100.000000,0.000000,0.000037,0.000000,0.000000,0.000000,0.000000,0.000000,0.000000,1.538603,0.376418,0.184584,-0.832031,0.166288,0.901573,0.771541
0.023000,-0.500000,-0.500000,0.800000,0.999924,0.004772,-0.011324,0.001005,-0.500000,-0.500000,0.800000,0.999924,0.004772,-0.011324,0.001005,200.000000,100.000000,0.000000,0.000037,0.000000,0.000000,0.000000,0.000000,0.000000,0.000000,1.538603,0.376418,0.184584,-0.832031,0.166288,0.901573,0.771541
0.024000,-0.500000,-0.500000,0.800000,0.999924,0.004772,-0.011324,0.001005,-0.500000,-0.500000,0.800000,0.999924,0.004772,-0.011324,0.001005,200.000000,100.000000,0.000000,0.000037,0.000000,0.000000,0.000000,0.000000,0.000000,0.000000,1.538603,0.376418,0.184584,-0.832031,0.166288,0.901573,0.771541
0.025000,-0.500000,-0.500000,0.800000,0.999924,0.004772,-0.011324,0.001005,-0.500000,-0.500000,0.800000,0.999924,0.004772,-0.011324,0.001005,200.000000,100.000000,0.000000,0.000037,0.000000,0.000000,0.000000,0.000000,0.000000,0.000000,1.538603,0.376418,0.184584,-0.832031,0.166288,0.901573,0.771541
0.026000,-0.500000,-0.500000,0.800000,0.999924,0.004772,-0.011324,0.001005,-0.500000,-0.500000,0.800000,0.999924,0.004772,-0.011324,0.001005,200.000000,100.000000,0.000000,0.000037,0.000000,0.000000,0.000000,0.000000,0.000000,0.000000,1.538603,0.376418,0.184584,-0.832031,0.166288,0.901573,0.771541
0.027000,-0.500000,-0.500000,0.800000,0.999924,0.004772,-0.011324,0.001005,-0.500000,-0.500000,0.800000,0.999924,0.004772,-0.011324,0.001005,200.000000,100.000000,0.000000,0.000037,0.000000,0.000000,0.000000,0.000000,0.000000,0.000000,1.538603,0.376418,0.184584,-0.832031,0.166288,0.901573,0.771541
0.028000,-0.500000,-0.500000,0.800000,0.999924,0.004772,-0.011324,0.001005,-0.500000,-0.500000,0.800000,0.999924,0.004772,-0.011324,0.001005,200.000000,100.000000,0.000000,0.000037,0.000000,0.000000,0.000000,0.000000,0.000000,0.000000,1.538603,0.376418,0.184584,-0.832031,0.166288,0.901573,0.771541
0.029000,-0.500000,-0.500000,0.800000,0.999924,0.004772,-0.011324,0.001005,-0.500000,-0.500000,0.800000,0.999924,0.004772,-0.011324,0.001005,200.000000,100.000000,0.000000,0.000037,0.000000,0.000000,0.000000,0.000000,0.000000,0.000000,1.538603,0.376418,0.184584,-0.832031,0.166288,0.901573,0.771541
0.030000,-0.500000,-0.500000,0.800000,0.999924,0.004772,-0.011324,0.001005,-0.500000,-0.500000,0.800000,0.999924,0.004772,-0.011324,0.001005,200.000000,100.000000,0.000000,0.000037,0.000000,0.000000,0.000000,0.000000,0.000000,0.000000,1.538603,0.376418,0.184584,-0.832031,0.166288,0.901573,0.771541
0.031000,-0.500000,-0.500000,0.800000,0.999924,0.004772,-0.011324,0.001005,-0.500000,-0.500000,0.800000,0.999924,0.004772,-0.011324,0.001005,200.000000,100.000000,0.000000,0.000037,0.000000,0.000000,0.000000,0.000000,0.000000,0.000000,1.538603,0.376418,0.184584,-0.832031,0.166288,0.901573,0.771541
0.032000,-0.500000,-0.500000,0.800000,0.999924,0.004772,-0.011324,0.001005,-0.500000,-0.500000,0.800000,0.999924,0.004772,-0.011324,0.001005,200.000000,100.000000,0.000000,0.000037,0.000000,0.000000,0.000000,0.000000,0.000000,0.000000,1.538603,0.376418,0.184584,-0.832031,0.166288,0.901573,0.771541
0.033000,-0.500000,-0.500000,0.800000,0.999924,0.004772,-0.011324,0.001005,-0.500000,-0.500000,0.800000,0.999924,0.004772,-0.011324,0.001005,200.000000,100.000000,0.000000,0.000037,0.000000,0.000000,0.000000,0.000000,0.000000,0.000000,1.538603,0.376418,0.184584,-0.832031,0.166288,0.901573,0.771541
0.034000,-0.500000,-0.500000,0.800000,0.999924,0.004772,-0.011324,0.001005,-0.500000,-0.500000,0.800000,0.999924,0.004772,-0.011324,0.001005,200.000000,100.000000,0.000000,0.000037,0.000000,0.000000,0.000000,0.000000,0.000000,0.000000,1.538603,0.376418,0.184584,-0.832031,0.166288,0.901573,0.771541
0.035000,-0.500000,-0.500000,0.800000,0.999924,0.004772,-0.011324,0.001005,-0.500000,-0.500000,0.800000,0.999924,0.004772,-0.011324,0.001005,200.000000,100.000000,0.000000,0.000037,0.000000,0.000000,0.000000,0.000000,0.000000,0.000000,1.538603,0.376418,0.184584,-0.832031,0.166288,0.901573,0.771541
0.036000,-0.500000,-0.500000,0.800000,0.999924,0.004772,-0.011324,0.001005,-0.500000,-0.500000,0.800000,0.999924,0.004772,-0.011324,0.001005,200.000000,100.000000,0.000000,0.000037,0.000000,0.000000,0.000000,0.000000,0.000000,0.000000,1.538603,0.376418,0.184584,-0.832031,0.166288,0.901573,0.771541
0.037000,-0.500000,-0.500000,0.800000,0.999924,0.004772,-0.011324,0.001005,-0.500000,-0.500000,0.800000,0.999924,0.004772,-0.011324,0.001005,200.000000,100.000000,0.000000,0.000037,0.000000,0.000000,0.000000,0.000000,0.000000,0.000000,1.538603,0.376418,0.184584,-0.832031,0.166288,0.901573,0.771541
0.038000,-0.500000,-0.500000,0.800000,0.999924,0.004772,-0.011324,0.001005,-0.500000,-0.500000,0.800000,0.999924,0.004772,-0.011324,0.001005,200.000000,100.000000,0.000000,0.000037,0.000000,0.000000,0.000000,0.000000,0.000000,0.000000,1.538603,0.376418,0.184584,-0.832031,0.166288,0.901573,0.771541
0.039000,-0.500000,-0.500000,0.800000,0.999924,0.004772,-0.011324,0.001005,-0.500000,-0.500000,0.800000,0.999924,0.004772,-0.011324,0.001005,200.000000,100.000000,0.000000,0.000037,0.000000,0.000000,0.000000,0.000000,0.000000,0.000000,1.538603,0.376418,0.184584,-0.832031,0.166288,0.901573,0.771541
0.040000,-0.500000,-0.500000,0.800000,0.999924,0.004772,-0.011324,0.001005,-0.500000,-0.500000,0.800000,0.999924,0.004772,-0.011324,0.001005,200.000000,100.000000,0.000000,0.000037,0.000000,0.000000,0.000000,0.000000,0.000000,0.000000,1.538603,0.376418,0.184584,-0.832031,0.166288,0.901573,0.771541
0.041000,-0.500000,-0.500000,0.800000,0.999924,0.004772,-0.011324,0.001005,-0.500000,-0.500000,0.800000,0.999924,0.004772,-0.011324,0.001005,200.000000,100.000000,0.000000,0.000037,0.000000,0.000000,0.000000,0.000000,0.000000,0.000000,1.538603,0.376418,0.184584,-0.832031,0.166288,0.901573,0.771541
0.042000,-0.500000,-0.500000,0.800000,0.999924,0.004772,-0.011324,0.001005,-0.500000,-0.500000,0.800000,0.999924,0.004772,-0.011324,0.001005,200.000000,100.000000,0.000000,0.000037,0.000000,0.000000,0.000000,0.000000,0.000000,0.000000,1.538603,0.376418,0.184584,-0.832031,0.166288,0.901573,0.771541
0.043000,-0.500000,-0.500000,0.800000,0.999924,0.004772,-0.011324,0.001005,-0.500000,-0.500000,0.800000,0.999924,0.004772,-0.011324,0.001005,200.000000,100.000000,0.000000,0.000036,0.000000,0.000000,0.000000,0.000000,0.000000,0.000000,1.538603,0.376418,0.184584,-0.832031,0.166288,0.901573,0.771541
0.044000,-0.500000,-0.500000,0.800000,0.999924,0.004772,-0.011324,0.001005,-0.500000,-0.500000,0.800000,0.999924,0.004772,-0.011324,0.001005,200.000000,100.000000,0.000000,0.000037,0.000000,0.000000,0.000000,0.000000,0.000000,0.000000,1.538603,0.376418,0.184584,-0.832031,0.166288,0.901573,0.771541
0.045000,-0.500000,-0.500000,0.800000,0.999924,0.004772,-0.011324,0.001005,-0.500000,-0.500000,0.800000,0.999924,0.004772,-0.011324,0.001005,200.000000,100.000000,0.000000,0.000037,0.000000,0.000000,0.000000,0.000000,0.000000,0.000000,1.538603,0.376418,0.184584,-0.832031,0.166288,0.901573,0.771541
0.046000,-0.500000,-0.500000,0.800000,0.999924,0.004772,-0.011324,0.001005,-0.500000,-0.500000,0.800000,0.999924,0.004772,-0.011324,0.001005,200.000000,100.000000,0.000000,0.000037,0.000000,0.000000,0.000000,0.000000,0.000000,0.000000,1.538603,0.376418,0.184584,-0.832031,0.166288,0.901573,0.771541
0.047000,-0.500000,-0.500000,0.800000,0.999924,0.004772,-0.011324,0.001005,-0.500000,-0.500000,0.800000,0.999924,0.004772,-0.011324,0.001005,200.000000,100.000000,0.000000,0.000037,0.000000,0.000000,0.000000,0.000000,0.000000,0.000000,1.538603,0.376418,0.184584,-0.832031,0.166288,0.901573,0.771541
0.048000,-0.500000,-0.500000,0.800000,0.999924,0.004772,-0.011324,0.001005,-0.500000,-0.500000,0.800000,0.999924,0.004772,-0.011324,0.001005,200.000000,100.000000,0.000000,0.000037,0.000000,0.000000,0.000000,0.000000,0.000000,0.000000,1.538603,0.376418,0.184584,-0.832031,0.166288,0.901573,0.771541
0.049000,-0.500000,-0.500000,0.800000,0.999924,0.004772,-0.011324,0.001005,-0.500000,-0.500000,0.800000,0.999924,0.004772,-0.011324,0.001005,200.000000,100.000000,0.000000,0.000037,0.000000,0.000000,0.000000,0.000000,0.000000,0.000000,1.538603,0.376418,0.184584,-0.832031,0.166288,0.901573,0.771541
0.050000,-0.500000,-0.500000,0.800000,0.999924,0.004772,-0.011324,0.001005,-0.500000,-0.500000,0.800000,0.999924,0.004772,-0.011324,0.001005,200.000000,100.000000,0.000000,0.000037,0.000000,0.000000,0.000000,0.000000,0.000000,0.000000,1.538603,0.376418,0.184584,-0.832031,0.166288,0.901573,0.771541
0.051000,-0.500000,-0.500000,0.800000,0.999924,0.004772,-0.011324,0.001005,-0.500000,-0.500000,0.800000,0.999924,0.004772,-0.011324,0.001005,200.000000,100.000000,0.000000,0.000037,0.000000,0.000000,0.000000,0.000000,0.000000,0.000000,1.538603,0.376418,0.184584,-0.832031,0.166288,0.901573,0.771541
0.052000,-0.500000,-0.500000,0.800000,0.999924,0.004772,-0.011324,0.001005,-0.500000,-0.500000,0.800000,0.999924,0.004772,-0.011324,0.001005,200.000000,100.000000,0.000000,0.000037,0.000000,0.000000,0.000000,0.000000,0.000000,0.000000,1.538603,0.376418,0.184584,-0.832031,0.166288,0.901573,0.771541
0.053000,-0.500000,-0.500000,0.800000,0.999924,0.004772,-0.011324,0.001005,-0.500000,-0.500000,0.800000,0.999924,0.004772,-0.011324,0.001005,200.000000,100.000000,0.000000,0.000037,0.000000,0.000000,0.000000,0.000000,0.000000,0.000000,1.538603,0.376418,0.184584,-0.832031,0.166288,0.901573,0.771541
0.054000,-0.500000,-0.500000,0.800000,0.999924,0.004772,-0.011324,0.001005,-0.500000,-0.500000,0.800000,0.999924,0.004772,-0.011324,0.001005,200.000000,100.000000,0.000000,0.000037,0.000000,0.000000,0.000000,0.000000,0.000000,0.000000,1.538603,0.376418,0.184584,-0.832031,0.166288,0.901573,0.771541
0.055000,-0.500000,-0.500000,0.800000,0.999924,0.004772,-0.011324,0.001005,-0.500000,-0.500000,0.800000,0.999924,0.004772,-0.011324,0.001005,200.000000,100.000000,0.000000,0.000037,0.000000,0.000000,0.000000,0.000000,0.000000,0.000000,1.538603,0.376418,0.184584,-0.832031,0.166288,0.901573,0.771541
0.056000,-0.500000,-0.500000,0.800000,0.999924,0.004772,-0.011324,0.001005,-0.500000,-0.500000,0.800000,0.999924,0.004772,-0.011324,0.001005,200.000000,100.000000,0.000000,0.000037,0.000000,0.000000,0.000000,0.000000,0.000000,0.000000,1.538603,0.376418,0.184584,-0.832031,0.166288,0.901573,0.771541
0.057000,-0.500000,-0.500000,0.800000,0.999924,0.004772,-0.011324,0.001005,-0.500000,-0.500000,0.800000,0.999924,0.004772,-0.011324,0.001005,200.000000,100.000000,0.000000,0.000037,0.000000,0.000000,0.000000,0.000000,0.000000,0.000000,1.538603,0.376418,0.184584,-0.832031,0.166288,0.901573,0.771541
0.057000,-0.500000,-0.500000,0.800000,0.999924,0.004772,-0.011324,0.001005,-0.500000,-0.500000,0.800000,0.999924,0.004772,-0.011324,0.001005,200.000000,100.000000,0.000000,0.000037,0.000000,0.000000,0.000000,0.000000,0.000000,0.000000,1.538603,0.376418,0.184584,-0.832031,0.166288,0.901573,0.771541
0.059000,-0.500000,-0.500000,0.800000,0.999924,0.004772,-0.011324,0.001005,-0.500000,-0.500000,0.800000,0.999924,0.004772,-0.011324,0.001005,200.000000,100.000000,0.000000,0.000037,0.000000,0.000000,0.000000,0.000000,0.000000,0.000000,1.538603,0.376418,0.184584,-0.832031,0.166288,0.901573,0.771541
0.059000,-0.500000,-0.500000,0.800000,0.999924,0.004772,-0.011324,0.001005,-0.500000,-0.500000,0.800000,0.999924,0.004772,-0.011324,0.001005,200.000000,100.000000,0.000000,0.000037,0.000000,0.000000,0.000000,0.000000,0.000000,0.000000,1.538603,0.376418,0.184584,-0.832031,0.166288,0.901573,0.771541
0.061000,-0.500000,-0.500000,0.800000,0.999924,0.004772,-0.011324,0.001005,-0.500000,-0.500000,0.800000,0.999924,0.004772,-0.011324,0.001005,200.000000,100.000000,0.000000,0.000037,0.000000,0.000000,0.000000,0.000000,0.000000,0.000000,1.538603,0.376418,0.184584,-0.832031,0.166288,0.901573,0.771541
0.061000,-0.500000,-0.500000,0.800000,0.999924,0.004772,-0.011324,0.001005,-0.500000,-0.500000,0.800000,0.999924,0.004772,-0.011324,0.001005,200.000000,100.000000,0.000000,0.000037,0.000000,0.000000,0.000000,0.000000,0.000000,0.000000,1.538603,0.376418,0.184584,-0.832031,0.166288,0.901573,0.771541
0.063000,-0.500000,-0.500000,0.800000,0.999924,0.004772,-0.011324,0.001005,-0.500000,-0.500000,0.800000,0.999924,0.004772,-0.011324,0.001005,200.000000,100.000000,0.000000,0.000037,0.000000,0.000000,0.000000,0.000000,0.000000,0.000000,1.538603,0.376418,0.184584,-0.832031,0.166288,0.901573,0.771541
0.064000,-0.500000,-0.500000,0.800000,0.999924,0.004772,-0.011324,0.001005,-0.500000,-0.500000,0.800000,0.999924,0.004772,-0.011324,0.001005,200.000000,100.000000,0.000000,0.000036,0.000000,0.000000,0.000000,0.000000,0.000000,0.000000,1.538603,0.376418,0.184584,-0.832031,0.166288,0.901573,0.771541
0.065000,-0.500000,-0.500000,0.800000,0.999924,0.004772,-0.011324,0.001005,-0.500000,-0.500000,0.800000,0.999924,0.004772,-0.011324,0.001005,200.000000,100.000000,0.000000,0.000036,0.000000,0.000000,0.000000,0.000000,0.000000,0.000000,1.538603,0.376418,0.184584,-0.832031,0.166288,0.901573,0.771541
0.066000,-0.500000,-0.500000,0.800000,0.999924,0.004772,-0.011324,0.001005,-0.500000,-0.500000,0.800000,0.999924,0.004772,-0.011324,0.001005,200.000000,100.000000,0.000000,0.000037,0.000000,0.000000,0.000000,0.000000,0.000000,0.000000,1.538603,0.376418,0.184584,-0.832031,0.166288,0.901573,0.771541
0.067000,-0.500000,-0.500000,0.800000,0.999924,0.004772,-0.011324,0.001005,-0.500000,-0.500000,0.800000,0.999924,0.004772,-0.011324,0.001005,200.000000,100.000000,0.000000,0.000037,0.000000,0.000000,0.000000,0.000000,0.000000,0.000000,1.538603,0.376418,0.184584,-0.832031,0.166288,0.901573,0.771541
0.068000,-0.500000,-0.500000,0.800000,0.999924,0.004772,-0.011324,0.001005,-0.500000,-0.500000,0.800000,0.999924,0.004772,-0.011324,0.001005,200.000000,100.000000,0.000000,0.000037,0.000000,0.000000,0.000000,0.000000,0.000000,0.000000,1.538603,0.376418,0.184584,-0.832031,0.166288,0.901573,0.771541
0.069000,-0.500000,-0.500000,0.800000,0.999924,0.004772,-0.011324,0.001005,-0.500000,-0.500000,0.800000,0.999924,0.004772,-0.011324,0.001005,200.000000,100.000000,0.000000,0.000037,0.000000,0.000000,0.000000,0.000000,0.000000,0.000000,1.538603,0.376418,0.184584,-0.832031,0.166288,0.901573,0.771541
0.070000,-0.500000,-0.500000,0.800000,0.999924,0.004772,-0.011324,0.001005,-0.500000,-0.500000,0.800000,0.999924,0.004772,-0.011324,0.001005,200.000000,100.000000,0.000000,0.000037,0.000000,0.000000,0.000000,0.000000,0.000000,0.000000,1.538603,0.376418,0.184584,-0.832031,0.166288,0.901573,0.771541
0.071000,-0.500000,-0.500000,0.800000,0.999924,0.004772,-0.011324,0.001005,-0.500000,-0.500000,0.800000,0.999924,0.004772,-0.011324,0.001005,200.000000,100.000000,0.000000,0.000037,0.000000,0.000000,0.000000,0.000000,0.000000,0.000000,1.538603,0.376418,0.184584,-0.832031,0.166288,0.901573,0.771541
0.072000,-0.500000,-0.500000,0.800000,0.999924,0.004772,-0.011324,0.001005,-0.500000,-0.500000,0.800000,0.999924,0.004772,-0.011324,0.001005,200.000000,100.000000,0.000000,0.000036,0.000000,0.000000,0.000000,0.000000,0.000000,0.000000,1.538603,0.376418,0.184584,-0.832031,0.166288,0.901573,0.771541
0.073000,-0.500000,-0.500000,0.800000,0.999924,0.004772,-0.011324,0.001005,-0.500000,-0.500000,0.800000,0.999924,0.004772,-0.011324,0.001005,200.000000,100.000000,0.000000,0.000036,0.000000,0.000000,0.000000,0.000000,0.000000,0.000000,1.538603,0.376418,0.184584,-0.832031,0.166288,0.901573,0.771541
0.074000,-0.500000,-0.500000,0.800000,0.999924,0.004772,-0.011324,0.001005,-0.500000,-0.500000,0.800000,0.999924,0.004772,-0.011324,0.001005,200.000000,100.000000,0.000000,0.000037,0.000000,0.000000,0.000000,0.000000,0.000000,0.000000,1.538603,0.376418,0.184584,-0.832031,0.166288,0.901573,0.771541
0.075000,-0.500000,-0.500000,0.800000,0.999924,0.004772,-0.011324,0.001005,-0.500000,-0.500000,0.800000,0.999924,0.004772,-0.011324,0.001005,200.000000,100.000000,0.000000,0.000037,0.000000,0.000000,0.000000,0.000000,0.000000,0.000000,1.538603,0.376418,0.184584,-0.832031,0.166288,0.901573,0.771541
0.076000,-0.500000,-0.500000,0.800000,0.999924,0.004772,-0.011324,0.001005,-0.500000,-0.500000,0.800000,0.999924,0.004772,-0.011324,0.001005,200.000000,100.000000,0.000000,0.000037,0.000000,0.000000,0.000000,0.000000,0.000000,0.000000,1.538603,0.376418,0.184584,-0.832031,0.166288,0.901573,0.771541
0.077000,-0.500000,-0.500000,0.800000,0.999924,0.004772,-0.011324,0.001005,-0.500000,-0.500000,0.800000,0.999924,0.004772,-0.011324,0.001005,200.000000,100.000000,0.000000,0.000037,0.000000,0.000000,0.000000,0.000000,0.000000,0.000000,1.538603,0.376418,0.184584,-0.832031,0.166288,0.901573,0.771541
0.078000,-0.500000,-0.500000,0.800000,0.999924,0.004772,-0.011324,0.001005,-0.500000,-0.500000,0.800000,0.999924,0.004772,-0.011324,0.001005,200.000000,100.000000,0.000000,0.000037,0.000000,0.000000,0.000000,0.000000,0.000000,0.000000,1.538603,0.376418,0.184584,-0.832031,0.166288,0.901573,0.771541
0.079000,-0.500000,-0.500000,0.800000,0.999924,0.004772,-0.011324,0.001005,-0.500000,-0.500000,0.800000,0.999924,0.004772,-0.011324,0.001005,200.000000,100.000000,0.000000,0.000037,0.000000,0.000000,0.000000,0.000000,0.000000,0.000000,1.538603,0.376418,0.184584,-0.832031,0.166288,0.901573,0.771541
0.080000,-0.500000,-0.500000,0.800000,0.999924,0.004772,-0.011324,0.001005,-0.500000,-0.500000,0.800000,0.999924,0.004772,-0.011324,0.001005,200.000000,100.000000,0.000000,0.000036,0.000000,0.000000,0.000000,0.000000,0.000000,0.000000,1.538603,0.376418,0.184584,-0.832031,0.166288,0.901573,0.771541
0.081000,-0.500000,-0.500000,0.800000,0.999924,0.004772,-0.011324,0.001005,-0.500000,-0.500000,0.800000,0.999924,0.004772,-0.011324,0.001005,200.000000,100.000000,0.000000,0.000036,0.000000,0.000000,0.000000,0.000000,0.000000,0.000000,1.538603,0.376418,0.184584,-0.832031,0.166288,0.901573,0.771541
0.082000,-0.500000,-0.500000,0.800000,0.999924,0.004772,-0.011324,0.001005,-0.500000,-0.500000,0.800000,0.999924,0.004772,-0.011324,0.001005,200.000000,100.000000,0.000000,0.000037,0.000000,0.000000,0.000000,0.000000,0.000000,0.000000,1.538603,0.376418,0.184584,-0.832031,0.166288,0.901573,0.771541
0.083000,-0.500000,-0.500000,0.800000,0.999924,0.004772,-0.011324,0.001005,-0.500000,-0.500000,0.800000,0.999924,0.004772,-0.011324,0.001005,200.000000,100.000000,0.000000,0.000037,0.000000,0.000000,0.000000,0.000000,0.000000,0.000000,1.538603,0.376418,0.184584,-0.832031,0.166288,0.901573,0.771541
0.084000,-0.500000,-0.500000,0.800000,0.999924,0.004772,-0.011324,0.001005,-0.500000,-0.500000,0.800000,0.999924,0.004772,-0.011324,0.001005,200.000000,100.000000,0.000000,0.000037,0.000000,0.000000,0.000000,0.000000,0.000000,0.000000,1.538603,0.376418,0.184584,-0.832031,0.166288,0.901573,0.771541
0.085000,-0.500000,-0.500000,0.800000,0.999924,0.004772,-0.011324,0.001005,-0.500000,-0.500000,0.800000,0.999924,0.004772,-0.011324,0.001005,200.000000,100.000000,0.000000,0.000037,0.000000,0.000000,0.000000,0.000000,0.000000,0.000000,1.538603,0.376418,0.184584,-0.832031,0.166288,0.901573,0.771541
0.086000,-0.500000,-0.500000,0.800000,0.999924,0.004772,-0.011324,0.001005,-0.500000,-0.500000,0.800000,0.999924,0.004772,-0.011324,0.001005,200.000000,100.000000,0.000000,0.000037,0.000000,0.000000,0.000000,0.000000,0.000000,0.000000,1.538603,0.376418,0.184584,-0.832031,0.166288,0.901573,0.771541
0.087000,-0.500000,-0.500000,0.800000,0.999924,0.004772,-0.011324,0.001005,-0.500000,-0.500000,0.800000,0.999924,0.004772,-0.011324,0.001005,200.000000,100.000000,0.000000,0.000037,0.000000,0.000000,0.000000,0.000000,0.000000,0.000000,1.538603,0.376418,0.184584,-0.832031,0.166288,0.901573,0.771541
0.088000,-0.500000,-0.500000,0.800000,0.999924,0.004772,-0.011324,0.001005,-0.500000,-0.500000,0.800000,0.999924,0.004772,-0.011324,0.001005,200.000000,100.000000,0.000000,0.000037,0.000000,0.000000,0.000000,0.000000,0.000000,0.000000,1.538603,0.376418,0.184584,-0.832031,0.166288,0.901573,0.771541
0.089000,-0.500000,-0.500000,0.800000,0.999924,0.004772,-0.011324,0.001005,-0.500000,-0.500000,0.800000,0.999924,0.004772,-0.011324,0.001005,200.000000,100.000000,0.000000,0.000037,0.000000,0.000000,0.000000,0.000000,0.000000,0.000000,1.538603,0.376418,0.184584,-0.832031,0.166288,0.901573,0.771541
0.090000,-0.500000,-0.500000,0.800000,0.999924,0.004772,-0.011324,0.001005,-0.500000,-0.500000,0.800000,0.999924,0.004772,-0.011324,0.001005,200.000000,100.000000,0.000000,0.000037,0.000000,0.000000,0.000000,0.000000,0.000000,0.000000,1.538603,0.376418,0.184584,-0.832031,0.166288,0.901573,0.771541
0.091000,-0.500000,-0.500000,0.800000,0.999924,0.004772,-0.011324,0.001005,-0.500000,-0.500000,0.800000,0.999924,0.004772,-0.011324,0.001005,200.000000,100.000000,0.000000,0.000037,0.000000,0.000000,0.000000,0.000000,0.000000,0.000000,1.538603,0.376418,0.184584,-0.832031,0.166288,0.901573,0.771541
0.092000,-0.500000,-0.500000,0.800000,0.999924,0.004772,-0.011324,0.001005,-0.500000,-0.500000,0.800000,0.999924,0.004772,-0.011324,0.001005,200.000000,100.000000,0.000000,0.000037,0.000000,0.000000,0.000000,0.000000,0.000000,0.000000,1.538603,0.376418,0.184584,-0.832031,0.166288,0.901573,0.771541
0.093000,-0.500000,-0.500000,0.800000,0.999924,0.004772,-0.011324,0.001005,-0.500000,-0.500000,0.800000,0.999924,0.004772,-0.011324,0.001005,200.000000,100.000000,0.000000,0.000037,0.000000,0.000000,0.000000,0.000000,0.000000,0.000000,1.538603,0.376418,0.184584,-0.832031,0.166288,0.901573,0.771541
0.094000,-0.500000,-0.500000,0.800000,0.999924,0.004772,-0.011324,0.001005,-0.500000,-0.500000,0.800000,0.999924,0.004772,-0.011324,0.001005,200.000000,100.000000,0.000000,0.000037,0.000000,0.000000,0.000000,0.000000,0.000000,0.000000,1.538603,0.376418,0.184584,-0.832031,0.166288,0.901573,0.771541
0.095000,-0.500000,-0.500000,0.800000,0.999924,0.004772,-0.011324,0.001005,-0.500000,-0.500000,0.800000,0.999924,0.004772,-0.011324,0.001005,200.000000,100.000000,0.000000,0.000036,0.000000,0.000000,0.000000,0.000000,0.000000,0.000000,1.538603,0.376418,0.184584,-0.832031,0.166288,0.901573,0.771541
0.096000,-0.500000,-0.500000,0.800000,0.999924,0.004772,-0.011324,0.001005,-0.500000,-0.500000,0.800000,0.999924,0.004772,-0.011324,0.001005,200.000000,100.000000,0.000000,0.000037,0.000000,0.000000,0.000000,0.000000,0.000000,0.000000,1.538603,0.376418,0.184584,-0.832031,0.166288,0.901573,0.771541
0.097000,-0.500000,-0.500000,0.800000,0.999924,0.004772,-0.011324,0.001005,-0.500000,-0.500000,0.800000,0.999924,0.004772,-0.011324,0.001005,200.000000,100.000000,0.000000,0.000037,0.000000,0.000000,0.000000,0.000000,0.000000,0.000000,1.538603,0.376418,0.184584,-0.832031,0.166288,0.901573,0.771541
0.098000,-0.500000,-0.500000,0.800000,0.999924,0.004772,-0.011324,0.001005,-0.500000,-0.500000,0.800000,0.999924,0.004772,-0.011324,0.001005,200.000000,100.000000,0.000000,0.000037,0.000000,0.000000,0.000000,0.000000,0.000000,0.000000,1.538603,0.376418,0.184584,-0.832031,0.166288,0.901573,0.771541
0.099000,-0.500000,-0.500000,0.800000,0.999924,0.004772,-0.011324,0.001005,-0.500000,-0.500000,0.800000,0.999924,0.004772,-0.011324,0.001005,200.000000,100.000000,0.000000,0.000037,0.000000,0.000000,0.000000,0.000000,0.000000,0.000000,1.538603,0.376418,0.184584,-0.832031,0.166288,0.901573,0.771541
0.100000,-0.500000,-0.500000,0.800000,0.999924,0.004772,-0.011324,0.001005,-0.500000,-0.500000,0.800000,0.999924,0.004772,-0.011324,0.001005,200.000000,100.000000,0.000000,0.000037,0.000000,0.000000,0.000000,0.000000,0.000000,0.000000,1.538603,0.376418,0.184584,-0.832031,0.166288,0.901573,0.771541
0.101000,-0.500000,-0.500000,0.800000,0.999924,0.004772,-0.011324,0.001005,-0.500000,-0.500000,0.800000,0.999924,0.004772,-0.011324,0.001005,200.000000,100.000000,0.000000,0.000037,0.000000,0.000000,0.000000,0.000000,0.000000,0.000000,1.538603,0.376418,0.184584,-0.832031,0.166288,0.901573,0.771541
0.102000,-0.500000,-0.500000,0.800000,0.999924,0.004772,-0.011324,0.001005,-0.500000,-0.500000,0.800000,0.999924,0.004772,-0.011324,0.001005,200.000000,100.000000,0.000000,0.000036,0.000000,0.000000,0.000000,0.000000,0.000000,0.000000,1.538603,0.376418,0.184584,-0.832031,0.166288,0.901573,0.771541
0.103000,-0.500000,-0.500000,0.800000,0.999924,0.004772,-0.011324,0.001005,-0.500000,-0.500000,0.800000,0.999924,0.004772,-0.011324,0.001005,200.000000,100.000000,0.000000,0.000036,0.000000,0.000000,0.000000,0.000000,0.000000,0.000000,1.538603,0.376418,0.184584,-0.832031,0.166288,0.901573,0.771541
0.104000,-0.500000,-0.500000,0.800000,0.999924,0.004772,-0.011324,0.001005,-0.500000,-0.500000,0.800000,0.999924,0.004772,-0.011324,0.001005,200.000000,100.000000,0.000000,0.000037,0.000000,0.000000,0.000000,0.000000,0.000000,0.000000,1.538603,0.376418,0.184584,-0.832031,0.166288,0.901573,0.771541
0.105000,-0.500000,-0.500000,0.800000,0.999924,0.004772,-0.011324,0.001005,-0.500000,-0.500000,0.800000,0.999924,0.004772,-0.011324,0.001005,200.000000,100.000000,0.000000,0.000037,0.000000,0.000000,0.000000,0.000000,0.000000,0.000000,1.538603,0.376418,0.184584,-0.832031,0.166288,0.901573,0.771541
0.106000,-0.500000,-0.500000,0.800000,0.999924,0.004772,-0.011324,0.001005,-0.500000,-0.500000,0.800000,0.999924,0.004772,-0.011324,0.001005,200.000000,100.000000,0.000000,0.000037,0.000000,0.000000,0.000000,0.000000,0.000000,0.000000,1.538603,0.376418,0.184584,-0.832031,0.166288,0.901573,0.771541
0.107000,-0.500000,-0.500000,0.800000,0.999924,0.004772,-0.011324,0.001005,-0.500000,-0.500000,0.800000,0.999924,0.004772,-0.011324,0.001005,200.000000,100.000000,0.000000,0.000037,0.000000,0.000000,0.000000,0.000000,0.000000,0.000000,1.538603,0.376418,0.184584,-0.832031,0.166288,0.901573,0.771541
0.108000,-0.500000,-0.500000,0.800000,0.999924,0.004772,-0.011324,0.001005,-0.500000,-0.500000,0.800000,0.999924,0.004772,-0.011324,0.001005,200.000000,100.000000,0.000000,0.000037,0.000000,0.000000,0.000000,0.000000,0.000000,0.000000,1.538603,0.376418,0.184584,-0.832031,0.166288,0.901573,0.771541
0.109000,-0.500000,-0.500000,0.800000,0.999924,0.004772,-0.011324,0.001005,-0.500000,-0.500000,0.800000,0.999924,0.004772,-0.011324,0.001005,200.000000,100.000000,0.000000,0.000037,0.000000,0.000000,0.000000,0.000000,0.000000,0.000000,1.538603,0.376418,0.184584,-0.832031,0.166288,0.901573,0.771541
0.109000,-0.500000,-0.500000,0.800000,0.999924,0.004772,-0.011324,0.001005,-0.500000,-0.500000,0.800000,0.999924,0.004772,-0.011324,0.001005,200.000000,100.000000,0.000000,0.000036,0.000000,0.000000,0.000000,0.000000,0.000000,0.000000,1.538603,0.376418,0.184584,-0.832031,0.166288,0.901573,0.771541
0.109000,-0.500000,-0.500000,0.800000,0.999924,0.004772,-0.011324,0.001005,-0.500000,-0.500000,0.800000,0.999924,0.004772,-0.011324,0.001005,200.000000,100.000000,0.000000,0.000036,0.000000,0.000000,0.000000,0.000000,0.000000,0.000000,1.538603,0.376418,0.184584,-0.832031,0.166288,0.901573,0.771541
0.112000,-0.500000,-0.500000,0.800000,0.999924,0.004772,-0.011324,0.001005,-0.500000,-0.500000,0.800000,0.999924,0.004772,-0.011324,0.001005,200.000000,100.000000,0.000000,0.000037,0.000000,0.000000,0.000000,0.000000,0.000000,0.000000,1.538603,0.376418,0.184584,-0.832031,0.166288,0.901573,0.771541
0.113000,-0.500000,-0.500000,0.800000,0.999924,0.004772,-0.011324,0.001005,-0.500000,-0.500000,0.800000,0.999924,0.004772,-0.011324,0.001005,200.000000,100.000000,0.000000,0.000037,0.000000,0.000000,0.000000,0.000000,0.000000,0.000000,1.538603,0.376418,0.184584,-0.832031,0.166288,0.901573,0.771541
0.114000,-0.500000,-0.500000,0.800000,0.999924,0.004772,-0.011324,0.001005,-0.500000,-0.500000,0.800000,0.999924,0.004772,-0.011324,0.001005,200.000000,100.000000,0.000000,0.000037,0.000000,0.000000,0.000000,0.000000,0.000000,0.000000,1.538603,0.376418,0.184584,-0.832031,0.166288,0.901573,0.771541
0.115000,-0.500000,-0.500000,0.800000,0.999924,0.004772,-0.011324,0.001005,-0.500000,-0.500000,0.800000,0.999924,0.004772,-0.011324,0.001005,200.000000,100.000000,0.000000,0.000037,0.000000,0.000000,0.000000,0.000000,0.000000,0.000000,1.538603,0.376418,0.184584,-0.832031,0.166288,0.901573,0.771541
0.116000,-0.500000,-0.500000,0.800000,0.999924,0.004772,-0.011324,0.001005,-0.500000,-0.500000,0.800000,0.999924,0.004772,-0.011324,0.001005,200.000000,100.000000,0.000000,0.000037,0.000000,0.000000,0.000000,0.000000,0.000000,0.000000,1.538603,0.376418,0.184584,-0.832031,0.166288,0.901573,0.771541
0.117000,-0.500000,-0.500000,0.800000,0.999924,0.004772,-0.011324,0.001005,-0.500000,-0.500000,0.800000,0.999924,0.004772,-0.011324,0.001005,200.000000,100.000000,0.000000,0.000037,0.000000,0.000000,0.000000,0.000000,0.000000,0.000000,1.538603,0.376418,0.184584,-0.832031,0.166288,0.901573,0.771541
0.118000,-0.500000,-0.500000,0.800000,0.999924,0.004772,-0.011324,0.001005,-0.500000,-0.500000,0.800000,0.999924,0.004772,-0.011324,0.001005,200.000000,100.000000,0.000000,0.000037,0.000000,0.000000,0.000000,0.000000,0.000000,0.000000,1.538603,0.376418,0.184584,-0.832031,0.166288,0.901573,0.771541
0.119000,-0.500000,-0.500000,0.800000,0.999924,0.004772,-0.011324,0.001005,-0.500000,-0.500000,0.800000,0.999924,0.004772,-0.011324,0.001005,200.000000,100.000000,0.000000,0.000037,0.000000,0.000000,0.000000,0.000000,0.000000,0.000000,1.538603,0.376418,0.184584,-0.832031,0.166288,0.901573,0.771541
0.119000,-0.500000,-0.500000,0.800000,0.999924,0.004772,-0.011324,0.001005,-0.500000,-0.500000,0.800000,0.999924,0.004772,-0.011324,0.001005,200.000000,100.000000,0.000000,0.000037,0.000000,0.000000,0.000000,0.000000,0.000000,0.000000,1.538603,0.376418,0.184584,-0.832031,0.166288,0.901573,0.771541
0.121000,-0.500000,-0.500000,0.800000,0.999924,0.004772,-0.011324,0.001005,-0.500000,-0.500000,0.800000,0.999924,0.004772,-0.011324,0.001005,200.000000,100.000000,0.000000,0.000037,0.000000,0.000000,0.000000,0.000000,0.000000,0.000000,1.538603,0.376418,0.184584,-0.832031,0.166288,0.901573,0.771541
0.122000,-0.500000,-0.500000,0.800000,0.999924,0.004772,-0.011324,0.001005,-0.500000,-0.500000,0.800000,0.999924,0.004772,-0.011324,0.001005,200.000000,100.000000,0.000000,0.000037,0.000000,0.000000,0.000000,0.000000,0.000000,0.000000,1.538603,0.376418,0.184584,-0.832031,0.166288,0.901573,0.771541
0.123000,-0.500000,-0.500000,0.800000,0.999924,0.004772,-0.011324,0.001005,-0.500000,-0.500000,0.800000,0.999924,0.004772,-0.011324,0.001005,200.000000,100.000000,0.000000,0.000037,0.000000,0.000000,0.000000,0.000000,0.000000,0.000000,1.538603,0.376418,0.184584,-0.832031,0.166288,0.901573,0.771541
0.124000,-0.500000,-0.500000,0.800000,0.999924,0.004772,-0.011324,0.001005,-0.500000,-0.500000,0.800000,0.999924,0.004772,-0.011324,0.001005,200.000000,100.000000,0.000000,0.000036,0.000000,0.000000,0.000000,0.000000,0.000000,0.000000,1.538603,0.376418,0.184584,-0.832031,0.166288,0.901573,0.771541
0.125000,-0.500000,-0.500000,0.800000,0.999924,0.004772,-0.011324,0.001005,-0.500000,-0.500000,0.800000,0.999924,0.004772,-0.011324,0.001005,200.000000,100.000000,0.000000,0.000036,0.000000,0.000000,0.000000,0.000000,0.000000,0.000000,1.538603,0.376418,0.184584,-0.832031,0.166288,0.901573,0.771541
0.126000,-0.500000,-0.500000,0.800000,0.999924,0.004772,-0.011324,0.001005,-0.500000,-0.500000,0.800000,0.999924,0.004772,-0.011324,0.001005,200.000000,100.000000,0.000000,0.000037,0.000000,0.000000,0.000000,0.000000,0.000000,0.000000,1.538603,0.376418,0.184584,-0.832031,0.166288,0.901573,0.771541
0.127000,-0.500000,-0.500000,0.800000,0.999924,0.004772,-0.011324,0.001005,-0.500000,-0.500000,0.800000,0.999924,0.004772,-0.011324,0.001005,200.000000,100.000000,0.000000,0.000037,0.000000,0.000000,0.000000,0.000000,0.000000,0.000000,1.538603,0.376418,0.184584,-0.832031,0.166288,0.901573,0.771541
0.127000,-0.500000,-0.500000,0.800000,0.999924,0.004772,-0.011324,0.001005,-0.500000,-0.500000,0.800000,0.999924,0.004772,-0.011324,0.001005,200.000000,100.000000,0.000000,0.000037,0.000000,0.000000,0.000000,0.000000,0.000000,0.000000,1.538603,0.376418,0.184584,-0.832031,0.166288,0.901573,0.771541
0.129000,-0.500000,-0.500000,0.800000,0.999924,0.004772,-0.011324,0.001005,-0.500000,-0.500000,0.800000,0.999924,0.004772,-0.011324,0.001005,200.000000,100.000000,0.000000,0.000037,0.000000,0.000000,0.000000,0.000000,0.000000,0.000000,1.538603,0.376418,0.184584,-0.832031,0.166288,0.901573,0.771541
0.130000,-0.500000,-0.500000,0.800000,0.999924,0.004772,-0.011324,0.001005,-0.500000,-0.500000,0.800000,0.999924,0.004772,-0.011324,0.001005,200.000000,100.000000,0.000000,0.000037,0.000000,0.000000,0.000000,0.000000,0.000000,0.000000,1.538603,0.376418,0.184584,-0.832031,0.166288,0.901573,0.771541
0.131000,-0.500000,-0.500000,0.800000,0.999924,0.004772,-0.011324,0.001005,-0.500000,-0.500000,0.800000,0.999924,0.004772,-0.011324,0.001005,200.000000,100.000000,0.000000,0.000037,0.000000,0.000000,0.000000,0.000000,0.000000,0.000000,1.538603,0.376418,0.184584,-0.832031,0.166288,0.901573,0.771541
0.132000,-0.500000,-0.500000,0.800000,0.999924,0.004772,-0.011324,0.001005,-0.500000,-0.500000,0.800000,0.999924,0.004772,-0.011324,0.001005,200.000000,100.000000,0.000000,0.000036,0.000000,0.000000,0.000000,0.000000,0.000000,0.000000,1.538603,0.376418,0.184584,-0.832031,0.166288,0.901573,0.771541
0.133000,-0.500000,-0.500000,0.800000,0.999924,0.004772,-0.011324,0.001005,-0.500000,-0.500000,0.800000,0.999924,0.004772,-0.011324,0.001005,200.000000,100.000000,0.000000,0.000036,0.000000,0.000000,0.000000,0.000000,0.000000,0.000000,1.538603,0.376418,0.184584,-0.832031,0.166288,0.901573,0.771541
0.134000,-0.500000,-0.500000,0.800000,0.999924,0.004772,-0.011324,0.001005,-0.500000,-0.500000,0.800000,0.999924,0.004772,-0.011324,0.001005,200.000000,100.000000,0.000000,0.000037,0.000000,0.000000,0.000000,0.000000,0.000000,0.000000,1.538603,0.376418,0.184584,-0.832031,0.166288,0.901573,0.771541
0.135000,-0.500000,-0.500000,0.800000,0.999924,0.004772,-0.011324,0.001005,-0.500000,-0.500000,0.800000,0.999924,0.004772,-0.011324,0.001005,200.000000,100.000000,0.000000,0.000037,0.000000,0.000000,0.000000,0.000000,0.000000,0.000000,1.538603,0.376418,0.184584,-0.832031,0.166288,0.901573,0.771541
0.135000,-0.500000,-0.500000,0.800000,0.999924,0.004772,-0.011324,0.001005,-0.500000,-0.500000,0.800000,0.999924,0.004772,-0.011324,0.001005,200.000000,100.000000,0.000000,0.000037,0.000000,0.000000,0.000000,0.000000,0.000000,0.000000,1.538603,0.376418,0.184584,-0.832031,0.166288,0.901573,0.771541
0.137000,-0.500000,-0.500000,0.800000,0.999924,0.004772,-0.011324,0.001005,-0.500000,-0.500000,0.800000,0.999924,0.004772,-0.011324,0.001005,200.000000,100.000000,0.000000,0.000037,0.000000,0.000000,0.000000,0.000000,0.000000,0.000000,1.538603,0.376418,0.184584,-0.832031,0.166288,0.901573,0.771541
0.138000,-0.500000,-0.500000,0.800000,0.999924,0.004772,-0.011324,0.001005,-0.500000,-0.500000,0.800000,0.999924,0.004772,-0.011324,0.001005,200.000000,100.000000,0.000000,0.000037,0.000000,0.000000,0.000000,0.000000,0.000000,0.000000,1.538603,0.376418,0.184584,-0.832031,0.166288,0.901573,0.771541
0.139000,-0.500000,-0.500000,0.800000,0.999924,0.004772,-0.011324,0.001005,-0.500000,-0.500000,0.800000,0.999924,0.004772,-0.011324,0.001005,200.000000,100.000000,0.000000,0.000037,0.000000,0.000000,0.000000,0.000000,0.000000,0.000000,1.538603,0.376418,0.184584,-0.832031,0.166288,0.901573,0.771541
0.140000,-0.500000,-0.500000,0.800000,0.999924,0.004772,-0.011324,0.001005,-0.500000,-0.500000,0.800000,0.999924,0.004772,-0.011324,0.001005,200.000000,100.000000,0.000000,0.000036,0.000000,0.000000,0.000000,0.000000,0.000000,0.000000,1.538603,0.376418,0.184584,-0.832031,0.166288,0.901573,0.771541
0.141000,-0.500000,-0.500000,0.800000,0.999924,0.004772,-0.011324,0.001005,-0.500000,-0.500000,0.800000,0.999924,0.004772,-0.011324,0.001005,200.000000,100.000000,0.000000,0.000036,0.000000,0.000000,0.000000,0.000000,0.000000,0.000000,1.538603,0.376418,0.184584,-0.832031,0.166288,0.901573,0.771541
0.142000,-0.500000,-0.500000,0.800000,0.999924,0.004772,-0.011324,0.001005,-0.500000,-0.500000,0.800000,0.999924,0.004772,-0.011324,0.001005,200.000000,100.000000,0.000000,0.000037,0.000000,0.000000,0.000000,0.000000,0.000000,0.000000,1.538603,0.376418,0.184584,-0.832031,0.166288,0.901573,0.771541
0.143000,-0.500000,-0.500000,0.800000,0.999924,0.004772,-0.011324,0.001005,-0.500000,-0.500000,0.800000,0.999924,0.004772,-0.011324,0.001005,200.000000,100.000000,0.000000,0.000037,0.000000,0.000000,0.000000,0.000000,0.000000,0.000000,1.538603,0.376418,0.184584,-0.832031,0.166288,0.901573,0.771541
0.144000,-0.500000,-0.500000,0.800000,0.999924,0.004772,-0.011324,0.001005,-0.500000,-0.500000,0.800000,0.999924,0.004772,-0.011324,0.001005,200.000000,100.000000,0.000000,0.000037,0.000000,0.000000,0.000000,0.000000,0.000000,0.000000,1.538603,0.376418,0.184584,-0.832031,0.166288,0.901573,0.771541
0.145000,-0.500000,-0.500000,0.800000,0.999924,0.004772,-0.011324,0.001005,-0.500000,-0.500000,0.800000,0.999924,0.004772,-0.011324,0.001005,200.000000,100.000000,0.000000,0.000037,0.000000,0.000000,0.000000,0.000000,0.000000,0.000000,1.538603,0.376418,0.184584,-0.832031,0.166288,0.901573,0.771541
0.146000,-0.500000,-0.500000,0.800000,0.999924,0.004772,-0.011324,0.001005,-0.500000,-0.500000,0.800000,0.999924,0.004772,-0.011324,0.001005,200.000000,100.000000,0.000000,0.000037,0.000000,0.000000,0.000000,0.000000,0.000000,0.000000,1.538603,0.376418,0.184584,-0.832031,0.166288,0.901573,0.771541
0.147000,-0.500000,-0.500000,0.800000,0.999924,0.004772,-0.011324,0.001005,-0.500000,-0.500000,0.800000,0.999924,0.004772,-0.011324,0.001005,200.000000,100.000000,0.000000,0.000037,0.000000,0.000000,0.000000,0.000000,0.000000,0.000000,1.538603,0.376418,0.184584,-0.832031,0.166288,0.901573,0.771541
0.148000,-0.500000,-0.500000,0.800000,0.999924,0.004772,-0.011324,0.001005,-0.500000,-0.500000,0.800000,0.999924,0.004772,-0.011324,0.001005,200.000000,100.000000,0.000000,0.000036,0.000000,0.000000,0.000000,0.000000,0.000000,0.000000,1.538603,0.376418,0.184584,-0.832031,0.166288,0.901573,0.771541
0.149000,-0.500000,-0.500000,0.800000,0.999924,0.004772,-0.011324,0.001005,-0.500000,-0.500000,0.800000,0.999924,0.004772,-0.011324,0.001005,200.000000,100.000000,0.000000,0.000036,0.000000,0.000000,0.000000,0.000000,0.000000,0.000000,1.538603,0.376418,0.184584,-0.832031,0.166288,0.901573,0.771541
0.150000,-0.500000,-0.500000,0.800000,0.999924,0.004772,-0.011324,0.001005,-0.500000,-0.500000,0.800000,0.999924,0.004772,-0.011324,0.001005,200.000000,100.000000,0.000000,0.000037,0.000000,0.000000,0.000000,0.000000,0.000000,0.000000,1.538603,0.376418,0.184584,-0.832031,0.166288,0.901573,0.771541
0.151000,-0.500000,-0.500000,0.800000,0.999924,0.004772,-0.011324,0.001005,-0.500000,-0.500000,0.800000,0.999924,0.004772,-0.011324,0.001005,200.000000,100.000000,0.000000,0.000037,0.000000,0.000000,0.000000,0.000000,0.000000,0.000000,1.538603,0.376418,0.184584,-0.832031,0.166288,0.901573,0.771541
0.152000,-0.500000,-0.500000,0.800000,0.999924,0.004772,-0.011324,0.001005,-0.500000,-0.500000,0.800000,0.999924,0.004772,-0.011324,0.001005,200.000000,100.000000,0.000000,0.000037,0.000000,0.000000,0.000000,0.000000,0.000000,0.000000,1.538603,0.376418,0.184584,-0.832031,0.166288,0.901573,0.771541
0.153000,-0.500000,-0.500000,0.800000,0.999924,0.004772,-0.011324,0.001005,-0.500000,-0.500000,0.800000,0.999924,0.004772,-0.011324,0.001005,200.000000,100.000000,0.000000,0.000036,0.000000,0.000000,0.000000,0.000000,0.000000,0.000000,1.538603,0.376418,0.184584,-0.832031,0.166288,0.901573,0.771541
0.154000,-0.500000,-0.500000,0.800000,0.999924,0.004772,-0.011324,0.001005,-0.500000,-0.500000,0.800000,0.999924,0.004772,-0.011324,0.001005,200.000000,100.000000,0.000000,0.000036,0.000000,0.000000,0.000000,0.000000,0.000000,0.000000,1.538603,0.376418,0.184584,-0.832031,0.166288,0.901573,0.771541
0.155000,-0.500000,-0.500000,0.800000,0.999924,0.004772,-0.011324,0.001005,-0.500000,-0.500000,0.800000,0.999924,0.004772,-0.011324,0.001005,200.000000,100.000000,0.000000,0.000037,0.000000,0.000000,0.000000,0.000000,0.000000,0.000000,1.538603,0.376418,0.184584,-0.832031,0.166288,0.901573,0.771541
0.156000,-0.500000,-0.500000,0.800000,0.999924,0.004772,-0.011324,0.001005,-0.500000,-0.500000,0.800000,0.999924,0.004772,-0.011324,0.001005,200.000000,100.000000,0.000000,0.000037,0.000000,0.000000,0.000000,0.000000,0.000000,0.000000,1.538603,0.376418,0.184584,-0.832031,0.166288,0.901573,0.771541
0.157000,-0.500000,-0.500000,0.800000,0.999924,0.004772,-0.011324,0.001005,-0.500000,-0.500000,0.800000,0.999924,0.004772,-0.011324,0.001005,200.000000,100.000000,0.000000,0.000037,0.000000,0.000000,0.000000,0.000000,0.000000,0.000000,1.538603,0.376418,0.184584,-0.832031,0.166288,0.901573,0.771541
0.158000,-0.500000,-0.500000,0.800000,0.999924,0.004772,-0.011324,0.001005,-0.500000,-0.500000,0.800000,0.999924,0.004772,-0.011324,0.001005,200.000000,100.000000,0.000000,0.000037,0.000000,0.000000,0.000000,0.000000,0.000000,0.000000,1.538603,0.376418,0.184584,-0.832031,0.166288,0.901573,0.771541
0.159000,-0.500000,-0.500000,0.800000,0.999924,0.004772,-0.011324,0.001005,-0.500000,-0.500000,0.800000,0.999924,0.004772,-0.011324,0.001005,200.000000,100.000000,0.000000,0.000037,0.000000,0.000000,0.000000,0.000000,0.000000,0.000000,1.538603,0.376418,0.184584,-0.832031,0.166288,0.901573,0.771541
0.160000,-0.500000,-0.500000,0.800000,0.999924,0.004772,-0.011324,0.001005,-0.500000,-0.500000,0.800000,0.999924,0.004772,-0.011324,0.001005,200.000000,100.000000,0.000000,0.000037,0.000000,0.000000,0.000000,0.000000,0.000000,0.000000,1.538603,0.376418,0.184584,-0.832031,0.166288,0.901573,0.771541
0.161000,-0.500000,-0.500000,0.800000,0.999924,0.004772,-0.011324,0.001005,-0.500000,-0.499990,0.800000,0.999924,0.004772,-0.011324,0.001005,200.000000,100.000000,0.000000,0.000036,0.000000,0.000000,0.000000,0.000000,0.000000,0.000000,1.538603,0.376418,0.184584,-0.832031,0.166288,0.901573,0.771541
0.162000,-0.500000,-0.500000,0.800000,0.999924,0.004772,-0.011324,0.001005,-0.500000,-0.499990,0.800000,0.999924,0.004772,-0.011324,0.001005,200.000000,100.000000,0.000000,0.000037,0.000000,0.000000,0.000000,0.000000,0.000000,0.000000,1.538603,0.376418,0.184584,-0.832031,0.166288,0.901573,0.771541
0.163000,-0.500000,-0.500000,0.800000,0.999924,0.004772,-0.011324,0.001005,-0.500000,-0.499990,0.800000,0.999924,0.004772,-0.011324,0.001005,200.000000,100.000000,0.000000,0.000037,0.000000,0.000000,0.000000,0.000000,0.000000,0.000000,1.538603,0.376418,0.184584,-0.832031,0.166288,0.901573,0.771541
0.164000,-0.500000,-0.500000,0.800000,0.999924,0.004772,-0.011324,0.001005,-0.500000,-0.499990,0.800000,0.999924,0.004772,-0.011324,0.001005,200.000000,100.000000,0.000000,0.000037,0.000000,0.000000,0.000000,0.000000,0.000000,0.000000,1.538603,0.376418,0.184584,-0.832031,0.166288,0.901573,0.771541
0.165000,-0.500000,-0.500000,0.800000,0.999924,0.004772,-0.011324,0.001005,-0.500000,-0.499990,0.800000,0.999924,0.004772,-0.011324,0.001005,200.000000,100.000000,0.000000,0.000037,0.000000,0.000000,0.000000,0.000000,0.000000,0.000000,1.538603,0.376418,0.184584,-0.832031,0.166288,0.901573,0.771541
0.166000,-0.500000,-0.500000,0.800000,0.999924,0.004772,-0.011324,0.001005,-0.500000,-0.499990,0.800000,0.999924,0.004772,-0.011324,0.001005,200.000000,100.000000,0.000000,0.000037,0.000000,0.000000,0.000000,0.000000,0.000000,0.000000,1.538603,0.376418,0.184584,-0.832031,0.166288,0.901573,0.771541
0.167000,-0.500000,-0.500000,0.800000,0.999924,0.004772,-0.011324,0.001005,-0.500000,-0.499990,0.800000,0.999924,0.004772,-0.011324,0.001005,200.000000,100.000000,0.000000,0.000037,0.000000,0.000000,0.000000,0.000000,0.000000,0.000000,1.538603,0.376418,0.184584,-0.832031,0.166288,0.901573,0.771541
0.168000,-0.500000,-0.500000,0.800000,0.999924,0.004772,-0.011324,0.001005,-0.500000,-0.499990,0.800000,0.999924,0.004772,-0.011324,0.001005,200.000000,100.000000,0.000000,0.000037,0.000000,0.000000,0.000000,0.000000,0.000000,0.000000,1.538603,0.376418,0.184584,-0.832031,0.166288,0.901573,0.771541
0.169000,-0.500000,-0.500000,0.800000,0.999924,0.004772,-0.011324,0.001005,-0.500000,-0.499990,0.800000,0.999924,0.004772,-0.011324,0.001005,200.000000,100.000000,0.000000,0.000038,0.000000,0.000000,0.000000,0.000000,0.000000,0.000000,1.538603,0.376418,0.184584,-0.832031,0.166288,0.901573,0.771541
0.170000,-0.500000,-0.500000,0.800000,0.999924,0.004772,-0.011324,0.001005,-0.500000,-0.499960,0.800000,0.999924,0.004772,-0.011324,0.001005,200.000000,100.000000,0.000000,0.000036,0.000000,0.000000,0.000000,0.000000,0.000000,0.000000,1.538603,0.376418,0.184584,-0.832031,0.166288,0.901573,0.771541
0.170000,-0.500000,-0.500000,0.800000,0.999924,0.004772,-0.011324,0.001005,-0.500000,-0.499960,0.800000,0.999924,0.004772,-0.011324,0.001005,200.000000,100.000000,0.000000,0.000037,0.000000,0.000000,0.000000,0.000000,0.000000,0.000000,1.538603,0.376418,0.184584,-0.832031,0.166288,0.901573,0.771541
0.172000,-0.500000,-0.500000,0.800000,0.999924,0.004772,-0.011324,0.001005,-0.500000,-0.499960,0.800000,0.999924,0.004772,-0.011324,0.001005,200.000000,100.000000,0.000000,0.000037,0.000000,0.000000,0.000000,0.000000,0.000000,0.000000,1.538603,0.376418,0.184584,-0.832031,0.166288,0.901573,0.771541
0.173000,-0.500000,-0.500000,0.800000,0.999924,0.004772,-0.011324,0.001005,-0.500000,-0.499960,0.800000,0.999924,0.004772,-0.011324,0.001005,200.000000,100.000000,0.000000,0.000039,0.000000,0.000000,0.000000,0.000000,0.000000,0.000000,1.538603,0.376418,0.184584,-0.832031,0.166288,0.901573,0.771541
0.174000,-0.500000,-0.500000,0.800000,0.999924,0.004772,-0.011324,0.001005,-0.500000,-0.499960,0.800000,0.999924,0.004772,-0.011324,0.001005,200.000000,100.000000,0.000000,0.000037,0.000000,0.000000,0.000000,0.000000,0.000000,0.000000,1.538603,0.376418,0.184584,-0.832032,0.166288,0.901573,0.771541
0.175000,-0.500000,-0.500000,0.800000,0.999924,0.004772,-0.011324,0.001005,-0.500000,-0.499960,0.800000,0.999924,0.004772,-0.011324,0.001005,200.000000,100.000000,0.000000,0.000038,0.000000,0.000000,0.000000,0.000000,0.000000,0.000000,1.538603,0.376418,0.184584,-0.832031,0.166288,0.901573,0.771541
0.176000,-0.500000,-0.500000,0.800000,0.999924,0.004772,-0.011324,0.001005,-0.500000,-0.499960,0.800000,0.999924,0.004772,-0.011324,0.001005,200.000000,100.000000,0.000000,0.000036,0.000000,0.000000,0.000000,0.000000,0.000000,0.000000,1.538603,0.376418,0.184584,-0.832032,0.166288,0.901573,0.771541
0.177000,-0.500000,-0.500000,0.800000,0.999924,0.004772,-0.011324,0.001005,-0.500000,-0.499960,0.800000,0.999924,0.004772,-0.011324,0.001005,200.000000,100.000000,0.000000,0.000040,0.000000,0.000000,0.000000,0.000000,0.000000,0.000000,1.538603,0.376418,0.184584,-0.832032,0.166288,0.901573,0.771541
0.178000,-0.500000,-0.500000,0.800000,0.999924,0.004772,-0.011324,0.001005,-0.500000,-0.499960,0.800000,0.999924,0.004772,-0.011324,0.001005,200.000000,100.000000,0.000000,0.000036,0.000000,0.000000,0.000000,0.000000,0.000000,0.000000,1.538603,0.376418,0.184584,-0.832032,0.166288,0.901573,0.771541
0.179000,-0.500000,-0.500000,0.800000,0.999924,0.004772,-0.011324,0.001005,-0.500000,-0.499960,0.800000,0.999924,0.004772,-0.011324,0.001005,200.000000,100.000000,0.000000,0.000040,0.000000,0.000000,0.000000,0.000000,0.000000,0.000000,1.538603,0.376418,0.184584,-0.832032,0.166288,0.901573,0.771541
0.180000,-0.500000,-0.500000,0.800000,0.999924,0.004772,-0.011324,0.001005,-0.500000,-0.499910,0.800000,0.999924,0.004772,-0.011324,0.001005,200.000000,100.000000,0.000000,0.000037,0.000000,0.000000,0.000000,0.000000,0.000000,0.000000,1.538603,0.376418,0.184584,-0.832032,0.166288,0.901573,0.771541
0.180000,-0.500000,-0.500000,0.800000,0.999924,0.004772,-0.011324,0.001005,-0.500000,-0.499910,0.800000,0.999924,0.004772,-0.011324,0.001005,200.000000,100.000000,0.000000,0.000041,0.000000,0.000000,0.000000,0.000000,0.000000,0.000000,1.538603,0.376418,0.184584,-0.832032,0.166288,0.901573,0.771541
0.182000,-0.500000,-0.500000,0.800000,0.999924,0.004772,-0.011324,0.001005,-0.500000,-0.499910,0.800000,0.999924,0.004772,-0.011324,0.001005,200.000000,100.000000,0.000000,0.000038,0.000000,0.000000,0.000000,0.000000,0.000000,0.000000,1.538603,0.376418,0.184584,-0.832032,0.166288,0.901573,0.771541
0.183000,-0.500000,-0.500000,0.800000,0.999924,0.004772,-0.011324,0.001005,-0.500000,-0.499910,0.800000,0.999924,0.004772,-0.011324,0.001005,200.000000,100.000000,0.000000,0.000043,0.000000,0.000000,0.000000,0.000000,0.000000,0.000000,1.538603,0.376418,0.184584,-0.832032,0.166288,0.901573,0.771541
0.184000,-0.500000,-0.500000,0.800000,0.999924,0.004772,-0.011324,0.001005,-0.500000,-0.499910,0.800000,0.999924,0.004772,-0.011324,0.001005,200.000000,100.000000,0.000000,0.000038,0.000000,0.000000,0.000000,0.000000,0.000000,0.000000,1.538603,0.376418,0.184584,-0.832032,0.166288,0.901573,0.771540
0.185000,-0.500000,-0.500000,0.800000,0.999924,0.004772,-0.011324,0.001005,-0.500000,-0.499910,0.800000,0.999924,0.004772,-0.011324,0.001005,200.000000,100.000000,0.000000,0.000046,0.000000,0.000000,0.000000,0.000000,0.000000,0.000000,1.538603,0.376418,0.184584,-0.832032,0.166288,0.901573,0.771540
0.186000,-0.500000,-0.500000,0.800000,0.999924,0.004772,-0.011324,0.001005,-0.500000,-0.499910,0.800000,0.999924,0.004772,-0.011324,0.001005,200.000000,100.000000,0.000000,0.000040,0.000000,0.000000,0.000000,0.000000,0.000000,0.000000,1.538603,0.376418,0.184584,-0.832032,0.166288,0.901573,0.771540
0.187000,-0.500000,-0.500000,0.800000,0.999924,0.004772,-0.011324,0.001005,-0.500000,-0.499910,0.800000,0.999924,0.004772,-0.011324,0.001005,200.000000,100.000000,0.000000,0.000049,0.000000,0.000000,0.000000,0.000000,0.000000,0.000000,1.538603,0.376418,0.184584,-0.832032,0.166288,0.901573,0.771540
0.188000,-0.500000,-0.500000,0.800000,0.999924,0.004772,-0.011324,0.001005,-0.500000,-0.499910,0.800000,0.999924,0.004772,-0.011324,0.001005,200.000000,100.000000,0.000000,0.000041,0.000000,0.000000,0.000000,0.000000,0.000000,0.000000,1.538603,0.376418,0.184584,-0.832032,0.166289,0.901573,0.771540
0.189000,-0.500000,-0.500000,0.800000,0.999924,0.004772,-0.011324,0.001005,-0.500000,-0.499910,0.800000,0.999924,0.004772,-0.011324,0.001005,200.000000,100.000000,0.000000,0.000052,0.000000,0.000000,0.000000,0.000000,0.000000,0.000000,1.538603,0.376418,0.184584,-0.832032,0.166289,0.901573,0.771540
0.190000,-0.500000,-0.500000,0.800000,0.999924,0.004772,-0.011324,0.001005,-0.500000,-0.499840,0.800000,0.999924,0.004772,-0.011324,0.001005,200.000000,100.000000,0.000000,0.000043,0.000000,0.000000,0.000000,0.000000,0.000000,0.000000,1.538603,0.376418,0.184584,-0.832032,0.166289,0.901572,0.771540
0.190000,-0.500000,-0.500000,0.800000,0.999924,0.004772,-0.011324,0.001005,-0.500000,-0.499840,0.800000,0.999924,0.004772,-0.011324,0.001005,200.000000,100.000000,0.000000,0.000054,0.000000,0.000000,0.000000,0.000000,0.000000,0.000000,1.538603,0.376418,0.184584,-0.832032,0.166289,0.901572,0.771540
0.192000,-0.500000,-0.500000,0.800000,0.999924,0.004772,-0.011324,0.001005,-0.500000,-0.499840,0.800000,0.999924,0.004772,-0.011324,0.001005,200.000000,100.000000,0.000000,0.000048,0.000000,0.000000,0.000000,0.000000,0.000000,0.000000,1.538603,0.376418,0.184584,-0.832033,0.166289,0.901572,0.771540
0.193000,-0.500000,-0.500000,0.800000,0.999924,0.004772,-0.011324,0.001005,-0.500000,-0.499840,0.800000,0.999924,0.004772,-0.011324,0.001005,200.000000,100.000000,0.000000,0.000061,0.000000,0.000000,0.000000,0.000000,0.000000,0.000000,1.538603,0.376418,0.184584,-0.832033,0.166289,0.901572,0.771540
0.194000,-0.500000,-0.500000,0.800000,0.999924,0.004772,-0.011324,0.001005,-0.500000,-0.499840,0.800000,0.999924,0.004772,-0.011324,0.001005,200.000000,100.000000,0.000000,0.000052,0.000000,0.000000,0.000000,0.000000,0.000000,0.000000,1.538603,0.376418,0.184584,-0.832033,0.166289,0.901572,0.771540
0.195000,-0.500000,-0.500000,0.800000,0.999924,0.004772,-0.011324,0.001005,-0.500000,-0.499840,0.800000,0.999924,0.004772,-0.011324,0.001005,200.000000,100.000000,0.000000,0.000067,0.000000,0.000000,0.000000,0.000000,0.000000,0.000000,1.538603,0.376418,0.184584,-0.832033,0.166289,0.901572,0.771540
0.196000,-0.500000,-0.499999,0.800000,0.999924,0.004772,-0.011324,0.001005,-0.500000,-0.499840,0.800000,0.999924,0.004772,-0.011324,0.001005,200.000000,100.000000,0.000000,0.000057,0.000000,0.000000,0.000000,0.000000,0.000000,0.000000,1.538603,0.376417,0.184584,-0.832033,0.166289,0.901572,0.771540
0.197000,-0.500000,-0.499999,0.800000,0.999924,0.004772,-0.011324,0.001005,-0.500000,-0.499840,0.800000,0.999924,0.004772,-0.011324,0.001005,200.000000,100.000000,0.000000,0.000072,0.000000,0.000000,0.000000,0.000000,0.000000,0.000000,1.538603,0.376417,0.184584,-0.832033,0.166289,0.901572,0.771540
0.198000,-0.500000,-0.499999,0.800000,0.999924,0.004772,-0.011324,0.001005,-0.500000,-0.499840,0.800000,0.999924,0.004772,-0.011324,0.001005,200.000000,100.000000,0.000000,0.000063,0.000000,0.000000,0.000000,0.000000,0.000000,0.000000,1.538603,0.376417,0.184584,-0.832033,0.166289,0.901572,0.771539
0.199000,-0.500000,-0.499999,0.800000,0.999924,0.004772,-0.011324,0.001004,-0.500000,-0.499840,0.800000,0.999924,0.004772,-0.011324,0.001005,200.000000,100.000000,0.000000,0.000078,0.000000,0.000000,0.000000,0.000000,0.000000,0.000000,1.538603,0.376417,0.184584,-0.832034,0.166289,0.901572,0.771539
0.200000,-0.500000,-0.499999,0.800000,0.999924,0.004772,-0.011324,0.001004,-0.500000,-0.499750,0.800000,0.999924,0.004772,-0.011324,0.001005,200.000000,100.000000,0.000000,0.000068,0.000000,0.000000,0.000000,0.000000,0.000000,0.000000,1.538603,0.376417,0.184584,-0.832034,0.166290,0.901572,0.771539
0.201000,-0.500000,-0.499999,0.800000,0.999924,0.004772,-0.011324,0.001004,-0.500000,-0.499750,0.800000,0.999924,0.004772,-0.011324,0.001005,200.000000,100.000000,0.000000,0.000085,0.000000,0.000000,0.000000,0.000000,0.000000,0.000000,1.538603,0.376417,0.184583,-0.832034,0.166290,0.901572,0.771539
0.202000,-0.500000,-0.499999,0.800000,0.999924,0.004772,-0.011324,0.001004,-0.500000,-0.499750,0.800000,0.999924,0.004772,-0.011324,0.001005,200.000000,100.000000,0.000000,0.000078,0.000000,0.000000,0.000000,0.000000,0.000000,0.000000,1.538603,0.376417,0.184583,-0.832034,0.166290,0.901572,0.771539
0.203000,-0.500000,-0.499999,0.800000,0.999924,0.004772,-0.011324,0.001004,-0.500000,-0.499750,0.800000,0.999924,0.004772,-0.011324,0.001005,200.000000,100.000000,0.000000,0.000096,0.000000,0.000000,0.000000,0.000000,0.000000,0.000000,1.538603,0.376417,0.184583,-0.832034,0.166290,0.901571,0.771539
0.204000,-0.500000,-0.499999,0.800000,0.999924,0.004772,-0.011324,0.001004,-0.500000,-0.499750,0.800000,0.999924,0.004772,-0.011324,0.001005,200.000000,100.000000,0.000000,0.000087,0.000000,0.000000,0.000000,0.000000,0.000000,0.000000,1.538602,0.376417,0.184583,-0.832035,0.166290,0.901571,0.771539
0.205000,-0.500000,-0.499999,0.800000,0.999924,0.004772,-0.011324,0.001004,-0.500000,-0.499750,0.800000,0.999924,0.004772,-0.011324,0.001005,200.000000,100.000000,0.000000,0.000105,0.000000,0.000000,0.000000,0.000000,0.000000,0.000000,1.538602,0.376417,0.184583,-0.832035,0.166290,0.901571,0.771539
0.206000,-0.500000,-0.499999,0.800000,0.999924,0.004772,-0.011324,0.001004,-0.500000,-0.499750,0.800000,0.999924,0.004772,-0.011324,0.001005,200.000000,100.000000,0.000000,0.000096,0.000000,0.000000,0.000000,0.000000,0.000000,0.000000,1.538602,0.376417,0.184583,-0.832035,0.166291,0.901571,0.771538
0.207000,-0.500000,-0.499999,0.800000,0.999924,0.004772,-0.011324,0.001004,-0.500000,-0.499750,0.800000,0.999924,0.004772,-0.011324,0.001005,200.000000,100.000000,0.000000,0.000115,0.000000,0.000000,0.000000,0.000000,0.000000,0.000000,1.538602,0.376417,0.184583,-0.832036,0.166291,0.901571,0.771538
0.208000,-0.500000,-0.499999,0.800000,0.999924,0.004772,-0.011324,0.001004,-0.500000,-0.499750,0.800000,0.999924,0.004772,-0.011324,0.001005,200.000000,100.000000,0.000000,0.000106,0.000000,0.000000,0.000000,0.000000,0.000000,0.000000,1.538602,0.376417,0.184583,-0.832036,0.166291,0.901571,0.771538
0.208000,-0.500000,-0.499998,0.800000,0.999924,0.004772,-0.011324,0.001004,-0.500000,-0.499750,0.800000,0.999924,0.004772,-0.011324,0.001005,200.000000,100.000000,0.000000,0.000125,0.000000,0.000000,0.000000,0.000000,0.000000,0.000000,1.538602,0.376417,0.184583,-0.832036,0.166291,0.901571,0.771538
0.210000,-0.500000,-0.499998,0.800000,0.999924,0.004772,-0.011324,0.001004,-0.500000,-0.499750,0.800000,0.999924,0.004772,-0.011324,0.001005,200.000000,100.000000,0.000000,0.000115,0.000000,0.000000,0.000000,0.000000,0.000000,0.000000,1.538602,0.376416,0.184583,-0.832037,0.166291,0.901570,0.771538
0.211000,-0.500000,-0.499998,0.800000,0.999924,0.004772,-0.011324,0.001004,-0.500000,-0.499640,0.800000,0.999924,0.004772,-0.011324,0.001005,200.000000,100.000000,0.000000,0.000135,0.000000,0.000000,0.000000,0.000000,0.000000,0.000000,1.538602,0.376416,0.184582,-0.832037,0.166292,0.901570,0.771537
0.212000,-0.500000,-0.499998,0.800000,0.999924,0.004772,-0.011324,0.001004,-0.500000,-0.499640,0.800000,0.999924,0.004772,-0.011324,0.001005,200.000000,100.000000,0.000000,0.000128,0.000000,0.000000,0.000000,0.000000,0.000000,0.000000,1.538602,0.376416,0.184582,-0.832037,0.166292,0.901570,0.771537
0.213000,-0.500000,-0.499998,0.799999,0.999924,0.004772,-0.011324,0.001004,-0.500000,-0.499640,0.800000,0.999924,0.004772,-0.011324,0.001005,200.000000,100.000000,0.000000,0.000149,0.000000,0.000000,0.000000,0.000000,0.000000,0.000000,1.538602,0.376416,0.184582,-0.832038,0.166292,0.901570,0.771537
0.214000,-0.500000,-0.499998,0.799999,0.999924,0.004772,-0.011324,0.001004,-0.500000,-0.499640,0.800000,0.999924,0.004772,-0.011324,0.001005,200.000000,100.000000,0.000000,0.000142,0.000000,0.000000,0.000000,0.000000,0.000000,0.000000,1.538601,0.376416,0.184582,-0.832038,0.166292,0.901570,0.771537
0.215000,-0.500000,-0.499998,0.799999,0.999924,0.004772,-0.011324,0.001004,-0.500000,-0.499640,0.800000,0.999924,0.004772,-0.011324,0.001005,200.000000,100.000000,0.000000,0.000163,0.000000,0.000000,0.000000,0.000000,0.000000,0.000000,1.538601,0.376416,0.184582,-0.832039,0.166293,0.901569,0.771536
0.216000,-0.500000,-0.499998,0.799999,0.999924,0.004772,-0.011324,0.001004,-0.500000,-0.499640,0.800000,0.999924,0.004772,-0.011324,0.001005,200.000000,100.000000,0.000000,0.000156,0.000000,0.000000,0.000000,0.000000,0.000000,0.000000,1.538601,0.376416,0.184582,-0.832039,0.166293,0.901569,0.771536
0.217000,-0.500000,-0.499997,0.799999,0.999924,0.004772,-0.011324,0.001004,-0.500000,-0.499640,0.800000,0.999924,0.004772,-0.011324,0.001005,200.000000,100.000000,0.000000,0.000178,0.000000,0.000000,0.000000,0.000000,0.000000,0.000000,1.538601,0.376416,0.184582,-0.832040,0.166293,0.901569,0.771536
0.217000,-0.500000,-0.499997,0.799999,0.999924,0.004772,-0.011324,0.001004,-0.500000,-0.499640,0.800000,0.999924,0.004772,-0.011324,0.001005,200.000000,100.000000,0.000000,0.000170,0.000000,0.000000,0.000000,0.000000,0.000000,0.000000,1.538601,0.376416,0.184581,-0.832040,0.166294,0.901569,0.771535
0.219000,-0.500000,-0.499997,0.799999,0.999924,0.004772,-0.011324,0.001004,-0.500000,-0.499640,0.800000,0.999924,0.004772,-0.011324,0.001005,200.000000,100.000000,0.000000,0.000192,0.000000,0.000000,0.000000,0.000000,0.000000,0.000000,1.538601,0.376415,0.184581,-0.832041,0.166294,0.901568,0.771535
0.220000,-0.500001,-0.499997,0.799999,0.999924,0.004772,-0.011324,0.001004,-0.500000,-0.499510,0.800000,0.999924,0.004772,-0.011324,0.001005,200.000000,100.000000,0.000000,0.000184,0.000000,0.000000,0.000000,0.000000,0.000000,0.000000,1.538601,0.376415,0.184581,-0.832041,0.166294,0.901568,0.771535
0.220000,-0.500001,-0.499997,0.799999,0.999924,0.004772,-0.011324,0.001004,-0.500000,-0.499510,0.800000,0.999924,0.004772,-0.011324,0.001005,200.000000,100.000000,0.000000,0.000207,0.000000,0.000000,0.000000,0.000000,0.000000,0.000000,1.538601,0.376415,0.184581,-0.832042,0.166295,0.901568,0.771534
0.222000,-0.500001,-0.499996,0.799999,0.999924,0.004772,-0.011324,0.001004,-0.500000,-0.499510,0.800000,0.999924,0.004772,-0.011324,0.001005,200.000000,100.000000,0.000000,0.000204,0.000000,0.000000,0.000000,0.000000,0.000000,0.000000,1.538600,0.376415,0.184581,-0.832042,0.166295,0.901567,0.771534
0.223000,-0.500001,-0.499996,0.799999,0.999924,0.004772,-0.011324,0.001004,-0.500000,-0.499510,0.800000,0.999924,0.004772,-0.011324,0.001005,200.000000,100.000000,0.000000,0.000228,0.000000,0.000000,0.000000,0.000000,0.000000,0.000000,1.538600,0.376415,0.184580,-0.832043,0.166295,0.901567,0.771533
0.224000,-0.500001,-0.499996,0.799999,0.999924,0.004772,-0.011324,0.001003,-0.500000,-0.499510,0.800000,0.999924,0.004772,-0.011324,0.001005,200.000000,100.000000,0.000000,0.000223,0.000000,0.000000,0.000000,0.000000,0.000000,0.000000,1.538600,0.376415,0.184580,-0.832044,0.166296,0.901567,0.771533
0.225000,-0.500001,-0.499996,0.799999,0.999924,0.004772,-0.011324,0.001003,-0.500000,-0.499510,0.800000,0.999924,0.004772,-0.011324,0.001005,200.000000,100.000000,0.000000,0.000247,0.000000,0.000000,0.000000,0.000000,0.000000,0.000000,1.538600,0.376414,0.184580,-0.832044,0.166296,0.901566,0.771533
0.225000,-0.500001,-0.499996,0.799999,0.999924,0.004772,-0.011324,0.001003,-0.500000,-0.499510,0.800000,0.999924,0.004772,-0.011324,0.001005,200.000000,100.000000,0.000000,0.000242,0.000000,0.000000,0.000000,0.000000,0.000000,0.000000,1.538599,0.376414,0.184580,-0.832045,0.166297,0.901566,0.771532
0.227000,-0.500001,-0.499995,0.799999,0.999924,0.004772,-0.011324,0.001003,-0.500000,-0.499510,0.800000,0.999924,0.004772,-0.011324,0.001005,200.000000,100.000000,0.000000,0.000266,0.000000,0.000000,0.000000,0.000000,0.000000,0.000000,1.538599,0.376414,0.184579,-0.832046,0.166297,0.901566,0.771532
0.228000,-0.500001,-0.499995,0.799999,0.999924,0.004772,-0.011324,0.001003,-0.500000,-0.499510,0.800000,0.999924,0.004772,-0.011324,0.001005,200.000000,100.000000,0.000000,0.000261,0.000000,0.000000,0.000000,0.000000,0.000000,0.000000,1.538599,0.376414,0.184579,-0.832047,0.166298,0.901565,0.771531
0.229000,-0.500001,-0.499995,0.799999,0.999924,0.004772,-0.011324,0.001003,-0.500000,-0.499510,0.800000,0.999924,0.004772,-0.011324,0.001005,200.000000,100.000000,0.000000,0.000285,0.000000,0.000000,0.000000,0.000000,0.000000,0.000000,1.538599,0.376414,0.184579,-0.832048,0.166298,0.901565,0.771531
0.230000,-0.500001,-0.499995,0.799999,0.999924,0.004772,-0.011324,0.001003,-0.500000,-0.499360,0.800000,0.999924,0.004772,-0.011324,0.001005,200.000000,100.000000,0.000000,0.000280,0.000000,0.000000,0.000000,0.000000,0.000000,0.000000,1.538599,0.376413,0.184579,-0.832049,0.166299,0.901564,0.771530
0.231000,-0.500001,-0.499994,0.799998,0.999924,0.004772,-0.011324,0.001003,-0.500000,-0.499360,0.800000,0.999924,0.004772,-0.011324,0.001005,200.000000,100.000000,0.000000,0.000306,0.000000,0.000000,0.000000,0.000000,0.000000,0.000000,1.538598,0.376413,0.184578,-0.832049,0.166299,0.901564,0.771530
0.232000,-0.500001,-0.499994,0.799998,0.999924,0.004772,-0.011324,0.001003,-0.500000,-0.499360,0.800000,0.999924,0.004772,-0.011324,0.001005,200.000000,100.000000,0.000000,0.000305,0.000000,0.000000,0.000000,0.000000,0.000000,0.000000,1.538598,0.376413,0.184578,-0.832050,0.166300,0.901563,0.771529
0.233000,-0.500001,-0.499994,0.799998,0.999924,0.004772,-0.011324,0.001003,-0.500000,-0.499360,0.800000,0.999924,0.004772,-0.011324,0.001005,200.000000,100.000000,0.000000,0.000332,0.000000,0.000000,0.000000,0.000000,0.000000,0.000000,1.538598,0.376413,0.184578,-0.832051,0.166301,0.901563,0.771528
0.234000,-0.500001,-0.499993,0.799998,0.999924,0.004772,-0.011324,0.001003,-0.500000,-0.499360,0.800000,0.999924,0.004772,-0.011324,0.001005,200.000000,100.000000,0.000000,0.000330,0.000000,0.000000,0.000000,0.000000,0.000000,0.000000,1.538597,0.376412,0.184577,-0.832052,0.166301,0.901562,0.771528
0.235000,-0.500001,-0.499993,0.799998,0.999924,0.004772,-0.011324,0.001003,-0.500000,-0.499360,0.800000,0.999924,0.004772,-0.011324,0.001005,200.000000,100.000000,0.000000,0.000357,0.000000,0.000000,0.000000,0.000000,0.000000,0.000000,1.538597,0.376412,0.184577,-0.832053,0.166302,0.901562,0.771527
0.236000,-0.500001,-0.499993,0.799998,0.999924,0.004772,-0.011324,0.001002,-0.500000,-0.499360,0.800000,0.999924,0.004772,-0.011324,0.001005,200.000000,100.000000,0.000000,0.000354,0.000000,0.000000,0.000000,0.000000,0.000000,0.000000,1.538597,0.376412,0.184577,-0.832054,0.166303,0.901561,0.771526
0.237000,-0.500001,-0.499992,0.799998,0.999924,0.004772,-0.011324,0.001002,-0.500000,-0.499360,0.800000,0.999924,0.004772,-0.011324,0.001005,200.000000,100.000000,0.000000,0.000381,0.000000,0.000000,0.000000,0.000000,0.000000,0.000000,1.538597,0.376412,0.184576,-0.832056,0.166303,0.901561,0.771526
0.238000,-0.500001,-0.499992,0.799998,0.999924,0.004772,-0.011324,0.001002,-0.500000,-0.499360,0.800000,0.999924,0.004772,-0.011324,0.001005,200.000000,100.000000,0.000000,0.000379,0.000000,0.000000,0.000000,0.000000,0.000000,0.000000,1.538596,0.376411,0.184576,-0.832057,0.166304,0.901560,0.771525
0.239000,-0.500001,-0.499992,0.799998,0.999924,0.004772,-0.011324,0.001002,-0.500000,-0.499360,0.800000,0.999924,0.004772,-0.011324,0.001005,200.000000,100.000000,0.000000,0.000405,0.000000,0.000000,0.000000,0.000000,0.000000,0.000000,1.538596,0.376411,0.184576,-0.832058,0.166305,0.901560,0.771524
0.240000,-0.500001,-0.499991,0.799998,0.999924,0.004772,-0.011324,0.001002,-0.500000,-0.499190,0.800000,0.999924,0.004772,-0.011324,0.001005,200.000000,100.000000,0.000000,0.000402,0.000000,0.000000,0.000000,0.000000,0.000000,0.000000,1.538595,0.376410,0.184575,-0.832059,0.166306,0.901559,0.771523
0.241000,-0.500001,-0.499991,0.799998,0.999924,0.004772,-0.011324,0.001002,-0.500000,-0.499190,0.800000,0.999924,0.004772,-0.011324,0.001005,200.000000,100.000000,0.000000,0.000432,0.000000,0.000000,0.000000,0.000000,0.000000,0.000000,1.538595,0.376410,0.184575,-0.832060,0.166306,0.901558,0.771523
0.242000,-0.500002,-0.499990,0.799997,0.999924,0.004772,-0.011324,0.001002,-0.500000,-0.499190,0.800000,0.999924,0.004772,-0.011324,0.001005,200.000000,100.000000,0.000000,0.000433,0.000000,0.000000,0.000000,0.000000,0.000000,0.000000,1.538595,0.376410,0.184575,-0.832062,0.166307,0.901558,0.771522
0.243000,-0.500002,-0.499990,0.799997,0.999924,0.004772,-0.011324,0.001002,-0.500000,-0.499190,0.800000,0.999924,0.004772,-0.011324,0.001005,200.000000,100.000000,0.000000,0.000463,0.000000,0.000000,0.000000,0.000000,0.000000,0.000000,1.538594,0.376409,0.184574,-0.832063,0.166308,0.901557,0.771521
0.244000,-0.500002,-0.499989,0.799997,0.999924,0.004772,-0.011324,0.001002,-0.500000,-0.499190,0.800000,0.999924,0.004772,-0.011324,0.001005,200.000000,100.000000,0.000000,0.000464,0.000000,0.000000,0.000000,0.000000,0.000000,0.000000,1.538594,0.376409,0.184574,-0.832065,0.166309,0.901556,0.771520
0.245000,-0.500002,-0.499989,0.799997,0.999924,0.004772,-0.011324,0.001001,-0.500000,-0.499190,0.800000,0.999924,0.004772,-0.011324,0.001005,200.000000,100.000000,0.000000,0.000494,0.000000,0.000000,0.000000,0.000000,0.000000,0.000000,1.538593,0.376409,0.184573,-0.832066,0.166310,0.901555,0.771519
0.246000,-0.500002,-0.499989,0.799997,0.999924,0.004772,-0.011324,0.001001,-0.500000,-0.499190,0.800000,0.999924,0.004772,-0.011324,0.001005,200.000000,100.000000,0.000000,0.000495,0.000000,0.000000,0.000000,0.000000,0.000000,0.000000,1.538593,0.376408,0.184573,-0.832068,0.166311,0.901555,0.771518
0.247000,-0.500002,-0.499988,0.799997,0.999924,0.004772,-0.011324,0.001001,-0.500000,-0.499190,0.800000,0.999924,0.004772,-0.011324,0.001005,200.000000,100.000000,0.000000,0.000524,0.000000,0.000000,0.000000,0.000000,0.000000,0.000000,1.538593,0.376408,0.184572,-0.832069,0.166312,0.901554,0.771517
0.248000,-0.500002,-0.499988,0.799997,0.999924,0.004772,-0.011324,0.001001,-0.500000,-0.499190,0.800000,0.999924,0.004772,-0.011324,0.001005,200.000000,100.000000,0.000000,0.000524,0.000000,0.000000,0.000000,0.000000,0.000000,0.000000,1.538592,0.376407,0.184572,-0.832071,0.166313,0.901553,0.771516
0.249000,-0.500002,-0.499987,0.799997,0.999924,0.004772,-0.011324,0.001001,-0.500000,-0.499190,0.800000,0.999924,0.004772,-0.011324,0.001005,200.000000,100.000000,0.000000,0.000553,0.000000,0.000000,0.000000,0.000000,0.000000,0.000000,1.538592,0.376407,0.184571,-0.832072,0.166314,0.901552,0.771515
0.250000,-0.500002,-0.499986,0.799996,0.999924,0.004772,-0.011324,0.001001,-0.500000,-0.499000,0.800000,0.999924,0.004772,-0.011324,0.001005,200.000000,100.000000,0.000000,0.000553,0.000000,0.000000,0.000000,0.000000,0.000000,0.000000,1.538591,0.376406,0.184571,-0.832074,0.166315,0.901551,0.771514
0.251000,-0.500002,-0.499986,0.799996,0.999924,0.004772,-0.011324,0.001001,-0.500000,-0.499000,0.800000,0.999924,0.004772,-0.011324,0.001005,200.000000,100.000000,0.000000,0.000586,0.000000,0.000000,0.000000,0.000000,0.000000,0.000000,1.538591,0.376406,0.184570,-0.832076,0.166316,0.901550,0.771513
0.252000,-0.500002,-0.499985,0.799996,0.999924,0.004772,-0.011324,0.001000,-0.500000,-0.499000,0.800000,0.999924,0.004772,-0.011324,0.001005,200.000000,100.000000,0.000000,0.000591,0.000000,0.000000,0.000000,0.000000,0.000000,0.000000,1.538590,0.376406,0.184570,-0.832078,0.166318,0.901549,0.771512
0.253000,-0.500002,-0.499985,0.799996,0.999924,0.004772,-0.011324,0.001000,-0.500000,-0.499000,0.800000,0.999924,0.004772,-0.011324,0.001005,200.000000,100.000000,0.000000,0.000624,0.000000,0.000000,0.000000,0.000000,0.000000,0.000000,1.538589,0.376405,0.184569,-0.832079,0.166319,0.901548,0.771511
0.254000,-0.500003,-0.499984,0.799996,0.999924,0.004772,-0.011324,0.001000,-0.500000,-0.499000,0.800000,0.999924,0.004772,-0.011324,0.001005,200.000000,100.000000,0.000000,0.000628,0.000000,0.000000,0.000000,0.000000,0.000000,0.000000,1.538589,0.376404,0.184569,-0.832082,0.166320,0.901547,0.771509
0.255000,-0.500003,-0.499984,0.799996,0.999924,0.004772,-0.011324,0.001000,-0.500000,-0.499000,0.800000,0.999924,0.004772,-0.011324,0.001005,200.000000,100.000000,0.000000,0.000661,0.000000,0.000000,0.000000,0.000000,0.000000,0.000000,1.538588,0.376404,0.184568,-0.832083,0.166321,0.901546,0.771508
0.256000,-0.500003,-0.499983,0.799996,0.999924,0.004772,-0.011324,0.001000,-0.500000,-0.499000,0.800000,0.999924,0.004772,-0.011324,0.001005,200.000000,100.000000,0.000000,0.000664,0.000000,0.000000,0.000000,0.000000,0.000000,0.000000,1.538588,0.376403,0.184568,-0.832086,0.166323,0.901545,0.771507
0.257000,-0.500003,-0.499982,0.799995,0.999924,0.004772,-0.011324,0.001000,-0.500000,-0.499000,0.800000,0.999924,0.004772,-0.011324,0.001005,200.000000,100.000000,0.000000,0.000697,0.000000,0.000000,0.000000,0.000000,0.000000,0.000000,1.538587,0.376403,0.184567,-0.832088,0.166324,0.901544,0.771505
0.257000,-0.500003,-0.499982,0.799995,0.999924,0.004772,-0.011324,0.000999,-0.500000,-0.499000,0.800000,0.999924,0.004772,-0.011324,0.001005,200.000000,100.000000,0.000000,0.000700,0.000000,0.000000,0.000000,0.000000,0.000000,0.000000,1.538586,0.376402,0.184566,-0.832090,0.166325,0.901543,0.771504
0.259000,-0.500003,-0.499981,0.799995,0.999924,0.004772,-0.011324,0.000999,-0.500000,-0.499000,0.800000,0.999924,0.004772,-0.011324,0.001005,200.000000,100.000000,0.000000,0.000732,0.000000,0.000000,0.000000,0.000000,0.000000,0.000000,1.538586,0.376402,0.184566,-0.832092,0.166327,0.901542,0.771503
0.260000,-0.500003,-0.499980,0.799995,0.999924,0.004771,-0.011324,0.000999,-0.500000,-0.498790,0.800000,0.999924,0.004772,-0.011324,0.001005,200.000000,100.000000,0.000000,0.000735,0.000000,0.000000,0.000000,0.000000,0.000000,0.000000,1.538585,0.376401,0.184565,-0.832094,0.166328,0.901541,0.771501
0.261000,-0.500003,-0.499979,0.799995,0.999924,0.004771,-0.011324,0.000999,-0.500000,-0.498790,0.800000,0.999924,0.004772,-0.011324,0.001005,200.000000,100.000000,0.000000,0.000769,0.000000,0.000000,0.000000,0.000000,0.000000,0.000000,1.538584,0.376401,0.184564,-0.832097,0.166329,0.901540,0.771500
0.262000,-0.500003,-0.499979,0.799994,0.999924,0.004771,-0.011324,0.000999,-0.500000,-0.498790,0.800000,0.999924,0.004772,-0.011324,0.001005,200.000000,100.000000,0.000000,0.000783,0.000000,0.000000,0.000000,0.000000,0.000000,0.000000,1.538583,0.376400,0.184564,-0.832099,0.166331,0.901538,0.771498
0.263000,-0.500004,-0.499978,0.799994,0.999924,0.004771,-0.011324,0.000999,-0.500000,-0.498790,0.800000,0.999924,0.004772,-0.011324,0.001005,200.000000,100.000000,0.000000,0.000807,0.000000,0.000000,0.000000,0.000000,0.000000,0.000000,1.538583,0.376399,0.184563,-0.832101,0.166333,0.901537,0.771497
0.264000,-0.500004,-0.499977,0.799994,0.999924,0.004771,-0.011324,0.000998,-0.500000,-0.498790,0.800000,0.999924,0.004772,-0.011324,0.001005,200.000000,100.000000,0.000000,0.000829,0.000000,0.000000,0.000000,0.000000,0.000000,0.000000,1.538582,0.376398,0.184562,-0.832104,0.166334,0.901536,0.771495
0.265000,-0.500004,-0.499976,0.799994,0.999924,0.004771,-0.011324,0.000998,-0.500000,-0.498790,0.800000,0.999924,0.004772,-0.011324,0.001005,200.000000,100.000000,0.000000,0.000850,0.000000,0.000000,0.000000,0.000000,0.000000,0.000000,1.538581,0.376398,0.184562,-0.832107,0.166336,0.901534,0.771493
0.266000,-0.500004,-0.499975,0.799994,0.999924,0.004771,-0.011324,0.000998,-0.500000,-0.498790,0.800000,0.999924,0.004772,-0.011324,0.001005,200.000000,100.000000,0.000000,0.000873,0.000000,0.000000,0.000000,0.000000,0.000000,0.000000,1.538580,0.376397,0.184561,-0.832109,0.166338,0.901533,0.771492
0.267000,-0.500004,-0.499975,0.799993,0.999924,0.004771,-0.011324,0.000998,-0.500000,-0.498790,0.800000,0.999924,0.004772,-0.011324,0.001005,200.000000,100.000000,0.000000,0.000892,0.000000,0.000000,0.000000,0.000000,0.000000,0.000000,1.538579,0.376396,0.184560,-0.832112,0.166339,0.901531,0.771490
0.268000,-0.500004,-0.499974,0.799993,0.999924,0.004771,-0.011324,0.000997,-0.500000,-0.498790,0.800000,0.999924,0.004772,-0.011324,0.001005,200.000000,100.000000,0.000000,0.000923,0.000000,0.000000,0.000000,0.000000,0.000000,0.000000,1.538579,0.376396,0.184559,-0.832115,0.166341,0.901530,0.771488
0.269000,-0.500004,-0.499973,0.799993,0.999924,0.004771,-0.011324,0.000997,-0.500000,-0.498790,0.800000,0.999924,0.004772,-0.011324,0.001005,200.000000,100.000000,0.000000,0.000929,0.000000,0.000000,0.000000,0.000000,0.000000,0.000000,1.538578,0.376395,0.184559,-0.832118,0.166343,0.901529,0.771486
0.269000,-0.500005,-0.499972,0.799993,0.999924,0.004771,-0.011324,0.000997,-0.500000,-0.498560,0.800000,0.999924,0.004772,-0.011324,0.001005,200.000000,100.000000,0.000000,0.000966,0.000000,0.000000,0.000000,0.000000,0.000000,0.000000,1.538577,0.376394,0.184558,-0.832120,0.166345,0.901527,0.771485
0.271000,-0.500005,-0.499971,0.799992,0.999924,0.004771,-0.011324,0.000997,-0.500000,-0.498560,0.800000,0.999924,0.004772,-0.011324,0.001005,200.000000,100.000000,0.000000,0.000976,0.000000,0.000000,0.000000,0.000000,0.000000,0.000000,1.538576,0.376393,0.184557,-0.832124,0.166347,0.901525,0.771483
0.272000,-0.500005,-0.499970,0.799992,0.999924,0.004771,-0.011324,0.000997,-0.500000,-0.498560,0.800000,0.999924,0.004772,-0.011324,0.001005,200.000000,100.000000,0.000000,0.001016,0.000000,0.000000,0.000000,0.000000,0.000000,0.000000,1.538575,0.376392,0.184556,-0.832127,0.166349,0.901524,0.771481
0.273000,-0.500005,-0.499969,0.799992,0.999924,0.004771,-0.011324,0.000996,-0.500000,-0.498560,0.800000,0.999924,0.004772,-0.011324,0.001005,200.000000,100.000000,0.000000,0.001027,0.000000,0.000000,0.000000,0.000000,0.000000,0.000000,1.538574,0.376392,0.184555,-0.832130,0.166351,0.901522,0.771479
0.274000,-0.500005,-0.499968,0.799992,0.999924,0.004771,-0.011324,0.000996,-0.500000,-0.498560,0.800000,0.999924,0.004772,-0.011324,0.001005,200.000000,100.000000,0.000000,0.001066,0.000000,0.000000,0.000000,0.000000,0.000000,0.000000,1.538573,0.376391,0.184554,-0.832133,0.166353,0.901520,0.771477
0.275000,-0.500005,-0.499967,0.799991,0.999924,0.004771,-0.011324,0.000996,-0.500000,-0.498560,0.800000,0.999924,0.004772,-0.011324,0.001005,200.000000,100.000000,0.000000,0.001077,0.000000,0.000000,0.000000,0.000000,0.000000,0.000000,1.538572,0.376390,0.184554,-0.832136,0.166355,0.901519,0.771475
0.276000,-0.500005,-0.499966,0.799991,0.999924,0.004771,-0.011324,0.000996,-0.500000,-0.498560,0.800000,0.999924,0.004772,-0.011324,0.001005,200.000000,100.000000,0.000000,0.001116,0.000000,0.000000,0.000000,0.000000,0.000000,0.000000,1.538571,0.376389,0.184553,-0.832140,0.166357,0.901517,0.771473
0.277000,-0.500006,-0.499965,0.799991,0.999924,0.004771,-0.011325,0.000995,-0.500000,-0.498560,0.800000,0.999924,0.004772,-0.011324,0.001005,200.000000,100.000000,0.000000,0.001126,0.000000,0.000000,0.000000,0.000000,0.000000,0.000000,1.538569,0.376388,0.184552,-0.832143,0.166359,0.901515,0.771470
0.278000,-0.500006,-0.499964,0.799990,0.999924,0.004771,-0.011325,0.000995,-0.500000,-0.498560,0.800000,0.999924,0.004772,-0.011324,0.001005,200.000000,100.000000,0.000000,0.001165,0.000000,0.000000,0.000000,0.000000,0.000000,0.000000,1.538568,0.376387,0.184551,-0.832147,0.166361,0.901513,0.771468
0.279000,-0.500006,-0.499963,0.799990,0.999924,0.004771,-0.011325,0.000995,-0.500000,-0.498560,0.800000,0.999924,0.004772,-0.011324,0.001005,200.000000,100.000000,0.000000,0.001174,0.000000,0.000000,0.000000,0.000000,0.000000,0.000000,1.538567,0.376386,0.184550,-0.832150,0.166364,0.901511,0.771466
0.280000,-0.500006,-0.499961,0.799990,0.999924,0.004771,-0.011325,0.000994,-0.500000,-0.498310,0.800000,0.999924,0.004772,-0.011324,0.001005,200.000000,100.000000,0.000000,0.001212,0.000000,0.000000,0.000000,0.000000,0.000000,0.000000,1.538566,0.376385,0.184549,-0.832154,0.166366,0.901509,0.771463
0.281000,-0.500006,-0.499960,0.799990,0.999924,0.004771,-0.011325,0.000994,-0.500000,-0.498310,0.800000,0.999924,0.004772,-0.011324,0.001005,200.000000,100.000000,0.000000,0.001227,0.000000,0.000000,0.000000,0.000000,0.000000,0.000000,1.538565,0.376384,0.184548,-0.832158,0.166369,0.901507,0.771461
0.282000,-0.500007,-0.499959,0.799989,0.999924,0.004771,-0.011325,0.000994,-0.500000,-0.498310,0.800000,0.999924,0.004772,-0.011324,0.001005,200.000000,100.000000,0.000000,0.001271,0.000000,0.000000,0.000000,0.000000,0.000000,0.000000,1.538564,0.376383,0.184547,-0.832162,0.166371,0.901505,0.771459
0.283000,-0.500007,-0.499958,0.799989,0.999924,0.004771,-0.011325,0.000994,-0.500000,-0.498310,0.800000,0.999924,0.004772,-0.011324,0.001005,200.000000,100.000000,0.000000,0.001286,0.000000,0.000000,0.000000,0.000000,0.000000,0.000000,1.538562,0.376382,0.184546,-0.832166,0.166374,0.901503,0.771456
0.284000,-0.500007,-0.499957,0.799989,0.999924,0.004771,-0.011325,0.000993,-0.500000,-0.498310,0.800000,0.999924,0.004772,-0.011324,0.001005,200.000000,100.000000,0.000000,0.001329,0.000000,0.000000,0.000000,0.000000,0.000000,0.000000,1.538561,0.376381,0.184545,-0.832170,0.166376,0.901501,0.771453
0.285000,-0.500007,-0.499955,0.799988,0.999924,0.004771,-0.011325,0.000993,-0.500000,-0.498310,0.800000,0.999924,0.004772,-0.011324,0.001005,200.000000,100.000000,0.000000,0.001343,0.000000,0.000000,0.000000,0.000000,0.000000,0.000000,1.538560,0.376380,0.184544,-0.832174,0.166379,0.901499,0.771451
0.286000,-0.500007,-0.499954,0.799988,0.999924,0.004771,-0.011325,0.000993,-0.500000,-0.498310,0.800000,0.999924,0.004772,-0.011324,0.001005,200.000000,100.000000,0.000000,0.001385,0.000000,0.000000,0.000000,0.000000,0.000000,0.000000,1.538558,0.376379,0.184543,-0.832178,0.166381,0.901496,0.771448
0.287000,-0.500008,-0.499953,0.799988,0.999924,0.004771,-0.011325,0.000992,-0.500000,-0.498310,0.800000,0.999924,0.004772,-0.011324,0.001005,200.000000,100.000000,0.000000,0.001399,0.000000,0.000000,0.000000,0.000000,0.000000,0.000000,1.538557,0.376377,0.184542,-0.832183,0.166384,0.901494,0.771445
0.288000,-0.500008,-0.499951,0.799987,0.999924,0.004771,-0.011325,0.000992,-0.500000,-0.498310,0.800000,0.999924,0.004772,-0.011324,0.001005,200.000000,100.000000,0.000000,0.001442,0.000000,0.000000,0.000000,0.000000,0.000000,0.000000,1.538555,0.376376,0.184540,-0.832187,0.166387,0.901492,0.771443
0.289000,-0.500008,-0.499950,0.799987,0.999924,0.004771,-0.011325,0.000992,-0.500000,-0.498310,0.800000,0.999924,0.004772,-0.011324,0.001005,200.000000,100.000000,0.000000,0.001455,0.000000,0.000000,0.000000,0.000000,0.000000,0.000000,1.538554,0.376375,0.184539,-0.832192,0.166390,0.901489,0.771440
0.290000,-0.500008,-0.499948,0.799986,0.999924,0.004771,-0.011325,0.000991,-0.500000,-0.498040,0.800000,0.999924,0.004772,-0.011324,0.001005,200.000000,100.000000,0.000000,0.001496,0.000000,0.000000,0.000000,0.000000,0.000000,0.000000,1.538552,0.376374,0.184538,-0.832196,0.166393,0.901487,0.771437
0.291000,-0.500009,-0.499947,0.799986,0.999924,0.004771,-0.011325,0.000991,-0.500000,-0.498040,0.800000,0.999924,0.004772,-0.011324,0.001005,200.000000,100.000000,0.000000,0.001515,0.000000,0.000000,0.000000,0.000000,0.000000,0.000000,1.538551,0.376372,0.184537,-0.832201,0.166396,0.901484,0.771434
0.292000,-0.500009,-0.499945,0.799986,0.999924,0.004771,-0.011325,0.000991,-0.500000,-0.498040,0.800000,0.999924,0.004772,-0.011324,0.001005,200.000000,100.000000,0.000000,0.001562,0.000000,0.000000,0.000000,0.000000,0.000000,0.000000,1.538549,0.376371,0.184536,-0.832206,0.166399,0.901482,0.771431
0.293000,-0.500009,-0.499944,0.799985,0.999924,0.004771,-0.011325,0.000990,-0.500000,-0.498040,0.800000,0.999924,0.004772,-0.011324,0.001005,200.000000,100.000000,0.000000,0.001582,0.000000,0.000000,0.000000,0.000000,0.000000,0.000000,1.538548,0.376370,0.184535,-0.832211,0.166402,0.901479,0.771428
0.294000,-0.500009,-0.499942,0.799985,0.999924,0.004771,-0.011325,0.000990,-0.500000,-0.498040,0.800000,0.999924,0.004772,-0.011324,0.001005,200.000000,100.000000,0.000000,0.001628,0.000000,0.000000,0.000000,0.000000,0.000000,0.000000,1.538546,0.376368,0.184533,-0.832216,0.166405,0.901477,0.771425
0.295000,-0.500010,-0.499941,0.799985,0.999924,0.004771,-0.011325,0.000990,-0.500000,-0.498040,0.800000,0.999924,0.004772,-0.011324,0.001005,200.000000,100.000000,0.000000,0.001646,0.000000,0.000000,0.000000,0.000000,0.000000,0.000000,1.538544,0.376367,0.184532,-0.832221,0.166408,0.901474,0.771421
0.296000,-0.500010,-0.499939,0.799984,0.999924,0.004771,-0.011325,0.000989,-0.500000,-0.498040,0.800000,0.999924,0.004772,-0.011324,0.001005,200.000000,100.000000,0.000000,0.001693,0.000000,0.000000,0.000000,0.000000,0.000000,0.000000,1.538543,0.376366,0.184531,-0.832226,0.166412,0.901471,0.771418
0.297000,-0.500010,-0.499938,0.799984,0.999924,0.004771,-0.011325,0.000989,-0.500000,-0.498040,0.800000,0.999924,0.004772,-0.011324,0.001005,200.000000,100.000000,0.000000,0.001710,0.000000,0.000000,0.000000,0.000000,0.000000,0.000000,1.538541,0.376364,0.184530,-0.832231,0.166415,0.901468,0.771415
0.298000,-0.500010,-0.499936,0.799983,0.999924,0.004771,-0.011325,0.000989,-0.500000,-0.498040,0.800000,0.999924,0.004772,-0.011324,0.001005,200.000000,100.000000,0.000000,0.001755,0.000000,0.000000,0.000000,0.000000,0.000000,0.000000,1.538539,0.376363,0.184528,-0.832237,0.166418,0.901465,0.771411
0.298000,-0.500011,-0.499934,0.799983,0.999924,0.004771,-0.011325,0.000988,-0.500000,-0.498040,0.800000,0.999924,0.004772,-0.011324,0.001005,200.000000,100.000000,0.000000,0.001773,0.000000,0.000000,0.000000,0.000000,0.000000,0.000000,1.538537,0.376361,0.184527,-0.832242,0.166422,0.901462,0.771408
0.300000,-0.500011,-0.499932,0.799982,0.999924,0.004771,-0.011325,0.000988,-0.500000,-0.498040,0.800000,0.999924,0.004772,-0.011324,0.001005,200.000000,100.000000,0.000000,0.001817,0.000000,0.000000,0.000000,0.000000,0.000000,0.000000,1.538535,0.376360,0.184526,-0.832248,0.166425,0.901459,0.771404
0.301000,-0.500011,-0.499931,0.799982,0.999924,0.004771,-0.011325,0.000987,-0.500000,-0.497750,0.800000,0.999924,0.004772,-0.011324,0.001005,200.000000,100.000000,0.000000,0.001834,0.000000,0.000000,0.000000,0.000000,0.000000,0.000000,1.538534,0.376358,0.184524,-0.832254,0.166429,0.901456,0.771401
0.302000,-0.500011,-0.499929,0.799981,0.999924,0.004771,-0.011325,0.000987,-0.500000,-0.497750,0.800000,0.999924,0.004772,-0.011324,0.001005,200.000000,100.000000,0.000000,0.001884,0.000000,0.000000,0.000000,0.000000,0.000000,0.000000,1.538532,0.376357,0.184523,-0.832259,0.166433,0.901453,0.771397
0.303000,-0.500012,-0.499927,0.799981,0.999924,0.004771,-0.011325,0.000987,-0.500000,-0.497750,0.800000,0.999924,0.004772,-0.011324,0.001005,200.000000,100.000000,0.000000,0.001908,0.000000,0.000000,0.000000,0.000000,0.000000,0.000000,1.538530,0.376355,0.184522,-0.832265,0.166437,0.901450,0.771393
0.304000,-0.500012,-0.499925,0.799981,0.999924,0.004771,-0.011325,0.000986,-0.500000,-0.497750,0.800000,0.999924,0.004772,-0.011324,0.001005,200.000000,100.000000,0.000000,0.001958,0.000000,0.000000,0.000000,0.000000,0.000000,0.000000,1.538528,0.376353,0.184520,-0.832271,0.166440,0.901447,0.771389
0.305000,-0.500012,-0.499923,0.799980,0.999924,0.004771,-0.011325,0.000986,-0.500000,-0.497750,0.800000,0.999924,0.004772,-0.011324,0.001005,200.000000,100.000000,0.000000,0.001980,0.000000,0.000000,0.000000,0.000000,0.000000,0.000000,1.538525,0.376352,0.184519,-0.832277,0.166444,0.901443,0.771385
0.306000,-0.500013,-0.499921,0.799980,0.999924,0.004771,-0.011325,0.000985,-0.500000,-0.497750,0.800000,0.999924,0.004772,-0.011324,0.001005,200.000000,100.000000,0.000000,0.002030,0.000000,0.000000,0.000000,0.000000,0.000000,0.000000,1.538523,0.376350,0.184517,-0.832284,0.166448,0.901440,0.771381
0.307000,-0.500013,-0.499919,0.799979,0.999924,0.004771,-0.011325,0.000985,-0.500000,-0.497750,0.800000,0.999924,0.004772,-0.011324,0.001005,200.000000,100.000000,0.000000,0.002052,0.000000,0.000000,0.000000,0.000000,0.000000,0.000000,1.538521,0.376348,0.184516,-0.832290,0.166452,0.901437,0.771377
0.308000,-0.500013,-0.499917,0.799979,0.999924,0.004771,-0.011325,0.000985,-0.500000,-0.497750,0.800000,0.999924,0.004772,-0.011324,0.001005,200.000000,100.000000,0.000000,0.002101,0.000000,0.000000,0.000000,0.000000,0.000000,0.000000,1.538519,0.376346,0.184514,-0.832297,0.166456,0.901433,0.771373
0.308000,-0.500014,-0.499915,0.799978,0.999924,0.004771,-0.011325,0.000984,-0.500000,-0.497750,0.800000,0.999924,0.004772,-0.011324,0.001005,200.000000,100.000000,0.000000,0.002122,0.000000,0.000000,0.000000,0.000000,0.000000,0.000000,1.538517,0.376345,0.184513,-0.832303,0.166461,0.901430,0.771369
0.310000,-0.500014,-0.499913,0.799977,0.999924,0.004771,-0.011325,0.000984,-0.500000,-0.497750,0.800000,0.999924,0.004772,-0.011324,0.001005,200.000000,100.000000,0.000000,0.002170,0.000000,0.000000,0.000000,0.000000,0.000000,0.000000,1.538515,0.376343,0.184511,-0.832310,0.166465,0.901426,0.771365
0.311000,-0.500014,-0.499911,0.799977,0.999924,0.004771,-0.011325,0.000983,-0.500000,-0.497440,0.800000,0.999924,0.004772,-0.011324,0.001005,200.000000,100.000000,0.000000,0.002190,0.000000,0.000000,0.000000,0.000000,0.000000,0.000000,1.538512,0.376341,0.184510,-0.832317,0.166469,0.901422,0.771361
0.312000,-0.500015,-0.499909,0.799976,0.999924,0.004771,-0.011325,0.000983,-0.500000,-0.497440,0.800000,0.999924,0.004772,-0.011324,0.001005,200.000000,100.000000,0.000000,0.002244,0.000000,0.000000,0.000000,0.000000,0.000000,0.000000,1.538510,0.376339,0.184508,-0.832324,0.166473,0.901419,0.771356
0.312000,-0.500015,-0.499907,0.799976,0.999924,0.004771,-0.011325,0.000982,-0.500000,-0.497440,0.800000,0.999924,0.004772,-0.011324,0.001005,200.000000,100.000000,0.000000,0.002272,0.000000,0.000000,0.000000,0.000000,0.000000,0.000000,1.538507,0.376337,0.184506,-0.832331,0.166478,0.901415,0.771352
0.314000,-0.500015,-0.499905,0.799975,0.999924,0.004771,-0.011325,0.000982,-0.500000,-0.497440,0.800000,0.999924,0.004772,-0.011324,0.001005,200.000000,100.000000,0.000000,0.002326,0.000000,0.000000,0.000000,0.000000,0.000000,0.000000,1.538505,0.376335,0.184505,-0.832338,0.166482,0.901411,0.771347
0.315000,-0.500016,-0.499902,0.799975,0.999924,0.004771,-0.011325,0.000981,-0.500000,-0.497440,0.800000,0.999924,0.004772,-0.011324,0.001005,200.000000,100.000000,0.000000,0.002353,0.000000,0.000000,0.000000,0.000000,0.000000,0.000000,1.538502,0.376333,0.184503,-0.832346,0.166487,0.901407,0.771342
0.316000,-0.500016,-0.499900,0.799974,0.999924,0.004771,-0.011325,0.000981,-0.500000,-0.497440,0.800000,0.999924,0.004772,-0.011324,0.001005,200.000000,100.000000,0.000000,0.002406,0.000000,0.000000,0.000000,0.000000,0.000000,0.000000,1.538500,0.376331,0.184502,-0.832353,0.166492,0.901403,0.771338
0.317000,-0.500016,-0.499898,0.799974,0.999924,0.004771,-0.011325,0.000980,-0.500000,-0.497440,0.800000,0.999924,0.004772,-0.011324,0.001005,200.000000,100.000000,0.000000,0.002432,0.000000,0.000000,0.000000,0.000000,0.000000,0.000000,1.538497,0.376329,0.184500,-0.832361,0.166497,0.901399,0.771333
0.318000,-0.500017,-0.499895,0.799973,0.999924,0.004771,-0.011325,0.000980,-0.500000,-0.497440,0.800000,0.999924,0.004772,-0.011324,0.001005,200.000000,100.000000,0.000000,0.002485,0.000000,0.000000,0.000000,0.000000,0.000000,0.000000,1.538495,0.376327,0.184498,-0.832368,0.166501,0.901395,0.771328
0.319000,-0.500017,-0.499893,0.799972,0.999924,0.004770,-0.011325,0.000979,-0.500000,-0.497440,0.800000,0.999924,0.004772,-0.011324,0.001005,200.000000,100.000000,0.000000,0.002510,0.000000,0.000000,0.000000,0.000000,0.000000,0.000000,1.538492,0.376325,0.184496,-0.832376,0.166506,0.901390,0.771323
0.320000,-0.500018,-0.499891,0.799972,0.999924,0.004770,-0.011325,0.000979,-0.500000,-0.497110,0.800000,0.999924,0.004772,-0.011324,0.001005,200.000000,100.000000,0.000000,0.002561,0.000000,0.000000,0.000000,0.000000,0.000000,0.000000,1.538489,0.376323,0.184495,-0.832384,0.166511,0.901386,0.771318
0.321000,-0.500018,-0.499888,0.799971,0.999924,0.004770,-0.011325,0.000978,-0.500000,-0.497110,0.800000,0.999924,0.004772,-0.011324,0.001005,200.000000,100.000000,0.000000,0.002592,0.000000,0.000000,0.000000,0.000000,0.000000,0.000000,1.538486,0.376320,0.184493,-0.832392,0.166517,0.901382,0.771313
0.322000,-0.500018,-0.499885,0.799970,0.999924,0.004770,-0.011325,0.000978,-0.500000,-0.497110,0.800000,0.999924,0.004772,-0.011324,0.001005,200.000000,100.000000,0.000000,0.002652,0.000000,0.000000,0.000000,0.000000,0.000000,0.000000,1.538484,0.376318,0.184491,-0.832400,0.166522,0.901377,0.771308
0.323000,-0.500019,-0.499883,0.799970,0.999924,0.004770,-0.011325,0.000977,-0.500000,-0.497110,0.800000,0.999924,0.004772,-0.011324,0.001005,200.000000,100.000000,0.000000,0.002684,0.000000,0.000000,0.000000,0.000000,0.000000,0.000000,1.538481,0.376316,0.184489,-0.832409,0.166527,0.901373,0.771302
0.324000,-0.500019,-0.499880,0.799969,0.999924,0.004770,-0.011325,0.000977,-0.500000,-0.497110,0.800000,0.999924,0.004772,-0.011324,0.001005,200.000000,100.000000,0.000000,0.002742,0.000000,0.000000,0.000000,0.000000,0.000000,0.000000,1.538478,0.376314,0.184487,-0.832417,0.166532,0.901368,0.771297
0.325000,-0.500020,-0.499878,0.799968,0.999924,0.004770,-0.011325,0.000976,-0.500000,-0.497110,0.800000,0.999924,0.004772,-0.011324,0.001005,200.000000,100.000000,0.000000,0.002772,0.000000,0.000000,0.000000,0.000000,0.000000,0.000000,1.538475,0.376311,0.184486,-0.832426,0.166538,0.901363,0.771291
0.326000,-0.500020,-0.499875,0.799968,0.999924,0.004770,-0.011325,0.000976,-0.500000,-0.497110,0.800000,0.999924,0.004772,-0.011324,0.001005,200.000000,100.000000,0.000000,0.002830,0.000000,0.000000,0.000000,0.000000,0.000000,0.000000,1.538472,0.376309,0.184484,-0.832435,0.166543,0.901358,0.771286
0.327000,-0.500021,-0.499872,0.799967,0.999924,0.004770,-0.011325,0.000975,-0.500000,-0.497110,0.800000,0.999924,0.004772,-0.011324,0.001005,200.000000,100.000000,0.000000,0.002859,0.000000,0.000000,0.000000,0.000000,0.000000,0.000000,1.538469,0.376306,0.184482,-0.832444,0.166549,0.901354,0.771280
0.328000,-0.500021,-0.499869,0.799966,0.999924,0.004770,-0.011325,0.000975,-0.500000,-0.497110,0.800000,0.999924,0.004772,-0.011324,0.001005,200.000000,100.000000,0.000000,0.002916,0.000000,0.000000,0.000000,0.000000,0.000000,0.000000,1.538465,0.376304,0.184480,-0.832453,0.166555,0.901349,0.771274
0.329000,-0.500021,-0.499867,0.799966,0.999924,0.004770,-0.011325,0.000974,-0.500000,-0.497110,0.800000,0.999924,0.004772,-0.011324,0.001005,200.000000,100.000000,0.000000,0.002944,0.000000,0.000000,0.000000,0.000000,0.000000,0.000000,1.538462,0.376301,0.184478,-0.832462,0.166561,0.901344,0.771269
0.329000,-0.500022,-0.499864,0.799965,0.999924,0.004770,-0.011326,0.000974,-0.500000,-0.496760,0.800000,0.999924,0.004772,-0.011324,0.001005,200.000000,100.000000,0.000000,0.003000,0.000000,0.000000,0.000000,0.000000,0.000000,0.000000,1.538459,0.376299,0.184476,-0.832472,0.166566,0.901339,0.771263
0.331000,-0.500022,-0.499861,0.799964,0.999924,0.004770,-0.011326,0.000973,-0.500000,-0.496760,0.800000,0.999924,0.004772,-0.011324,0.001005,200.000000,100.000000,0.000000,0.003035,0.000000,0.000000,0.000000,0.000000,0.000000,0.000000,1.538456,0.376296,0.184474,-0.832481,0.166572,0.901333,0.771257
0.332000,-0.500023,-0.499858,0.799963,0.999924,0.004770,-0.011326,0.000972,-0.500000,-0.496760,0.800000,0.999924,0.004772,-0.011324,0.001005,200.000000,100.000000,0.000000,0.003099,0.000000,0.000000,0.000000,0.000000,0.000000,0.000000,1.538452,0.376294,0.184472,-0.832491,0.166579,0.901328,0.771251
