matthias-mayr/cartesian_trajectory_generator/generated_logs/simulation.txt
time,position_x,position_y,position_z,orientation_x,orientation_y,orientation_z,orientation_w,position_d_x,position_d_y,position_d_z,orientation_d_x,orientation_d_y,orientation_d_z,orientation_d_w,translational_stiffness,rotational_stiffness,nullspace_stiffness,velocity,f_x,f_y,f_z,tau_x,tau_x,tau_z,joint1,joint2,joint3,joint4,joint5,joint6,joint7
0.000000,-0.738558,0.370432,0.813958,0.999669,0.004674,-0.024441,0.006536,-0.738557,0.370425,0.813937,0.999669,0.004674,-0.024443,0.006535,200.000000,100.000000,0.000000,0.000144,0.000000,0.000000,0.000000,0.000000,0.000000,0.000000,0.562215,1.607751,1.269117,0.000768,-0.191473,1.330499,-0.465301
0.001000,-0.738558,0.370432,0.813958,0.999669,0.004674,-0.024441,0.006536,-0.738557,0.370424,0.813937,0.999669,0.004674,-0.024443,0.006535,200.000000,100.000000,0.000000,0.000161,0.000000,0.000000,0.000000,0.000000,0.000000,0.000000,0.562214,1.607750,1.269117,0.000766,-0.191473,1.330499,-0.465301
0.002000,-0.738558,0.370432,0.813958,0.999669,0.004674,-0.024441,0.006536,-0.738557,0.370424,0.813937,0.999669,0.004674,-0.024443,0.006535,200.000000,100.000000,0.000000,0.000142,0.000000,0.000000,0.000000,0.000000,0.000000,0.000000,0.562213,1.607750,1.269117,0.000764,-0.191473,1.330498,-0.465300
0.003000,-0.738558,0.370432,0.813959,0.999669,0.004674,-0.024441,0.006536,-0.738557,0.370423,0.813937,0.999669,0.004674,-0.024443,0.006535,200.000000,100.000000,0.000000,0.000159,0.000000,0.000000,0.000000,0.000000,0.000000,0.000000,0.562212,1.607750,1.269117,0.000762,-0.191473,1.330497,-0.465300
0.004000,-0.738558,0.370432,0.813959,0.999669,0.004674,-0.024441,0.006536,-0.738557,0.370423,0.813937,0.999669,0.004674,-0.024443,0.006535,200.000000,100.000000,0.000000,0.000141,0.000000,0.000000,0.000000,0.000000,0.000000,0.000000,0.562210,1.607749,1.269117,0.000760,-0.191473,1.330497,-0.465300
0.005000,-0.738558,0.370432,0.813959,0.999669,0.004674,-0.024441,0.006536,-0.738557,0.370420,0.813937,0.999669,0.004674,-0.024443,0.006535,200.000000,100.000000,0.000000,0.000157,0.000000,0.000000,0.000000,0.000000,0.000000,0.000000,0.562209,1.607749,1.269117,0.000759,-0.191473,1.330496,-0.465300
0.006000,-0.738558,0.370432,0.813959,0.999669,0.004674,-0.024441,0.006536,-0.738557,0.370419,0.813937,0.999669,0.004674,-0.024443,0.006535,200.000000,100.000000,0.000000,0.000138,0.000000,0.000000,0.000000,0.000000,0.000000,0.000000,0.562208,1.607749,1.269116,0.000757,-0.191473,1.330495,-0.465300
0.007000,-0.738558,0.370432,0.813959,0.999669,0.004674,-0.024441,0.006536,-0.738557,0.370417,0.813937,0.999669,0.004674,-0.024443,0.006535,200.000000,100.000000,0.000000,0.000155,0.000000,0.000000,0.000000,0.000000,0.000000,0.000000,0.562207,1.607748,1.269116,0.000755,-0.191473,1.330494,-0.465300
0.008000,-0.738558,0.370432,0.813959,0.999669,0.004674,-0.024441,0.006536,-0.738558,0.370415,0.813937,0.999669,0.004674,-0.024443,0.006535,200.000000,100.000000,0.000000,0.000136,0.000000,0.000000,0.000000,0.000000,0.000000,0.000000,0.562206,1.607748,1.269116,0.000753,-0.191473,1.330494,-0.465300
0.009000,-0.738558,0.370432,0.813959,0.999669,0.004674,-0.024441,0.006536,-0.738558,0.370413,0.813937,0.999669,0.004674,-0.024443,0.006535,200.000000,100.000000,0.000000,0.000154,0.000000,0.000000,0.000000,0.000000,0.000000,0.000000,0.562205,1.607747,1.269116,0.000751,-0.191473,1.330493,-0.465299
0.010000,-0.738558,0.370432,0.813959,0.999669,0.004674,-0.024441,0.006536,-0.738558,0.370411,0.813937,0.999669,0.004674,-0.024443,0.006535,200.000000,100.000000,0.000000,0.000135,0.000000,0.000000,0.000000,0.000000,0.000000,0.000000,0.562204,1.607747,1.269116,0.000749,-0.191473,1.330492,-0.465299
0.011000,-0.738558,0.370433,0.813960,0.999669,0.004674,-0.024441,0.006536,-0.738558,0.370408,0.813937,0.999669,0.004674,-0.024443,0.006535,200.000000,100.000000,0.000000,0.000151,0.000000,0.000000,0.000000,0.000000,0.000000,0.000000,0.562203,1.607747,1.269116,0.000747,-0.191473,1.330491,-0.465299
0.012000,-0.738558,0.370433,0.813960,0.999669,0.004674,-0.024441,0.006536,-0.738558,0.370408,0.813937,0.999669,0.004674,-0.024443,0.006535,200.000000,100.000000,0.000000,0.000132,0.000000,0.000000,0.000000,0.000000,0.000000,0.000000,0.562202,1.607747,1.269116,0.000745,-0.191473,1.330491,-0.465299
0.013000,-0.738558,0.370433,0.813960,0.999669,0.004674,-0.024441,0.006536,-0.738558,0.370403,0.813937,0.999669,0.004674,-0.024443,0.006535,200.000000,100.000000,0.000000,0.000149,0.000000,0.000000,0.000000,0.000000,0.000000,0.000000,0.562201,1.607746,1.269116,0.000743,-0.191474,1.330490,-0.465299
0.014000,-0.738558,0.370433,0.813960,0.999669,0.004674,-0.024441,0.006536,-0.738559,0.370400,0.813937,0.999669,0.004674,-0.024443,0.006535,200.000000,100.000000,0.000000,0.000130,0.000000,0.000000,0.000000,0.000000,0.000000,0.000000,0.562200,1.607746,1.269116,0.000741,-0.191474,1.330489,-0.465299
0.015000,-0.738558,0.370433,0.813960,0.999669,0.004674,-0.024441,0.006536,-0.738559,0.370397,0.813937,0.999669,0.004674,-0.024443,0.006535,200.000000,100.000000,0.000000,0.000147,0.000000,0.000000,0.000000,0.000000,0.000000,0.000000,0.562198,1.607745,1.269116,0.000739,-0.191474,1.330488,-0.465299
0.016000,-0.738558,0.370433,0.813960,0.999669,0.004674,-0.024441,0.006536,-0.738559,0.370393,0.813937,0.999669,0.004674,-0.024443,0.006535,200.000000,100.000000,0.000000,0.000128,0.000000,0.000000,0.000000,0.000000,0.000000,0.000000,0.562197,1.607745,1.269116,0.000738,-0.191474,1.330488,-0.465298
0.017000,-0.738558,0.370433,0.813960,0.999669,0.004674,-0.024441,0.006536,-0.738559,0.370389,0.813937,0.999669,0.004674,-0.024443,0.006535,200.000000,100.000000,0.000000,0.000145,0.000000,0.000000,0.000000,0.000000,0.000000,0.000000,0.562196,1.607745,1.269116,0.000736,-0.191474,1.330487,-0.465298
0.018000,-0.738558,0.370433,0.813961,0.999669,0.004674,-0.024441,0.006536,-0.738560,0.370385,0.813937,0.999669,0.004674,-0.024443,0.006535,200.000000,100.000000,0.000000,0.000125,0.000000,0.000000,0.000000,0.000000,0.000000,0.000000,0.562195,1.607745,1.269116,0.000734,-0.191474,1.330486,-0.465298
0.019000,-0.738558,0.370433,0.813961,0.999669,0.004674,-0.024441,0.006536,-0.738560,0.370381,0.813937,0.999669,0.004674,-0.024443,0.006535,200.000000,100.000000,0.000000,0.000142,0.000000,0.000000,0.000000,0.000000,0.000000,0.000000,0.562194,1.607744,1.269116,0.000732,-0.191474,1.330485,-0.465298
0.020000,-0.738558,0.370433,0.813961,0.999669,0.004674,-0.024441,0.006536,-0.738560,0.370377,0.813937,0.999669,0.004674,-0.024443,0.006535,200.000000,100.000000,0.000000,0.000123,0.000000,0.000000,0.000000,0.000000,0.000000,0.000000,0.562193,1.607744,1.269116,0.000730,-0.191474,1.330485,-0.465298
0.021000,-0.738558,0.370433,0.813961,0.999669,0.004674,-0.024441,0.006536,-0.738561,0.370373,0.813936,0.999669,0.004674,-0.024443,0.006535,200.000000,100.000000,0.000000,0.000140,0.000000,0.000000,0.000000,0.000000,0.000000,0.000000,0.562192,1.607743,1.269116,0.000728,-0.191474,1.330484,-0.465298
0.022000,-0.738558,0.370433,0.813961,0.999669,0.004674,-0.024441,0.006536,-0.738561,0.370368,0.813936,0.999669,0.004674,-0.024443,0.006535,200.000000,100.000000,0.000000,0.000121,0.000000,0.000000,0.000000,0.000000,0.000000,0.000000,0.562191,1.607743,1.269116,0.000726,-0.191474,1.330483,-0.465298
0.023000,-0.738558,0.370433,0.813961,0.999669,0.004674,-0.024441,0.006536,-0.738561,0.370363,0.813936,0.999669,0.004674,-0.024443,0.006535,200.000000,100.000000,0.000000,0.000137,0.000000,0.000000,0.000000,0.000000,0.000000,0.000000,0.562190,1.607743,1.269116,0.000724,-0.191474,1.330482,-0.465297
0.024000,-0.738558,0.370433,0.813961,0.999669,0.004674,-0.024441,0.006536,-0.738562,0.370358,0.813936,0.999669,0.004674,-0.024443,0.006535,200.000000,100.000000,0.000000,0.000117,0.000000,0.000000,0.000000,0.000000,0.000000,0.000000,0.562189,1.607743,1.269116,0.000722,-0.191474,1.330482,-0.465297
0.025000,-0.738558,0.370433,0.813961,0.999669,0.004674,-0.024441,0.006536,-0.738562,0.370353,0.813936,0.999669,0.004674,-0.024443,0.006535,200.000000,100.000000,0.000000,0.000134,0.000000,0.000000,0.000000,0.000000,0.000000,0.000000,0.562188,1.607742,1.269116,0.000721,-0.191474,1.330481,-0.465297
0.026000,-0.738558,0.370433,0.813962,0.999669,0.004674,-0.024441,0.006536,-0.738562,0.370347,0.813936,0.999669,0.004674,-0.024443,0.006535,200.000000,100.000000,0.000000,0.000115,0.000000,0.000000,0.000000,0.000000,0.000000,0.000000,0.562187,1.607742,1.269116,0.000719,-0.191474,1.330480,-0.465297
0.027000,-0.738558,0.370433,0.813962,0.999669,0.004674,-0.024441,0.006536,-0.738563,0.370341,0.813936,0.999669,0.004674,-0.024443,0.006535,200.000000,100.000000,0.000000,0.000132,0.000000,0.000000,0.000000,0.000000,0.000000,0.000000,0.562186,1.607741,1.269116,0.000717,-0.191474,1.330479,-0.465297
0.028000,-0.738558,0.370433,0.813962,0.999669,0.004674,-0.024441,0.006536,-0.738563,0.370341,0.813936,0.999669,0.004674,-0.024443,0.006535,200.000000,100.000000,0.000000,0.000112,0.000000,0.000000,0.000000,0.000000,0.000000,0.000000,0.562185,1.607741,1.269116,0.000715,-0.191474,1.330479,-0.465297
0.029000,-0.738558,0.370433,0.813962,0.999669,0.004674,-0.024441,0.006536,-0.738564,0.370329,0.813936,0.999669,0.004674,-0.024443,0.006535,200.000000,100.000000,0.000000,0.000129,0.000000,0.000000,0.000000,0.000000,0.000000,0.000000,0.562184,1.607741,1.269116,0.000713,-0.191474,1.330478,-0.465296
0.030000,-0.738558,0.370433,0.813962,0.999669,0.004674,-0.024441,0.006536,-0.738564,0.370329,0.813936,0.999669,0.004674,-0.024443,0.006535,200.000000,100.000000,0.000000,0.000109,0.000000,0.000000,0.000000,0.000000,0.000000,0.000000,0.562183,1.607740,1.269116,0.000711,-0.191474,1.330477,-0.465296
0.031000,-0.738558,0.370433,0.813962,0.999669,0.004674,-0.024441,0.006536,-0.738565,0.370317,0.813936,0.999669,0.004674,-0.024443,0.006535,200.000000,100.000000,0.000000,0.000126,0.000000,0.000000,0.000000,0.000000,0.000000,0.000000,0.562182,1.607740,1.269116,0.000709,-0.191474,1.330476,-0.465296
0.032000,-0.738558,0.370433,0.813962,0.999669,0.004674,-0.024441,0.006536,-0.738565,0.370310,0.813935,0.999669,0.004674,-0.024443,0.006535,200.000000,100.000000,0.000000,0.000106,0.000000,0.000000,0.000000,0.000000,0.000000,0.000000,0.562181,1.607740,1.269115,0.000707,-0.191474,1.330476,-0.465296
0.033000,-0.738558,0.370433,0.813962,0.999669,0.004674,-0.024441,0.006536,-0.738565,0.370303,0.813935,0.999669,0.004674,-0.024443,0.006535,200.000000,100.000000,0.000000,0.000123,0.000000,0.000000,0.000000,0.000000,0.000000,0.000000,0.562180,1.607739,1.269115,0.000705,-0.191474,1.330475,-0.465296
0.034000,-0.738558,0.370433,0.813962,0.999669,0.004674,-0.024441,0.006536,-0.738565,0.370303,0.813935,0.999669,0.004674,-0.024443,0.006535,200.000000,100.000000,0.000000,0.000104,0.000000,0.000000,0.000000,0.000000,0.000000,0.000000,0.562179,1.607739,1.269115,0.000704,-0.191474,1.330474,-0.465296
0.035000,-0.738558,0.370433,0.813963,0.999669,0.004674,-0.024441,0.006536,-0.738566,0.370289,0.813935,0.999669,0.004674,-0.024443,0.006535,200.000000,100.000000,0.000000,0.000121,0.000000,0.000000,0.000000,0.000000,0.000000,0.000000,0.562178,1.607739,1.269115,0.000702,-0.191474,1.330473,-0.465295
0.036000,-0.738558,0.370433,0.813963,0.999669,0.004674,-0.024441,0.006536,-0.738566,0.370289,0.813935,0.999669,0.004674,-0.024443,0.006535,200.000000,100.000000,0.000000,0.000101,0.000000,0.000000,0.000000,0.000000,0.000000,0.000000,0.562177,1.607738,1.269115,0.000700,-0.191474,1.330473,-0.465295
0.037000,-0.738558,0.370433,0.813963,0.999669,0.004674,-0.024441,0.006536,-0.738568,0.370274,0.813935,0.999669,0.004674,-0.024443,0.006535,200.000000,100.000000,0.000000,0.000118,0.000000,0.000000,0.000000,0.000000,0.000000,0.000000,0.562176,1.607738,1.269115,0.000698,-0.191474,1.330472,-0.465295
0.038000,-0.738558,0.370433,0.813963,0.999669,0.004674,-0.024441,0.006536,-0.738568,0.370266,0.813935,0.999669,0.004674,-0.024443,0.006535,200.000000,100.000000,0.000000,0.000099,0.000000,0.000000,0.000000,0.000000,0.000000,0.000000,0.562175,1.607738,1.269115,0.000696,-0.191474,1.330471,-0.465295
0.039000,-0.738558,0.370433,0.813963,0.999669,0.004674,-0.024441,0.006536,-0.738569,0.370258,0.813935,0.999669,0.004674,-0.024443,0.006535,200.000000,100.000000,0.000000,0.000116,0.000000,0.000000,0.000000,0.000000,0.000000,0.000000,0.562174,1.607737,1.269115,0.000694,-0.191474,1.330470,-0.465295
0.040000,-0.738558,0.370433,0.813963,0.999669,0.004674,-0.024441,0.006536,-0.738569,0.370258,0.813935,0.999669,0.004674,-0.024443,0.006535,200.000000,100.000000,0.000000,0.000098,0.000000,0.000000,0.000000,0.000000,0.000000,0.000000,0.562173,1.607737,1.269115,0.000692,-0.191474,1.330470,-0.465294
0.041000,-0.738558,0.370433,0.813963,0.999669,0.004674,-0.024441,0.006536,-0.738570,0.370241,0.813934,0.999669,0.004674,-0.024443,0.006535,200.000000,100.000000,0.000000,0.000114,0.000000,0.000000,0.000000,0.000000,0.000000,0.000000,0.562172,1.607737,1.269115,0.000690,-0.191474,1.330469,-0.465294
0.042000,-0.738558,0.370433,0.813963,0.999669,0.004674,-0.024441,0.006536,-0.738570,0.370241,0.813934,0.999669,0.004674,-0.024443,0.006535,200.000000,100.000000,0.000000,0.000096,0.000000,0.000000,0.000000,0.000000,0.000000,0.000000,0.562171,1.607736,1.269115,0.000689,-0.191474,1.330468,-0.465294
0.043000,-0.738559,0.370433,0.813963,0.999669,0.004674,-0.024441,0.006536,-0.738570,0.370232,0.813934,0.999669,0.004674,-0.024443,0.006535,200.000000,100.000000,0.000000,0.000113,0.000000,0.000000,0.000000,0.000000,0.000000,0.000000,0.562170,1.607736,1.269115,0.000687,-0.191474,1.330467,-0.465294
0.044000,-0.738559,0.370433,0.813964,0.999669,0.004674,-0.024441,0.006536,-0.738571,0.370223,0.813934,0.999669,0.004674,-0.024443,0.006535,200.000000,100.000000,0.000000,0.000096,0.000000,0.000000,0.000000,0.000000,0.000000,0.000000,0.562169,1.607735,1.269115,0.000685,-0.191474,1.330466,-0.465294
0.045000,-0.738559,0.370433,0.813964,0.999669,0.004674,-0.024441,0.006536,-0.738572,0.370205,0.813934,0.999669,0.004674,-0.024443,0.006535,200.000000,100.000000,0.000000,0.000112,0.000000,0.000000,0.000000,0.000000,0.000000,0.000000,0.562168,1.607735,1.269115,0.000683,-0.191474,1.330466,-0.465293
0.046000,-0.738559,0.370433,0.813964,0.999669,0.004674,-0.024441,0.006536,-0.738573,0.370196,0.813934,0.999669,0.004674,-0.024443,0.006535,200.000000,100.000000,0.000000,0.000097,0.000000,0.000000,0.000000,0.000000,0.000000,0.000000,0.562167,1.607735,1.269115,0.000681,-0.191474,1.330465,-0.465293
0.047000,-0.738559,0.370433,0.813964,0.999669,0.004674,-0.024441,0.006537,-0.738574,0.370186,0.813933,0.999669,0.004674,-0.024443,0.006535,200.000000,100.000000,0.000000,0.000113,0.000000,0.000000,0.000000,0.000000,0.000000,0.000000,0.562166,1.607734,1.269115,0.000679,-0.191474,1.330464,-0.465293
0.048000,-0.738559,0.370433,0.813964,0.999669,0.004674,-0.024441,0.006537,-0.738574,0.370176,0.813933,0.999669,0.004674,-0.024443,0.006535,200.000000,100.000000,0.000000,0.000098,0.000000,0.000000,0.000000,0.000000,0.000000,0.000000,0.562165,1.607734,1.269115,0.000677,-0.191474,1.330463,-0.465293
0.049000,-0.738559,0.370433,0.813964,0.999669,0.004674,-0.024441,0.006537,-0.738575,0.370166,0.813933,0.999669,0.004674,-0.024443,0.006535,200.000000,100.000000,0.000000,0.000114,0.000000,0.000000,0.000000,0.000000,0.000000,0.000000,0.562164,1.607734,1.269115,0.000675,-0.191474,1.330463,-0.465292
0.050000,-0.738559,0.370433,0.813964,0.999669,0.004674,-0.024441,0.006537,-0.738576,0.370156,0.813933,0.999669,0.004674,-0.024443,0.006535,200.000000,100.000000,0.000000,0.000101,0.000000,0.000000,0.000000,0.000000,0.000000,0.000000,0.562163,1.607733,1.269115,0.000673,-0.191474,1.330462,-0.465292
0.051000,-0.738559,0.370433,0.813964,0.999669,0.004674,-0.024441,0.006537,-0.738577,0.370145,0.813933,0.999669,0.004674,-0.024443,0.006535,200.000000,100.000000,0.000000,0.000117,0.000000,0.000000,0.000000,0.000000,0.000000,0.000000,0.562162,1.607733,1.269114,0.000671,-0.191474,1.330461,-0.465292
0.052000,-0.738559,0.370433,0.813964,0.999669,0.004674,-0.024441,0.006537,-0.738577,0.370135,0.813933,0.999669,0.004674,-0.024443,0.006535,200.000000,100.000000,0.000000,0.000106,0.000000,0.000000,0.000000,0.000000,0.000000,0.000000,0.562161,1.607732,1.269114,0.000670,-0.191474,1.330460,-0.465292
0.053000,-0.738559,0.370433,0.813964,0.999669,0.004674,-0.024441,0.006537,-0.738578,0.370124,0.813932,0.999669,0.004674,-0.024443,0.006535,200.000000,100.000000,0.000000,0.000121,0.000000,0.000000,0.000000,0.000000,0.000000,0.000000,0.562160,1.607732,1.269114,0.000668,-0.191474,1.330459,-0.465291
0.054000,-0.738559,0.370433,0.813964,0.999669,0.004674,-0.024441,0.006537,-0.738579,0.370113,0.813932,0.999669,0.004674,-0.024443,0.006535,200.000000,100.000000,0.000000,0.000112,0.000000,0.000000,0.000000,0.000000,0.000000,0.000000,0.562159,1.607731,1.269114,0.000666,-0.191474,1.330459,-0.465291
0.055000,-0.738559,0.370433,0.813964,0.999669,0.004674,-0.024441,0.006537,-0.738580,0.370101,0.813932,0.999669,0.004674,-0.024443,0.006535,200.000000,100.000000,0.000000,0.000126,0.000000,0.000000,0.000000,0.000000,0.000000,0.000000,0.562158,1.607731,1.269114,0.000664,-0.191474,1.330458,-0.465291
0.056000,-0.738559,0.370432,0.813965,0.999669,0.004674,-0.024441,0.006537,-0.738581,0.370090,0.813932,0.999669,0.004674,-0.024443,0.006535,200.000000,100.000000,0.000000,0.000120,0.000000,0.000000,0.000000,0.000000,0.000000,0.000000,0.562157,1.607731,1.269114,0.000662,-0.191474,1.330457,-0.465290
0.057000,-0.738559,0.370432,0.813965,0.999669,0.004674,-0.024441,0.006537,-0.738581,0.370078,0.813932,0.999669,0.004674,-0.024443,0.006535,200.000000,100.000000,0.000000,0.000134,0.000000,0.000000,0.000000,0.000000,0.000000,0.000000,0.562156,1.607730,1.269114,0.000660,-0.191474,1.330456,-0.465290
0.058000,-0.738559,0.370432,0.813965,0.999669,0.004674,-0.024441,0.006537,-0.738582,0.370066,0.813932,0.999669,0.004674,-0.024443,0.006535,200.000000,100.000000,0.000000,0.000129,0.000000,0.000000,0.000000,0.000000,0.000000,0.000000,0.562155,1.607730,1.269114,0.000658,-0.191474,1.330455,-0.465290
0.059000,-0.738559,0.370432,0.813965,0.999669,0.004674,-0.024441,0.006537,-0.738583,0.370054,0.813931,0.999669,0.004674,-0.024443,0.006535,200.000000,100.000000,0.000000,0.000143,0.000000,0.000000,0.000000,0.000000,0.000000,0.000000,0.562154,1.607729,1.269114,0.000656,-0.191474,1.330455,-0.465290
0.060000,-0.738559,0.370432,0.813965,0.999669,0.004674,-0.024441,0.006537,-0.738584,0.370042,0.813931,0.999669,0.004674,-0.024443,0.006535,200.000000,100.000000,0.000000,0.000140,0.000000,0.000000,0.000000,0.000000,0.000000,0.000000,0.562153,1.607729,1.269114,0.000654,-0.191474,1.330454,-0.465289
0.061000,-0.738559,0.370432,0.813965,0.999669,0.004674,-0.024441,0.006537,-0.738585,0.370029,0.813931,0.999669,0.004674,-0.024443,0.006535,200.000000,100.000000,0.000000,0.000153,0.000000,0.000000,0.000000,0.000000,0.000000,0.000000,0.562152,1.607728,1.269114,0.000652,-0.191474,1.330453,-0.465289
0.062000,-0.738559,0.370432,0.813965,0.999669,0.004674,-0.024441,0.006537,-0.738586,0.370017,0.813931,0.999669,0.004674,-0.024443,0.006535,200.000000,100.000000,0.000000,0.000152,0.000000,0.000000,0.000000,0.000000,0.000000,0.000000,0.562151,1.607728,1.269114,0.000650,-0.191474,1.330452,-0.465289
0.063000,-0.738559,0.370432,0.813965,0.999669,0.004674,-0.024441,0.006537,-0.738587,0.370004,0.813931,0.999669,0.004674,-0.024443,0.006535,200.000000,100.000000,0.000000,0.000164,0.000000,0.000000,0.000000,0.000000,0.000000,0.000000,0.562150,1.607727,1.269114,0.000648,-0.191474,1.330451,-0.465288
0.064000,-0.738560,0.370432,0.813965,0.999669,0.004674,-0.024441,0.006537,-0.738588,0.369991,0.813930,0.999669,0.004674,-0.024443,0.006535,200.000000,100.000000,0.000000,0.000166,0.000000,0.000000,0.000000,0.000000,0.000000,0.000000,0.562150,1.607727,1.269114,0.000646,-0.191474,1.330450,-0.465288
0.065000,-0.738560,0.370431,0.813965,0.999669,0.004674,-0.024441,0.006537,-0.738588,0.369978,0.813930,0.999669,0.004674,-0.024443,0.006535,200.000000,100.000000,0.000000,0.000178,0.000000,0.000000,0.000000,0.000000,0.000000,0.000000,0.562149,1.607726,1.269114,0.000644,-0.191474,1.330450,-0.465287
0.065000,-0.738560,0.370431,0.813965,0.999669,0.004674,-0.024441,0.006537,-0.738589,0.369964,0.813930,0.999669,0.004674,-0.024443,0.006535,200.000000,100.000000,0.000000,0.000181,0.000000,0.000000,0.000000,0.000000,0.000000,0.000000,0.562148,1.607726,1.269113,0.000642,-0.191474,1.330449,-0.465287
0.067000,-0.738560,0.370431,0.813965,0.999669,0.004674,-0.024441,0.006537,-0.738589,0.369964,0.813930,0.999669,0.004674,-0.024443,0.006535,200.000000,100.000000,0.000000,0.000192,0.000000,0.000000,0.000000,0.000000,0.000000,0.000000,0.562147,1.607725,1.269113,0.000640,-0.191474,1.330448,-0.465287
0.068000,-0.738560,0.370431,0.813965,0.999669,0.004674,-0.024441,0.006537,-0.738591,0.369937,0.813929,0.999669,0.004674,-0.024443,0.006535,200.000000,100.000000,0.000000,0.000197,0.000000,0.000000,0.000000,0.000000,0.000000,0.000000,0.562146,1.607725,1.269113,0.000638,-0.191474,1.330447,-0.465286
0.069000,-0.738560,0.370431,0.813965,0.999669,0.004674,-0.024441,0.006537,-0.738592,0.369923,0.813929,0.999669,0.004674,-0.024443,0.006535,200.000000,100.000000,0.000000,0.000208,0.000000,0.000000,0.000000,0.000000,0.000000,0.000000,0.562145,1.607724,1.269113,0.000636,-0.191474,1.330446,-0.465286
0.070000,-0.738560,0.370431,0.813965,0.999669,0.004674,-0.024441,0.006537,-0.738593,0.369908,0.813929,0.999669,0.004674,-0.024443,0.006535,200.000000,100.000000,0.000000,0.000214,0.000000,0.000000,0.000000,0.000000,0.000000,0.000000,0.562144,1.607724,1.269113,0.000634,-0.191474,1.330445,-0.465285
0.071000,-0.738560,0.370430,0.813965,0.999669,0.004674,-0.024441,0.006538,-0.738594,0.369894,0.813929,0.999669,0.004674,-0.024443,0.006535,200.000000,100.000000,0.000000,0.000226,0.000000,0.000000,0.000000,0.000000,0.000000,0.000000,0.562143,1.607723,1.269113,0.000632,-0.191474,1.330444,-0.465285
0.072000,-0.738560,0.370430,0.813965,0.999669,0.004674,-0.024441,0.006538,-0.738595,0.369879,0.813929,0.999669,0.004674,-0.024443,0.006535,200.000000,100.000000,0.000000,0.000233,0.000000,0.000000,0.000000,0.000000,0.000000,0.000000,0.562142,1.607723,1.269113,0.000630,-0.191474,1.330444,-0.465285
0.073000,-0.738560,0.370430,0.813966,0.999669,0.004674,-0.024441,0.006538,-0.738596,0.369864,0.813928,0.999669,0.004674,-0.024443,0.006535,200.000000,100.000000,0.000000,0.000244,0.000000,0.000000,0.000000,0.000000,0.000000,0.000000,0.562141,1.607722,1.269113,0.000628,-0.191473,1.330443,-0.465284
0.074000,-0.738560,0.370430,0.813966,0.999669,0.004674,-0.024441,0.006538,-0.738598,0.369849,0.813928,0.999669,0.004674,-0.024443,0.006535,200.000000,100.000000,0.000000,0.000253,0.000000,0.000000,0.000000,0.000000,0.000000,0.000000,0.562141,1.607722,1.269113,0.000626,-0.191473,1.330442,-0.465284
0.075000,-0.738561,0.370429,0.813966,0.999669,0.004674,-0.024441,0.006538,-0.738599,0.369834,0.813928,0.999669,0.004674,-0.024443,0.006535,200.000000,100.000000,0.000000,0.000264,0.000000,0.000000,0.000000,0.000000,0.000000,0.000000,0.562140,1.607721,1.269113,0.000624,-0.191473,1.330441,-0.465283
0.076000,-0.738561,0.370429,0.813966,0.999669,0.004674,-0.024441,0.006538,-0.738600,0.369819,0.813928,0.999669,0.004674,-0.024443,0.006535,200.000000,100.000000,0.000000,0.000274,0.000000,0.000000,0.000000,0.000000,0.000000,0.000000,0.562139,1.607720,1.269113,0.000622,-0.191473,1.330440,-0.465283
0.077000,-0.738561,0.370429,0.813966,0.999669,0.004674,-0.024441,0.006538,-0.738601,0.369803,0.813927,0.999669,0.004674,-0.024443,0.006535,200.000000,100.000000,0.000000,0.000286,0.000000,0.000000,0.000000,0.000000,0.000000,0.000000,0.562138,1.607720,1.269113,0.000620,-0.191473,1.330439,-0.465282
0.078000,-0.738561,0.370429,0.813966,0.999669,0.004674,-0.024441,0.006538,-0.738602,0.369787,0.813927,0.999669,0.004674,-0.024443,0.006535,200.000000,100.000000,0.000000,0.000296,0.000000,0.000000,0.000000,0.000000,0.000000,0.000000,0.562137,1.607719,1.269113,0.000618,-0.191473,1.330438,-0.465282
0.079000,-0.738561,0.370428,0.813966,0.999669,0.004674,-0.024441,0.006538,-0.738603,0.369771,0.813927,0.999669,0.004674,-0.024443,0.006535,200.000000,100.000000,0.000000,0.000308,0.000000,0.000000,0.000000,0.000000,0.000000,0.000000,0.562136,1.607718,1.269112,0.000616,-0.191473,1.330437,-0.465281
0.080000,-0.738561,0.370428,0.813966,0.999669,0.004674,-0.024441,0.006538,-0.738604,0.369755,0.813927,0.999669,0.004674,-0.024443,0.006535,200.000000,100.000000,0.000000,0.000320,0.000000,0.000000,0.000000,0.000000,0.000000,0.000000,0.562135,1.607718,1.269112,0.000614,-0.191473,1.330436,-0.465281
0.081000,-0.738561,0.370428,0.813966,0.999669,0.004674,-0.024441,0.006538,-0.738605,0.369738,0.813926,0.999669,0.004674,-0.024443,0.006535,200.000000,100.000000,0.000000,0.000332,0.000000,0.000000,0.000000,0.000000,0.000000,0.000000,0.562135,1.607717,1.269112,0.000612,-0.191473,1.330435,-0.465280
0.082000,-0.738561,0.370427,0.813966,0.999669,0.004674,-0.024441,0.006538,-0.738607,0.369722,0.813926,0.999669,0.004674,-0.024443,0.006535,200.000000,100.000000,0.000000,0.000345,0.000000,0.000000,0.000000,0.000000,0.000000,0.000000,0.562134,1.607716,1.269112,0.000609,-0.191473,1.330434,-0.465279
0.083000,-0.738562,0.370427,0.813966,0.999669,0.004674,-0.024440,0.006539,-0.738608,0.369705,0.813926,0.999669,0.004674,-0.024443,0.006535,200.000000,100.000000,0.000000,0.000357,0.000000,0.000000,0.000000,0.000000,0.000000,0.000000,0.562133,1.607716,1.269112,0.000607,-0.191473,1.330434,-0.465279
0.084000,-0.738562,0.370427,0.813966,0.999669,0.004674,-0.024440,0.006539,-0.738609,0.369688,0.813925,0.999669,0.004674,-0.024443,0.006535,200.000000,100.000000,0.000000,0.000371,0.000000,0.000000,0.000000,0.000000,0.000000,0.000000,0.562132,1.607715,1.269112,0.000605,-0.191473,1.330433,-0.465278
0.085000,-0.738562,0.370426,0.813966,0.999669,0.004674,-0.024440,0.006539,-0.738610,0.369670,0.813925,0.999669,0.004674,-0.024443,0.006535,200.000000,100.000000,0.000000,0.000383,0.000000,0.000000,0.000000,0.000000,0.000000,0.000000,0.562131,1.607714,1.269112,0.000603,-0.191473,1.330432,-0.465277
0.086000,-0.738562,0.370426,0.813966,0.999669,0.004674,-0.024440,0.006539,-0.738611,0.369653,0.813925,0.999669,0.004674,-0.024443,0.006535,200.000000,100.000000,0.000000,0.000398,0.000000,0.000000,0.000000,0.000000,0.000000,0.000000,0.562131,1.607714,1.269112,0.000601,-0.191473,1.330431,-0.465277
0.087000,-0.738562,0.370426,0.813966,0.999669,0.004674,-0.024440,0.006539,-0.738613,0.369635,0.813925,0.999669,0.004674,-0.024443,0.006535,200.000000,100.000000,0.000000,0.000410,0.000000,0.000000,0.000000,0.000000,0.000000,0.000000,0.562130,1.607713,1.269112,0.000599,-0.191473,1.330430,-0.465276
0.088000,-0.738562,0.370425,0.813966,0.999669,0.004674,-0.024440,0.006539,-0.738614,0.369617,0.813924,0.999669,0.004674,-0.024443,0.006535,200.000000,100.000000,0.000000,0.000426,0.000000,0.000000,0.000000,0.000000,0.000000,0.000000,0.562129,1.607712,1.269112,0.000596,-0.191472,1.330429,-0.465275
0.089000,-0.738563,0.370425,0.813966,0.999669,0.004674,-0.024440,0.006539,-0.738615,0.369599,0.813924,0.999669,0.004674,-0.024443,0.006535,200.000000,100.000000,0.000000,0.000440,0.000000,0.000000,0.000000,0.000000,0.000000,0.000000,0.562128,1.607711,1.269111,0.000594,-0.191472,1.330428,-0.465275
0.090000,-0.738563,0.370425,0.813966,0.999669,0.004674,-0.024440,0.006539,-0.738615,0.369599,0.813924,0.999669,0.004674,-0.024443,0.006535,200.000000,100.000000,0.000000,0.000456,0.000000,0.000000,0.000000,0.000000,0.000000,0.000000,0.562127,1.607711,1.269111,0.000592,-0.191472,1.330427,-0.465274
0.091000,-0.738563,0.370424,0.813966,0.999669,0.004674,-0.024440,0.006539,-0.738618,0.369563,0.813923,0.999669,0.004674,-0.024443,0.006535,200.000000,100.000000,0.000000,0.000469,0.000000,0.000000,0.000000,0.000000,0.000000,0.000000,0.562127,1.607710,1.269111,0.000590,-0.191472,1.330426,-0.465273
0.092000,-0.738563,0.370424,0.813966,0.999669,0.004674,-0.024440,0.006539,-0.738619,0.369544,0.813923,0.999669,0.004674,-0.024443,0.006535,200.000000,100.000000,0.000000,0.000487,0.000000,0.000000,0.000000,0.000000,0.000000,0.000000,0.562126,1.607709,1.269111,0.000587,-0.191472,1.330425,-0.465273
0.093000,-0.738563,0.370423,0.813966,0.999669,0.004674,-0.024440,0.006540,-0.738620,0.369525,0.813923,0.999669,0.004674,-0.024443,0.006535,200.000000,100.000000,0.000000,0.000500,0.000000,0.000000,0.000000,0.000000,0.000000,0.000000,0.562125,1.607708,1.269111,0.000585,-0.191472,1.330424,-0.465272
0.094000,-0.738564,0.370423,0.813966,0.999669,0.004674,-0.024440,0.006540,-0.738622,0.369506,0.813923,0.999669,0.004674,-0.024443,0.006535,200.000000,100.000000,0.000000,0.000519,0.000000,0.000000,0.000000,0.000000,0.000000,0.000000,0.562124,1.607707,1.269111,0.000583,-0.191472,1.330423,-0.465271
0.095000,-0.738564,0.370422,0.813966,0.999669,0.004674,-0.024440,0.006540,-0.738623,0.369487,0.813922,0.999669,0.004674,-0.024443,0.006535,200.000000,100.000000,0.000000,0.000533,0.000000,0.000000,0.000000,0.000000,0.000000,0.000000,0.562123,1.607706,1.269111,0.000581,-0.191472,1.330422,-0.465270
0.096000,-0.738564,0.370422,0.813966,0.999669,0.004675,-0.024440,0.006540,-0.738623,0.369487,0.813922,0.999669,0.004674,-0.024443,0.006535,200.000000,100.000000,0.000000,0.000552,0.000000,0.000000,0.000000,0.000000,0.000000,0.000000,0.562123,1.607705,1.269111,0.000578,-0.191472,1.330421,-0.465269
0.097000,-0.738564,0.370421,0.813966,0.999669,0.004675,-0.024440,0.006540,-0.738626,0.369448,0.813922,0.999669,0.004674,-0.024443,0.006535,200.000000,100.000000,0.000000,0.000567,0.000000,0.000000,0.000000,0.000000,0.000000,0.000000,0.562122,1.607705,1.269111,0.000576,-0.191472,1.330420,-0.465268
0.098000,-0.738564,0.370421,0.813966,0.999669,0.004675,-0.024440,0.006540,-0.738627,0.369428,0.813921,0.999669,0.004674,-0.024443,0.006535,200.000000,100.000000,0.000000,0.000587,0.000000,0.000000,0.000000,0.000000,0.000000,0.000000,0.562121,1.607704,1.269111,0.000573,-0.191472,1.330418,-0.465268
0.099000,-0.738565,0.370420,0.813966,0.999669,0.004675,-0.024440,0.006540,-0.738627,0.369428,0.813921,0.999669,0.004674,-0.024443,0.006535,200.000000,100.000000,0.000000,0.000602,0.000000,0.000000,0.000000,0.000000,0.000000,0.000000,0.562121,1.607703,1.269110,0.000571,-0.191471,1.330417,-0.465267
0.100000,-0.738565,0.370420,0.813966,0.999669,0.004675,-0.024440,0.006541,-0.738629,0.369408,0.813921,0.999669,0.004674,-0.024443,0.006535,200.000000,100.000000,0.000000,0.000622,0.000000,0.000000,0.000000,0.000000,0.000000,0.000000,0.562120,1.607702,1.269110,0.000569,-0.191471,1.330416,-0.465266
0.101000,-0.738565,0.370419,0.813965,0.999669,0.004675,-0.024440,0.006541,-0.738632,0.369367,0.813920,0.999669,0.004674,-0.024443,0.006535,200.000000,100.000000,0.000000,0.000637,0.000000,0.000000,0.000000,0.000000,0.000000,0.000000,0.562119,1.607701,1.269110,0.000566,-0.191471,1.330415,-0.465265
0.102000,-0.738565,0.370418,0.813965,0.999669,0.004675,-0.024440,0.006541,-0.738633,0.369347,0.813920,0.999669,0.004674,-0.024443,0.006535,200.000000,100.000000,0.000000,0.000659,0.000000,0.000000,0.000000,0.000000,0.000000,0.000000,0.562118,1.607700,1.269110,0.000564,-0.191471,1.330414,-0.465264
0.103000,-0.738566,0.370418,0.813965,0.999669,0.004675,-0.024440,0.006541,-0.738634,0.369326,0.813920,0.999669,0.004674,-0.024443,0.006535,200.000000,100.000000,0.000000,0.000675,0.000000,0.000000,0.000000,0.000000,0.000000,0.000000,0.562118,1.607699,1.269110,0.000561,-0.191471,1.330413,-0.465263
0.104000,-0.738566,0.370417,0.813965,0.999669,0.004675,-0.024440,0.006541,-0.738636,0.369305,0.813919,0.999669,0.004674,-0.024443,0.006535,200.000000,100.000000,0.000000,0.000698,0.000000,0.000000,0.000000,0.000000,0.000000,0.000000,0.562117,1.607698,1.269110,0.000559,-0.191471,1.330412,-0.465262
0.105000,-0.738566,0.370416,0.813965,0.999669,0.004675,-0.024440,0.006541,-0.738637,0.369283,0.813919,0.999669,0.004674,-0.024443,0.006535,200.000000,100.000000,0.000000,0.000714,0.000000,0.000000,0.000000,0.000000,0.000000,0.000000,0.562116,1.607697,1.269110,0.000557,-0.191471,1.330411,-0.465261
0.106000,-0.738566,0.370416,0.813965,0.999669,0.004675,-0.024440,0.006541,-0.738639,0.369262,0.813919,0.999669,0.004674,-0.024443,0.006535,200.000000,100.000000,0.000000,0.000737,0.000000,0.000000,0.000000,0.000000,0.000000,0.000000,0.562116,1.607696,1.269110,0.000554,-0.191471,1.330410,-0.465260
0.107000,-0.738567,0.370415,0.813965,0.999669,0.004675,-0.024440,0.006542,-0.738641,0.369240,0.813918,0.999669,0.004674,-0.024443,0.006535,200.000000,100.000000,0.000000,0.000755,0.000000,0.000000,0.000000,0.000000,0.000000,0.000000,0.562115,1.607694,1.269109,0.000552,-0.191471,1.330408,-0.465259
0.108000,-0.738567,0.370414,0.813965,0.999669,0.004675,-0.024440,0.006542,-0.738642,0.369218,0.813918,0.999669,0.004674,-0.024443,0.006535,200.000000,100.000000,0.000000,0.000779,0.000000,0.000000,0.000000,0.000000,0.000000,0.000000,0.562114,1.607693,1.269109,0.000549,-0.191471,1.330407,-0.465258
0.109000,-0.738567,0.370414,0.813965,0.999669,0.004675,-0.024440,0.006542,-0.738642,0.369218,0.813918,0.999669,0.004674,-0.024443,0.006535,200.000000,100.000000,0.000000,0.000797,0.000000,0.000000,0.000000,0.000000,0.000000,0.000000,0.562114,1.607692,1.269109,0.000546,-0.191470,1.330406,-0.465256
0.110000,-0.738568,0.370413,0.813965,0.999669,0.004675,-0.024440,0.006542,-0.738645,0.369174,0.813917,0.999669,0.004674,-0.024443,0.006535,200.000000,100.000000,0.000000,0.000821,0.000000,0.000000,0.000000,0.000000,0.000000,0.000000,0.562113,1.607691,1.269109,0.000544,-0.191470,1.330405,-0.465255
0.111000,-0.738568,0.370412,0.813965,0.999669,0.004675,-0.024440,0.006542,-0.738645,0.369174,0.813917,0.999669,0.004674,-0.024443,0.006535,200.000000,100.000000,0.000000,0.000839,0.000000,0.000000,0.000000,0.000000,0.000000,0.000000,0.562112,1.607690,1.269109,0.000541,-0.191470,1.330404,-0.465254
0.112000,-0.738568,0.370411,0.813965,0.999669,0.004675,-0.024440,0.006543,-0.738648,0.369129,0.813917,0.999669,0.004674,-0.024443,0.006535,200.000000,100.000000,0.000000,0.000864,0.000000,0.000000,0.000000,0.000000,0.000000,0.000000,0.562112,1.607689,1.269109,0.000539,-0.191470,1.330402,-0.465253
0.113000,-0.738569,0.370410,0.813965,0.999669,0.004675,-0.024440,0.006543,-0.738650,0.369106,0.813916,0.999669,0.004674,-0.024443,0.006535,200.000000,100.000000,0.000000,0.000884,0.000000,0.000000,0.000000,0.000000,0.000000,0.000000,0.562111,1.607687,1.269109,0.000536,-0.191470,1.330401,-0.465252
0.114000,-0.738569,0.370410,0.813965,0.999669,0.004675,-0.024440,0.006543,-0.738652,0.369083,0.813916,0.999669,0.004674,-0.024443,0.006535,200.000000,100.000000,0.000000,0.000910,0.000000,0.000000,0.000000,0.000000,0.000000,0.000000,0.562110,1.607686,1.269108,0.000533,-0.191470,1.330400,-0.465250
0.115000,-0.738569,0.370409,0.813964,0.999669,0.004675,-0.024440,0.006543,-0.738653,0.369060,0.813915,0.999669,0.004674,-0.024443,0.006535,200.000000,100.000000,0.000000,0.000929,0.000000,0.000000,0.000000,0.000000,0.000000,0.000000,0.562110,1.607685,1.269108,0.000531,-0.191470,1.330399,-0.465249
0.116000,-0.738570,0.370408,0.813964,0.999669,0.004675,-0.024440,0.006543,-0.738655,0.369037,0.813915,0.999669,0.004674,-0.024443,0.006535,200.000000,100.000000,0.000000,0.000956,0.000000,0.000000,0.000000,0.000000,0.000000,0.000000,0.562109,1.607683,1.269108,0.000528,-0.191470,1.330397,-0.465248
0.117000,-0.738570,0.370407,0.813964,0.999669,0.004675,-0.024440,0.006544,-0.738657,0.369013,0.813915,0.999669,0.004674,-0.024443,0.006535,200.000000,100.000000,0.000000,0.000977,0.000000,0.000000,0.000000,0.000000,0.000000,0.000000,0.562109,1.607682,1.269108,0.000525,-0.191469,1.330396,-0.465246
0.118000,-0.738571,0.370406,0.813964,0.999669,0.004675,-0.024440,0.006544,-0.738658,0.368989,0.813914,0.999669,0.004674,-0.024443,0.006535,200.000000,100.000000,0.000000,0.001004,0.000000,0.000000,0.000000,0.000000,0.000000,0.000000,0.562108,1.607681,1.269108,0.000522,-0.191469,1.330395,-0.465245
0.119000,-0.738571,0.370405,0.813964,0.999669,0.004675,-0.024440,0.006544,-0.738660,0.368965,0.813914,0.999669,0.004674,-0.024443,0.006535,200.000000,100.000000,0.000000,0.001026,0.000000,0.000000,0.000000,0.000000,0.000000,0.000000,0.562107,1.607679,1.269108,0.000520,-0.191469,1.330394,-0.465243
0.120000,-0.738571,0.370404,0.813964,0.999669,0.004675,-0.024440,0.006544,-0.738662,0.368941,0.813914,0.999669,0.004674,-0.024443,0.006535,200.000000,100.000000,0.000000,0.001054,0.000000,0.000000,0.000000,0.000000,0.000000,0.000000,0.562107,1.607678,1.269108,0.000517,-0.191469,1.330392,-0.465242
0.121000,-0.738572,0.370403,0.813964,0.999669,0.004675,-0.024440,0.006544,-0.738663,0.368916,0.813913,0.999669,0.004674,-0.024443,0.006535,200.000000,100.000000,0.000000,0.001076,0.000000,0.000000,0.000000,0.000000,0.000000,0.000000,0.562106,1.607677,1.269107,0.000514,-0.191469,1.330391,-0.465241
0.122000,-0.738572,0.370402,0.813964,0.999669,0.004675,-0.024440,0.006545,-0.738665,0.368892,0.813913,0.999669,0.004674,-0.024443,0.006535,200.000000,100.000000,0.000000,0.001105,0.000000,0.000000,0.000000,0.000000,0.000000,0.000000,0.562106,1.607675,1.269107,0.000511,-0.191469,1.330390,-0.465239
0.123000,-0.738573,0.370401,0.813963,0.999669,0.004675,-0.024440,0.006545,-0.738667,0.368867,0.813912,0.999669,0.004674,-0.024443,0.006535,200.000000,100.000000,0.000000,0.001127,0.000000,0.000000,0.000000,0.000000,0.000000,0.000000,0.562105,1.607674,1.269107,0.000508,-0.191469,1.330388,-0.465237
0.124000,-0.738573,0.370400,0.813963,0.999669,0.004675,-0.024440,0.006545,-0.738669,0.368842,0.813912,0.999669,0.004674,-0.024443,0.006535,200.000000,100.000000,0.000000,0.001157,0.000000,0.000000,0.000000,0.000000,0.000000,0.000000,0.562105,1.607672,1.269107,0.000505,-0.191468,1.330387,-0.465236
0.125000,-0.738573,0.370399,0.813963,0.999669,0.004675,-0.024439,0.006545,-0.738670,0.368817,0.813912,0.999669,0.004674,-0.024443,0.006535,200.000000,100.000000,0.000000,0.001181,0.000000,0.000000,0.000000,0.000000,0.000000,0.000000,0.562104,1.607670,1.269107,0.000503,-0.191468,1.330385,-0.465234
0.126000,-0.738574,0.370398,0.813963,0.999669,0.004675,-0.024439,0.006546,-0.738672,0.368791,0.813911,0.999669,0.004674,-0.024443,0.006535,200.000000,100.000000,0.000000,0.001211,0.000000,0.000000,0.000000,0.000000,0.000000,0.000000,0.562104,1.607669,1.269107,0.000500,-0.191468,1.330384,-0.465233
0.127000,-0.738574,0.370397,0.813963,0.999669,0.004675,-0.024439,0.006546,-0.738674,0.368766,0.813911,0.999669,0.004674,-0.024443,0.006535,200.000000,100.000000,0.000000,0.001235,0.000000,0.000000,0.000000,0.000000,0.000000,0.000000,0.562103,1.607667,1.269106,0.000497,-0.191468,1.330383,-0.465231
0.128000,-0.738575,0.370396,0.813963,0.999669,0.004675,-0.024439,0.006546,-0.738676,0.368740,0.813910,0.999669,0.004674,-0.024443,0.006535,200.000000,100.000000,0.000000,0.001267,0.000000,0.000000,0.000000,0.000000,0.000000,0.000000,0.562103,1.607666,1.269106,0.000494,-0.191468,1.330381,-0.465229
0.129000,-0.738575,0.370394,0.813963,0.999669,0.004675,-0.024439,0.006546,-0.738678,0.368714,0.813910,0.999669,0.004674,-0.024443,0.006535,200.000000,100.000000,0.000000,0.001291,0.000000,0.000000,0.000000,0.000000,0.000000,0.000000,0.562102,1.607664,1.269106,0.000491,-0.191468,1.330380,-0.465227
0.130000,-0.738576,0.370393,0.813962,0.999669,0.004675,-0.024439,0.006547,-0.738680,0.368687,0.813909,0.999669,0.004674,-0.024443,0.006535,200.000000,100.000000,0.000000,0.001323,0.000000,0.000000,0.000000,0.000000,0.000000,0.000000,0.562102,1.607662,1.269106,0.000488,-0.191468,1.330378,-0.465226
0.131000,-0.738576,0.370392,0.813962,0.999669,0.004675,-0.024439,0.006547,-0.738681,0.368661,0.813909,0.999669,0.004674,-0.024443,0.006535,200.000000,100.000000,0.000000,0.001349,0.000000,0.000000,0.000000,0.000000,0.000000,0.000000,0.562101,1.607661,1.269106,0.000484,-0.191467,1.330377,-0.465224
0.132000,-0.738577,0.370391,0.813962,0.999669,0.004675,-0.024439,0.006547,-0.738683,0.368634,0.813909,0.999669,0.004674,-0.024443,0.006535,200.000000,100.000000,0.000000,0.001382,0.000000,0.000000,0.000000,0.000000,0.000000,0.000000,0.562101,1.607659,1.269105,0.000481,-0.191467,1.330375,-0.465222
0.133000,-0.738577,0.370389,0.813962,0.999669,0.004675,-0.024439,0.006547,-0.738683,0.368634,0.813909,0.999669,0.004674,-0.024443,0.006535,200.000000,100.000000,0.000000,0.001408,0.000000,0.000000,0.000000,0.000000,0.000000,0.000000,0.562100,1.607657,1.269105,0.000478,-0.191467,1.330374,-0.465220
0.134000,-0.738578,0.370388,0.813962,0.999669,0.004675,-0.024439,0.006548,-0.738687,0.368581,0.813908,0.999669,0.004674,-0.024443,0.006535,200.000000,100.000000,0.000000,0.001441,0.000000,0.000000,0.000000,0.000000,0.000000,0.000000,0.562100,1.607655,1.269105,0.000475,-0.191467,1.330372,-0.465218
0.135000,-0.738579,0.370387,0.813961,0.999669,0.004675,-0.024439,0.006548,-0.738687,0.368581,0.813908,0.999669,0.004674,-0.024443,0.006535,200.000000,100.000000,0.000000,0.001468,0.000000,0.000000,0.000000,0.000000,0.000000,0.000000,0.562099,1.607653,1.269105,0.000472,-0.191467,1.330371,-0.465216
0.136000,-0.738579,0.370385,0.813961,0.999669,0.004675,-0.024439,0.006548,-0.738691,0.368526,0.813907,0.999669,0.004674,-0.024443,0.006535,200.000000,100.000000,0.000000,0.001502,0.000000,0.000000,0.000000,0.000000,0.000000,0.000000,0.562099,1.607651,1.269105,0.000469,-0.191467,1.330369,-0.465214
0.137000,-0.738580,0.370384,0.813961,0.999669,0.004675,-0.024439,0.006549,-0.738693,0.368498,0.813906,0.999669,0.004674,-0.024443,0.006535,200.000000,100.000000,0.000000,0.001529,0.000000,0.000000,0.000000,0.000000,0.000000,0.000000,0.562099,1.607650,1.269104,0.000465,-0.191466,1.330368,-0.465212
0.138000,-0.738580,0.370383,0.813961,0.999669,0.004675,-0.024439,0.006549,-0.738695,0.368470,0.813906,0.999669,0.004674,-0.024443,0.006535,200.000000,100.000000,0.000000,0.001565,0.000000,0.000000,0.000000,0.000000,0.000000,0.000000,0.562098,1.607648,1.269104,0.000462,-0.191466,1.330366,-0.465210
0.139000,-0.738581,0.370381,0.813961,0.999669,0.004675,-0.024439,0.006549,-0.738697,0.368442,0.813906,0.999669,0.004674,-0.024443,0.006535,200.000000,100.000000,0.000000,0.001593,0.000000,0.000000,0.000000,0.000000,0.000000,0.000000,0.562098,1.607646,1.269104,0.000459,-0.191466,1.330364,-0.465208
0.140000,-0.738581,0.370380,0.813960,0.999669,0.004675,-0.024439,0.006549,-0.738699,0.368414,0.813905,0.999669,0.004674,-0.024443,0.006535,200.000000,100.000000,0.000000,0.001629,0.000000,0.000000,0.000000,0.000000,0.000000,0.000000,0.562097,1.607644,1.269104,0.000455,-0.191466,1.330363,-0.465206
0.141000,-0.738582,0.370378,0.813960,0.999669,0.004675,-0.024439,0.006550,-0.738701,0.368386,0.813905,0.999669,0.004674,-0.024443,0.006535,200.000000,100.000000,0.000000,0.001658,0.000000,0.000000,0.000000,0.000000,0.000000,0.000000,0.562097,1.607641,1.269104,0.000452,-0.191466,1.330361,-0.465204
0.142000,-0.738583,0.370377,0.813960,0.999669,0.004675,-0.024439,0.006550,-0.738703,0.368357,0.813904,0.999669,0.004674,-0.024443,0.006535,200.000000,100.000000,0.000000,0.001695,0.000000,0.000000,0.000000,0.000000,0.000000,0.000000,0.562097,1.607639,1.269103,0.000449,-0.191466,1.330359,-0.465201
0.143000,-0.738583,0.370375,0.813960,0.999669,0.004675,-0.024439,0.006550,-0.738705,0.368328,0.813904,0.999669,0.004674,-0.024443,0.006535,200.000000,100.000000,0.000000,0.001725,0.000000,0.000000,0.000000,0.000000,0.000000,0.000000,0.562096,1.607637,1.269103,0.000445,-0.191466,1.330358,-0.465199
0.144000,-0.738584,0.370373,0.813959,0.999669,0.004675,-0.024439,0.006551,-0.738707,0.368299,0.813903,0.999669,0.004674,-0.024443,0.006535,200.000000,100.000000,0.000000,0.001763,0.000000,0.000000,0.000000,0.000000,0.000000,0.000000,0.562096,1.607635,1.269103,0.000442,-0.191465,1.330356,-0.465197
0.145000,-0.738585,0.370372,0.813959,0.999669,0.004675,-0.024439,0.006551,-0.738709,0.368270,0.813903,0.999669,0.004674,-0.024443,0.006535,200.000000,100.000000,0.000000,0.001793,0.000000,0.000000,0.000000,0.000000,0.000000,0.000000,0.562096,1.607633,1.269103,0.000438,-0.191465,1.330354,-0.465194
0.146000,-0.738585,0.370370,0.813959,0.999669,0.004675,-0.024439,0.006551,-0.738711,0.368241,0.813902,0.999669,0.004674,-0.024443,0.006535,200.000000,100.000000,0.000000,0.001832,0.000000,0.000000,0.000000,0.000000,0.000000,0.000000,0.562095,1.607631,1.269103,0.000435,-0.191465,1.330353,-0.465192
0.147000,-0.738586,0.370368,0.813959,0.999669,0.004675,-0.024438,0.006552,-0.738713,0.368211,0.813902,0.999669,0.004674,-0.024443,0.006535,200.000000,100.000000,0.000000,0.001863,0.000000,0.000000,0.000000,0.000000,0.000000,0.000000,0.562095,1.607628,1.269102,0.000431,-0.191465,1.330351,-0.465189
0.148000,-0.738587,0.370367,0.813958,0.999669,0.004675,-0.024438,0.006552,-0.738715,0.368181,0.813901,0.999669,0.004674,-0.024443,0.006535,200.000000,100.000000,0.000000,0.001902,0.000000,0.000000,0.000000,0.000000,0.000000,0.000000,0.562095,1.607626,1.269102,0.000428,-0.191465,1.330349,-0.465187
0.149000,-0.738588,0.370365,0.813958,0.999669,0.004675,-0.024438,0.006552,-0.738717,0.368151,0.813901,0.999669,0.004674,-0.024443,0.006535,200.000000,100.000000,0.000000,0.001935,0.000000,0.000000,0.000000,0.000000,0.000000,0.000000,0.562094,1.607624,1.269102,0.000424,-0.191465,1.330347,-0.465184
0.150000,-0.738588,0.370363,0.813958,0.999669,0.004675,-0.024438,0.006553,-0.738720,0.368121,0.813900,0.999669,0.004674,-0.024443,0.006535,200.000000,100.000000,0.000000,0.001975,0.000000,0.000000,0.000000,0.000000,0.000000,0.000000,0.562094,1.607621,1.269102,0.000420,-0.191464,1.330345,-0.465182
0.151000,-0.738589,0.370361,0.813958,0.999669,0.004675,-0.024438,0.006553,-0.738722,0.368091,0.813900,0.999669,0.004674,-0.024443,0.006535,200.000000,100.000000,0.000000,0.002008,0.000000,0.000000,0.000000,0.000000,0.000000,0.000000,0.562094,1.607619,1.269101,0.000417,-0.191464,1.330344,-0.465179
0.152000,-0.738590,0.370359,0.813957,0.999669,0.004675,-0.024438,0.006553,-0.738724,0.368060,0.813899,0.999669,0.004674,-0.024443,0.006535,200.000000,100.000000,0.000000,0.002049,0.000000,0.000000,0.000000,0.000000,0.000000,0.000000,0.562094,1.607616,1.269101,0.000413,-0.191464,1.330342,-0.465177
0.153000,-0.738591,0.370357,0.813957,0.999669,0.004675,-0.024438,0.006554,-0.738726,0.368029,0.813899,0.999669,0.004674,-0.024443,0.006535,200.000000,100.000000,0.000000,0.002082,0.000000,0.000000,0.000000,0.000000,0.000000,0.000000,0.562094,1.607614,1.269101,0.000409,-0.191464,1.330340,-0.465174
0.154000,-0.738591,0.370355,0.813957,0.999669,0.004675,-0.024438,0.006554,-0.738726,0.368029,0.813899,0.999669,0.004674,-0.024443,0.006535,200.000000,100.000000,0.000000,0.002124,0.000000,0.000000,0.000000,0.000000,0.000000,0.000000,0.562093,1.607611,1.269101,0.000405,-0.191464,1.330338,-0.465171
0.155000,-0.738592,0.370353,0.813956,0.999669,0.004675,-0.024438,0.006555,-0.738730,0.367967,0.813898,0.999669,0.004674,-0.024443,0.006535,200.000000,100.000000,0.000000,0.002158,0.000000,0.000000,0.000000,0.000000,0.000000,0.000000,0.562093,1.607609,1.269100,0.000401,-0.191464,1.330336,-0.465168
0.156000,-0.738593,0.370351,0.813956,0.999669,0.004675,-0.024438,0.006555,-0.738733,0.367935,0.813897,0.999669,0.004674,-0.024443,0.006535,200.000000,100.000000,0.000000,0.002201,0.000000,0.000000,0.000000,0.000000,0.000000,0.000000,0.562093,1.607606,1.269100,0.000398,-0.191463,1.330334,-0.465165
0.157000,-0.738594,0.370349,0.813956,0.999669,0.004675,-0.024438,0.006555,-0.738735,0.367904,0.813897,0.999669,0.004674,-0.024443,0.006535,200.000000,100.000000,0.000000,0.002236,0.000000,0.000000,0.000000,0.000000,0.000000,0.000000,0.562093,1.607603,1.269100,0.000394,-0.191463,1.330332,-0.465162
0.158000,-0.738595,0.370347,0.813955,0.999669,0.004675,-0.024438,0.006556,-0.738737,0.367872,0.813896,0.999669,0.004674,-0.024443,0.006535,200.000000,100.000000,0.000000,0.002280,0.000000,0.000000,0.000000,0.000000,0.000000,0.000000,0.562093,1.607601,1.269100,0.000390,-0.191463,1.330330,-0.465159
0.159000,-0.738596,0.370345,0.813955,0.999669,0.004675,-0.024438,0.006556,-0.738739,0.367840,0.813896,0.999669,0.004674,-0.024443,0.006535,200.000000,100.000000,0.000000,0.002315,0.000000,0.000000,0.000000,0.000000,0.000000,0.000000,0.562092,1.607598,1.269099,0.000386,-0.191463,1.330328,-0.465156
0.160000,-0.738597,0.370343,0.813955,0.999669,0.004675,-0.024438,0.006556,-0.738739,0.367840,0.813896,0.999669,0.004674,-0.024443,0.006535,200.000000,100.000000,0.000000,0.002360,0.000000,0.000000,0.000000,0.000000,0.000000,0.000000,0.562092,1.607595,1.269099,0.000382,-0.191463,1.330326,-0.465153
0.161000,-0.738598,0.370341,0.813954,0.999669,0.004675,-0.024438,0.006557,-0.738742,0.367808,0.813895,0.999669,0.004674,-0.024443,0.006535,200.000000,100.000000,0.000000,0.002396,0.000000,0.000000,0.000000,0.000000,0.000000,0.000000,0.562092,1.607592,1.269099,0.000378,-0.191463,1.330324,-0.465150
0.161000,-0.738598,0.370339,0.813954,0.999669,0.004675,-0.024437,0.006557,-0.738746,0.367743,0.813894,0.999669,0.004674,-0.024443,0.006535,200.000000,100.000000,0.000000,0.002441,0.000000,0.000000,0.000000,0.000000,0.000000,0.000000,0.562092,1.607589,1.269099,0.000374,-0.191462,1.330322,-0.465147
0.161000,-0.738599,0.370336,0.813954,0.999669,0.004675,-0.024437,0.006558,-0.738749,0.367710,0.813894,0.999669,0.004674,-0.024443,0.006535,200.000000,100.000000,0.000000,0.002478,0.000000,0.000000,0.000000,0.000000,0.000000,0.000000,0.562092,1.607587,1.269098,0.000369,-0.191462,1.330320,-0.465144
0.164000,-0.738600,0.370334,0.813953,0.999669,0.004675,-0.024437,0.006558,-0.738751,0.367677,0.813893,0.999669,0.004674,-0.024443,0.006535,200.000000,100.000000,0.000000,0.002524,0.000000,0.000000,0.000000,0.000000,0.000000,0.000000,0.562092,1.607584,1.269098,0.000365,-0.191462,1.330318,-0.465140
0.165000,-0.738601,0.370332,0.813953,0.999669,0.004676,-0.024437,0.006559,-0.738753,0.367644,0.813893,0.999669,0.004674,-0.024443,0.006535,200.000000,100.000000,0.000000,0.002563,0.000000,0.000000,0.000000,0.000000,0.000000,0.000000,0.562092,1.607581,1.269098,0.000361,-0.191462,1.330316,-0.465137
0.166000,-0.738602,0.370329,0.813952,0.999669,0.004676,-0.024437,0.006559,-0.738756,0.367610,0.813892,0.999669,0.004674,-0.024443,0.006535,200.000000,100.000000,0.000000,0.002610,0.000000,0.000000,0.000000,0.000000,0.000000,0.000000,0.562092,1.607577,1.269097,0.000357,-0.191462,1.330313,-0.465134
0.167000,-0.738603,0.370327,0.813952,0.999669,0.004676,-0.024437,0.006559,-0.738758,0.367577,0.813892,0.999669,0.004674,-0.024443,0.006535,200.000000,100.000000,0.000000,0.002649,0.000000,0.000000,0.000000,0.000000,0.000000,0.000000,0.562092,1.607574,1.269097,0.000352,-0.191462,1.330311,-0.465130
0.168000,-0.738604,0.370324,0.813952,0.999669,0.004676,-0.024437,0.006560,-0.738760,0.367543,0.813891,0.999669,0.004674,-0.024443,0.006535,200.000000,100.000000,0.000000,0.002697,0.000000,0.000000,0.000000,0.000000,0.000000,0.000000,0.562092,1.607571,1.269097,0.000348,-0.191462,1.330309,-0.465127
0.169000,-0.738605,0.370322,0.813951,0.999669,0.004676,-0.024437,0.006560,-0.738763,0.367509,0.813891,0.999669,0.004674,-0.024443,0.006535,200.000000,100.000000,0.000000,0.002737,0.000000,0.000000,0.000000,0.000000,0.000000,0.000000,0.562092,1.607568,1.269097,0.000344,-0.191461,1.330307,-0.465123
0.170000,-0.738606,0.370319,0.813951,0.999669,0.004676,-0.024437,0.006561,-0.738763,0.367509,0.813891,0.999669,0.004674,-0.024443,0.006535,200.000000,100.000000,0.000000,0.002786,0.000000,0.000000,0.000000,0.000000,0.000000,0.000000,0.562092,1.607565,1.269096,0.000339,-0.191461,1.330305,-0.465120
0.170000,-0.738607,0.370317,0.813950,0.999669,0.004676,-0.024437,0.006561,-0.738765,0.367475,0.813890,0.999669,0.004674,-0.024443,0.006535,200.000000,100.000000,0.000000,0.002826,0.000000,0.000000,0.000000,0.000000,0.000000,0.000000,0.562092,1.607561,1.269096,0.000335,-0.191461,1.330302,-0.465116
0.172000,-0.738609,0.370314,0.813950,0.999669,0.004676,-0.024437,0.006562,-0.738768,0.367440,0.813889,0.999669,0.004674,-0.024443,0.006535,200.000000,100.000000,0.000000,0.002874,0.000000,0.000000,0.000000,0.000000,0.000000,0.000000,0.562092,1.607558,1.269096,0.000330,-0.191461,1.330300,-0.465112
0.173000,-0.738610,0.370312,0.813950,0.999669,0.004676,-0.024437,0.006562,-0.738772,0.367371,0.813888,0.999669,0.004674,-0.024443,0.006535,200.000000,100.000000,0.000000,0.002916,0.000000,0.000000,0.000000,0.000000,0.000000,0.000000,0.562092,1.607555,1.269095,0.000326,-0.191461,1.330298,-0.465108
0.174000,-0.738611,0.370309,0.813949,0.999669,0.004676,-0.024436,0.006563,-0.738775,0.367336,0.813888,0.999669,0.004674,-0.024443,0.006535,200.000000,100.000000,0.000000,0.002966,0.000000,0.000000,0.000000,0.000000,0.000000,0.000000,0.562092,1.607551,1.269095,0.000321,-0.191461,1.330295,-0.465105
0.175000,-0.738612,0.370306,0.813949,0.999669,0.004676,-0.024436,0.006563,-0.738777,0.367301,0.813887,0.999669,0.004674,-0.024443,0.006535,200.000000,100.000000,0.000000,0.003009,0.000000,0.000000,0.000000,0.000000,0.000000,0.000000,0.562092,1.607548,1.269095,0.000317,-0.191460,1.330293,-0.465101
0.176000,-0.738613,0.370303,0.813948,0.999669,0.004676,-0.024436,0.006564,-0.738780,0.367265,0.813887,0.999669,0.004674,-0.024443,0.006535,200.000000,100.000000,0.000000,0.003060,0.000000,0.000000,0.000000,0.000000,0.000000,0.000000,0.562092,1.607544,1.269094,0.000312,-0.191460,1.330290,-0.465097
0.176000,-0.738614,0.370300,0.813948,0.999669,0.004676,-0.024436,0.006564,-0.738782,0.367230,0.813886,0.999669,0.004674,-0.024443,0.006535,200.000000,100.000000,0.000000,0.003103,0.000000,0.000000,0.000000,0.000000,0.000000,0.000000,0.562092,1.607541,1.269094,0.000307,-0.191460,1.330288,-0.465093
0.178000,-0.738615,0.370298,0.813947,0.999669,0.004676,-0.024436,0.006565,-0.738782,0.367230,0.813886,0.999669,0.004674,-0.024443,0.006535,200.000000,100.000000,0.000000,0.003155,0.000000,0.000000,0.000000,0.000000,0.000000,0.000000,0.562093,1.607537,1.269094,0.000302,-0.191460,1.330286,-0.465089
0.179000,-0.738617,0.370295,0.813947,0.999669,0.004676,-0.024436,0.006565,-0.738788,0.367158,0.813885,0.999669,0.004674,-0.024443,0.006535,200.000000,100.000000,0.000000,0.003199,0.000000,0.000000,0.000000,0.000000,0.000000,0.000000,0.562093,1.607533,1.269093,0.000298,-0.191460,1.330283,-0.465084
0.180000,-0.738618,0.370292,0.813946,0.999669,0.004676,-0.024436,0.006566,-0.738788,0.367158,0.813885,0.999669,0.004674,-0.024443,0.006535,200.000000,100.000000,0.000000,0.003252,0.000000,0.000000,0.000000,0.000000,0.000000,0.000000,0.562093,1.607529,1.269093,0.000293,-0.191460,1.330281,-0.465080
0.181000,-0.738619,0.370289,0.813946,0.999669,0.004676,-0.024436,0.006566,-0.738793,0.367085,0.813884,0.999669,0.004674,-0.024443,0.006535,200.000000,100.000000,0.000000,0.003297,0.000000,0.000000,0.000000,0.000000,0.000000,0.000000,0.562093,1.607526,1.269093,0.000288,-0.191460,1.330278,-0.465076
0.182000,-0.738620,0.370286,0.813945,0.999669,0.004676,-0.024436,0.006567,-0.738795,0.367049,0.813883,0.999669,0.004674,-0.024443,0.006535,200.000000,100.000000,0.000000,0.003351,0.000000,0.000000,0.000000,0.000000,0.000000,0.000000,0.562093,1.607522,1.269092,0.000283,-0.191460,1.330276,-0.465072
0.182000,-0.738622,0.370282,0.813945,0.999669,0.004676,-0.024436,0.006567,-0.738798,0.367012,0.813883,0.999669,0.004674,-0.024443,0.006535,200.000000,100.000000,0.000000,0.003396,0.000000,0.000000,0.000000,0.000000,0.000000,0.000000,0.562093,1.607518,1.269092,0.000278,-0.191459,1.330273,-0.465067
0.184000,-0.738623,0.370279,0.813944,0.999669,0.004676,-0.024436,0.006568,-0.738798,0.367012,0.813883,0.999669,0.004674,-0.024443,0.006535,200.000000,100.000000,0.000000,0.003451,0.000000,0.000000,0.000000,0.000000,0.000000,0.000000,0.562094,1.607514,1.269091,0.000273,-0.191459,1.330270,-0.465063
0.185000,-0.738624,0.370276,0.813944,0.999669,0.004676,-0.024435,0.006568,-0.738803,0.366938,0.813881,0.999669,0.004674,-0.024443,0.006535,200.000000,100.000000,0.000000,0.003497,0.000000,0.000000,0.000000,0.000000,0.000000,0.000000,0.562094,1.607510,1.269091,0.000268,-0.191459,1.330268,-0.465058
0.186000,-0.738626,0.370273,0.813943,0.999669,0.004676,-0.024435,0.006569,-0.738806,0.366900,0.813881,0.999669,0.004674,-0.024443,0.006535,200.000000,100.000000,0.000000,0.003553,0.000000,0.000000,0.000000,0.000000,0.000000,0.000000,0.562094,1.607506,1.269091,0.000263,-0.191459,1.330265,-0.465054
0.187000,-0.738627,0.370270,0.813943,0.999669,0.004676,-0.024435,0.006569,-0.738808,0.366863,0.813880,0.999669,0.004674,-0.024443,0.006535,200.000000,100.000000,0.000000,0.003601,0.000000,0.000000,0.000000,0.000000,0.000000,0.000000,0.562095,1.607502,1.269090,0.000258,-0.191459,1.330262,-0.465049
0.188000,-0.738628,0.370266,0.813942,0.999669,0.004676,-0.024435,0.006570,-0.738811,0.366825,0.813880,0.999669,0.004674,-0.024443,0.006535,200.000000,100.000000,0.000000,0.003657,0.000000,0.000000,0.000000,0.000000,0.000000,0.000000,0.562095,1.607497,1.269090,0.000252,-0.191459,1.330260,-0.465044
0.189000,-0.738630,0.370263,0.813942,0.999669,0.004676,-0.024435,0.006570,-0.738814,0.366787,0.813879,0.999669,0.004674,-0.024443,0.006535,200.000000,100.000000,0.000000,0.003706,0.000000,0.000000,0.000000,0.000000,0.000000,0.000000,0.562095,1.607493,1.269090,0.000247,-0.191459,1.330257,-0.465039
0.190000,-0.738631,0.370259,0.813941,0.999669,0.004676,-0.024435,0.006571,-0.738816,0.366749,0.813878,0.999669,0.004674,-0.024443,0.006535,200.000000,100.000000,0.000000,0.003763,0.000000,0.000000,0.000000,0.000000,0.000000,0.000000,0.562096,1.607489,1.269089,0.000242,-0.191459,1.330254,-0.465035
0.191000,-0.738633,0.370256,0.813941,0.999669,0.004676,-0.024435,0.006571,-0.738819,0.366710,0.813878,0.999669,0.004674,-0.024443,0.006535,200.000000,100.000000,0.000000,0.003813,0.000000,0.000000,0.000000,0.000000,0.000000,0.000000,0.562096,1.607484,1.269089,0.000236,-0.191458,1.330251,-0.465030
0.192000,-0.738634,0.370252,0.813940,0.999669,0.004676,-0.024435,0.006572,-0.738822,0.366672,0.813877,0.999669,0.004674,-0.024443,0.006535,200.000000,100.000000,0.000000,0.003871,0.000000,0.000000,0.000000,0.000000,0.000000,0.000000,0.562096,1.607480,1.269088,0.000231,-0.191458,1.330248,-0.465025
0.193000,-0.738636,0.370249,0.813939,0.999669,0.004676,-0.024435,0.006573,-0.738825,0.366633,0.813877,0.999669,0.004674,-0.024443,0.006535,200.000000,100.000000,0.000000,0.003922,0.000000,0.000000,0.000000,0.000000,0.000000,0.000000,0.562097,1.607475,1.269088,0.000226,-0.191458,1.330246,-0.465020
0.194000,-0.738637,0.370245,0.813939,0.999669,0.004676,-0.024434,0.006573,-0.738827,0.366594,0.813876,0.999669,0.004674,-0.024443,0.006535,200.000000,100.000000,0.000000,0.003981,0.000000,0.000000,0.000000,0.000000,0.000000,0.000000,0.562097,1.607471,1.269088,0.000220,-0.191458,1.330243,-0.465015
0.195000,-0.738639,0.370242,0.813938,0.999669,0.004677,-0.024434,0.006574,-0.738830,0.366555,0.813875,0.999669,0.004674,-0.024443,0.006535,200.000000,100.000000,0.000000,0.004032,0.000000,0.000000,0.000000,0.000000,0.000000,0.000000,0.562098,1.607466,1.269087,0.000215,-0.191458,1.330240,-0.465009
0.196000,-0.738640,0.370238,0.813938,0.999669,0.004677,-0.024434,0.006574,-0.738833,0.366515,0.813875,0.999669,0.004674,-0.024443,0.006535,200.000000,100.000000,0.000000,0.004092,0.000000,0.000000,0.000000,0.000000,0.000000,0.000000,0.562098,1.607462,1.269087,0.000209,-0.191458,1.330237,-0.465004
0.197000,-0.738642,0.370234,0.813937,0.999669,0.004677,-0.024434,0.006575,-0.738836,0.366476,0.813874,0.999669,0.004674,-0.024443,0.006535,200.000000,100.000000,0.000000,0.004144,0.000000,0.000000,0.000000,0.000000,0.000000,0.000000,0.562099,1.607457,1.269086,0.000203,-0.191458,1.330234,-0.464999
0.198000,-0.738643,0.370230,0.813936,0.999669,0.004677,-0.024434,0.006576,-0.738838,0.366436,0.813873,0.999669,0.004674,-0.024443,0.006535,200.000000,100.000000,0.000000,0.004205,0.000000,0.000000,0.000000,0.000000,0.000000,0.000000,0.562099,1.607452,1.269086,0.000198,-0.191458,1.330231,-0.464993
0.199000,-0.738645,0.370226,0.813936,0.999669,0.004677,-0.024434,0.006576,-0.738838,0.366436,0.813873,0.999669,0.004674,-0.024443,0.006535,200.000000,100.000000,0.000000,0.004258,0.000000,0.000000,0.000000,0.000000,0.000000,0.000000,0.562100,1.607447,1.269085,0.000192,-0.191458,1.330228,-0.464988
0.200000,-0.738647,0.370222,0.813935,0.999669,0.004677,-0.024434,0.006577,-0.738844,0.366356,0.813872,0.999669,0.004674,-0.024443,0.006535,200.000000,100.000000,0.000000,0.004319,0.000000,0.000000,0.000000,0.000000,0.000000,0.000000,0.562100,1.607442,1.269085,0.000186,-0.191457,1.330225,-0.464982
0.201000,-0.738648,0.370218,0.813934,0.999669,0.004677,-0.024434,0.006577,-0.738847,0.366315,0.813871,0.999669,0.004674,-0.024443,0.006535,200.000000,100.000000,0.000000,0.004373,0.000000,0.000000,0.000000,0.000000,0.000000,0.000000,0.562101,1.607437,1.269085,0.000180,-0.191457,1.330222,-0.464977
0.202000,-0.738650,0.370214,0.813934,0.999669,0.004677,-0.024433,0.006578,-0.738850,0.366275,0.813871,0.999669,0.004674,-0.024443,0.006535,200.000000,100.000000,0.000000,0.004436,0.000000,0.000000,0.000000,0.000000,0.000000,0.000000,0.562101,1.607432,1.269084,0.000174,-0.191457,1.330218,-0.464971
0.203000,-0.738652,0.370210,0.813933,0.999669,0.004677,-0.024433,0.006579,-0.738853,0.366234,0.813870,0.999669,0.004674,-0.024443,0.006535,200.000000,100.000000,0.000000,0.004491,0.000000,0.000000,0.000000,0.000000,0.000000,0.000000,0.562102,1.607427,1.269084,0.000168,-0.191457,1.330215,-0.464965
0.204000,-0.738653,0.370206,0.813932,0.999669,0.004677,-0.024433,0.006579,-0.738856,0.366193,0.813870,0.999669,0.004674,-0.024443,0.006535,200.000000,100.000000,0.000000,0.004554,0.000000,0.000000,0.000000,0.000000,0.000000,0.000000,0.562102,1.607422,1.269083,0.000162,-0.191457,1.330212,-0.464959
0.205000,-0.738655,0.370202,0.813932,0.999669,0.004677,-0.024433,0.006580,-0.738859,0.366152,0.813869,0.999669,0.004674,-0.024443,0.006535,200.000000,100.000000,0.000000,0.004610,0.000000,0.000000,0.000000,0.000000,0.000000,0.000000,0.562103,1.607417,1.269083,0.000156,-0.191457,1.330209,-0.464953
0.206000,-0.738657,0.370198,0.813931,0.999669,0.004677,-0.024433,0.006581,-0.738861,0.366110,0.813868,0.999669,0.004674,-0.024443,0.006535,200.000000,100.000000,0.000000,0.004675,0.000000,0.000000,0.000000,0.000000,0.000000,0.000000,0.562104,1.607412,1.269082,0.000150,-0.191457,1.330206,-0.464947
0.207000,-0.738659,0.370193,0.813930,0.999669,0.004677,-0.024433,0.006581,-0.738861,0.366110,0.813868,0.999669,0.004674,-0.024443,0.006535,200.000000,100.000000,0.000000,0.004731,0.000000,0.000000,0.000000,0.000000,0.000000,0.000000,0.562104,1.607406,1.269082,0.000144,-0.191457,1.330202,-0.464941
0.208000,-0.738661,0.370189,0.813930,0.999669,0.004677,-0.024433,0.006582,-0.738867,0.366027,0.813867,0.999669,0.004674,-0.024443,0.006535,200.000000,100.000000,0.000000,0.004796,0.000000,0.000000,0.000000,0.000000,0.000000,0.000000,0.562105,1.607401,1.269081,0.000138,-0.191457,1.330199,-0.464935
0.209000,-0.738662,0.370184,0.813929,0.999669,0.004677,-0.024432,0.006583,-0.738870,0.365985,0.813866,0.999669,0.004674,-0.024443,0.006535,200.000000,100.000000,0.000000,0.004854,0.000000,0.000000,0.000000,0.000000,0.000000,0.000000,0.562106,1.607395,1.269081,0.000131,-0.191457,1.330196,-0.464929
0.210000,-0.738664,0.370180,0.813928,0.999669,0.004677,-0.024432,0.006583,-0.738873,0.365943,0.813866,0.999669,0.004674,-0.024443,0.006535,200.000000,100.000000,0.000000,0.004920,0.000000,0.000000,0.000000,0.000000,0.000000,0.000000,0.562107,1.607390,1.269080,0.000125,-0.191457,1.330192,-0.464922
0.211000,-0.738666,0.370175,0.813927,0.999669,0.004677,-0.024432,0.006584,-0.738876,0.365900,0.813865,0.999669,0.004674,-0.024443,0.006535,200.000000,100.000000,0.000000,0.004978,0.000000,0.000000,0.000000,0.000000,0.000000,0.000000,0.562107,1.607384,1.269080,0.000119,-0.191457,1.330189,-0.464916
0.212000,-0.738668,0.370171,0.813927,0.999669,0.004677,-0.024432,0.006585,-0.738879,0.365858,0.813864,0.999669,0.004674,-0.024443,0.006535,200.000000,100.000000,0.000000,0.005045,0.000000,0.000000,0.000000,0.000000,0.000000,0.000000,0.562108,1.607378,1.269079,0.000112,-0.191457,1.330185,-0.464910
0.213000,-0.738670,0.370166,0.813926,0.999669,0.004677,-0.024432,0.006585,-0.738882,0.365815,0.813863,0.999669,0.004674,-0.024443,0.006535,200.000000,100.000000,0.000000,0.005105,0.000000,0.000000,0.000000,0.000000,0.000000,0.000000,0.562109,1.607373,1.269079,0.000106,-0.191457,1.330182,-0.464903
0.214000,-0.738672,0.370161,0.813925,0.999669,0.004677,-0.024432,0.006586,-0.738885,0.365772,0.813863,0.999669,0.004674,-0.024443,0.006535,200.000000,100.000000,0.000000,0.005173,0.000000,0.000000,0.000000,0.000000,0.000000,0.000000,0.562110,1.607367,1.269078,0.000099,-0.191457,1.330178,-0.464896
0.214000,-0.738674,0.370157,0.813924,0.999669,0.004677,-0.024431,0.006587,-0.738888,0.365729,0.813862,0.999669,0.004674,-0.024443,0.006535,200.000000,100.000000,0.000000,0.005233,0.000000,0.000000,0.000000,0.000000,0.000000,0.000000,0.562111,1.607361,1.269078,0.000093,-0.191457,1.330175,-0.464890
0.216000,-0.738676,0.370152,0.813923,0.999669,0.004678,-0.024431,0.006588,-0.738891,0.365685,0.813861,0.999669,0.004674,-0.024443,0.006535,200.000000,100.000000,0.000000,0.005302,0.000000,0.000000,0.000000,0.000000,0.000000,0.000000,0.562112,1.607355,1.269077,0.000086,-0.191457,1.330171,-0.464883
0.217000,-0.738678,0.370147,0.813923,0.999669,0.004678,-0.024431,0.006588,-0.738895,0.365642,0.813861,0.999669,0.004674,-0.024443,0.006535,200.000000,100.000000,0.000000,0.005364,0.000000,0.000000,0.000000,0.000000,0.000000,0.000000,0.562113,1.607349,1.269077,0.000079,-0.191457,1.330168,-0.464876
0.218000,-0.738680,0.370142,0.813922,0.999669,0.004678,-0.024431,0.006589,-0.738898,0.365598,0.813860,0.999669,0.004674,-0.024443,0.006535,200.000000,100.000000,0.000000,0.005434,0.000000,0.000000,0.000000,0.000000,0.000000,0.000000,0.562114,1.607343,1.269076,0.000072,-0.191456,1.330164,-0.464869
0.219000,-0.738682,0.370137,0.813921,0.999669,0.004678,-0.024431,0.006590,-0.738901,0.365554,0.813859,0.999669,0.004674,-0.024443,0.006535,200.000000,100.000000,0.000000,0.005496,0.000000,0.000000,0.000000,0.000000,0.000000,0.000000,0.562114,1.607336,1.269076,0.000065,-0.191456,1.330160,-0.464862
0.220000,-0.738684,0.370132,0.813920,0.999669,0.004678,-0.024431,0.006590,-0.738904,0.365510,0.813859,0.999669,0.004674,-0.024443,0.006535,200.000000,100.000000,0.000000,0.005566,0.000000,0.000000,0.000000,0.000000,0.000000,0.000000,0.562115,1.607330,1.269075,0.000059,-0.191456,1.330157,-0.464855
0.221000,-0.738687,0.370127,0.813919,0.999669,0.004678,-0.024431,0.006591,-0.738907,0.365465,0.813858,0.999669,0.004674,-0.024443,0.006535,200.000000,100.000000,0.000000,0.005630,0.000000,0.000000,0.000000,0.000000,0.000000,0.000000,0.562116,1.607324,1.269074,0.000052,-0.191456,1.330153,-0.464847
0.222000,-0.738689,0.370122,0.813919,0.999669,0.004678,-0.024430,0.006592,-0.738910,0.365421,0.813857,0.999669,0.004674,-0.024443,0.006535,200.000000,100.000000,0.000000,0.005701,0.000000,0.000000,0.000000,0.000000,0.000000,0.000000,0.562117,1.607317,1.269074,0.000045,-0.191456,1.330149,-0.464840
0.223000,-0.738691,0.370116,0.813918,0.999669,0.004678,-0.024430,0.006593,-0.738913,0.365376,0.813856,0.999669,0.004674,-0.024443,0.006535,200.000000,100.000000,0.000000,0.005765,0.000000,0.000000,0.000000,0.000000,0.000000,0.000000,0.562119,1.607311,1.269073,0.000037,-0.191456,1.330145,-0.464833
0.224000,-0.738693,0.370111,0.813917,0.999669,0.004678,-0.024430,0.006593,-0.738916,0.365331,0.813856,0.999669,0.004674,-0.024443,0.006535,200.000000,100.000000,0.000000,0.005838,0.000000,0.000000,0.000000,0.000000,0.000000,0.000000,0.562120,1.607304,1.269073,0.000030,-0.191456,1.330141,-0.464825
0.225000,-0.738695,0.370106,0.813916,0.999669,0.004678,-0.024430,0.006594,-0.738920,0.365286,0.813855,0.999669,0.004674,-0.024443,0.006535,200.000000,100.000000,0.000000,0.005903,0.000000,0.000000,0.000000,0.000000,0.000000,0.000000,0.562121,1.607298,1.269072,0.000023,-0.191457,1.330138,-0.464818
0.226000,-0.738698,0.370100,0.813915,0.999669,0.004678,-0.024430,0.006595,-0.738920,0.365286,0.813855,0.999669,0.004674,-0.024443,0.006535,200.000000,100.000000,0.000000,0.005976,0.000000,0.000000,0.000000,0.000000,0.000000,0.000000,0.562122,1.607291,1.269071,0.000016,-0.191457,1.330134,-0.464810
0.227000,-0.738700,0.370095,0.813914,0.999669,0.004678,-0.024429,0.006596,-0.738926,0.365195,0.813854,0.999669,0.004674,-0.024443,0.006535,200.000000,100.000000,0.000000,0.006041,0.000000,0.000000,0.000000,0.000000,0.000000,0.000000,0.562123,1.607284,1.269071,0.000009,-0.191457,1.330130,-0.464802
0.228000,-0.738702,0.370089,0.813913,0.999669,0.004678,-0.024429,0.006597,-0.738929,0.365149,0.813853,0.999669,0.004674,-0.024443,0.006535,200.000000,100.000000,0.000000,0.006116,0.000000,0.000000,0.000000,0.000000,0.000000,0.000000,0.562124,1.607277,1.269070,0.000001,-0.191457,1.330126,-0.464794
0.229000,-0.738705,0.370083,0.813912,0.999669,0.004678,-0.024429,0.006597,-0.738929,0.365149,0.813853,0.999669,0.004674,-0.024443,0.006535,200.000000,100.000000,0.000000,0.006182,0.000000,0.000000,0.000000,0.000000,0.000000,0.000000,0.562125,1.607270,1.269070,-0.000006,-0.191457,1.330122,-0.464786
0.230000,-0.738707,0.370078,0.813911,0.999669,0.004678,-0.024429,0.006598,-0.738936,0.365057,0.813851,0.999669,0.004674,-0.024443,0.006535,200.000000,100.000000,0.000000,0.006257,0.000000,0.000000,0.000000,0.000000,0.000000,0.000000,0.562127,1.607263,1.269069,-0.000014,-0.191457,1.330118,-0.464778
0.231000,-0.738709,0.370072,0.813910,0.999669,0.004678,-0.024429,0.006599,-0.738939,0.365011,0.813851,0.999669,0.004674,-0.024443,0.006535,200.000000,100.000000,0.000000,0.006324,0.000000,0.000000,0.000000,0.000000,0.000000,0.000000,0.562128,1.607256,1.269068,-0.000021,-0.191457,1.330113,-0.464770
0.232000,-0.738712,0.370066,0.813910,0.999669,0.004678,-0.024429,0.006600,-0.738939,0.365011,0.813851,0.999669,0.004674,-0.024443,0.006535,200.000000,100.000000,0.000000,0.006401,0.000000,0.000000,0.000000,0.000000,0.000000,0.000000,0.562129,1.607249,1.269068,-0.000029,-0.191457,1.330109,-0.464762
0.232000,-0.738714,0.370060,0.813909,0.999669,0.004678,-0.024428,0.006601,-0.738946,0.364917,0.813849,0.999669,0.004674,-0.024443,0.006535,200.000000,100.000000,0.000000,0.006468,0.000000,0.000000,0.000000,0.000000,0.000000,0.000000,0.562130,1.607242,1.269067,-0.000037,-0.191457,1.330105,-0.464754
0.234000,-0.738717,0.370054,0.813908,0.999669,0.004679,-0.024428,0.006601,-0.738946,0.364917,0.813849,0.999669,0.004674,-0.024443,0.006535,200.000000,100.000000,0.000000,0.006545,0.000000,0.000000,0.000000,0.000000,0.000000,0.000000,0.562132,1.607235,1.269066,-0.000044,-0.191457,1.330101,-0.464745
0.235000,-0.738719,0.370048,0.813907,0.999669,0.004679,-0.024428,0.006602,-0.738952,0.364823,0.813848,0.999669,0.004674,-0.024443,0.006535,200.000000,100.000000,0.000000,0.006614,0.000000,0.000000,0.000000,0.000000,0.000000,0.000000,0.562133,1.607227,1.269066,-0.000052,-0.191457,1.330097,-0.464737
0.236000,-0.738722,0.370042,0.813906,0.999669,0.004679,-0.024428,0.006603,-0.738952,0.364823,0.813848,0.999669,0.004674,-0.024443,0.006535,200.000000,100.000000,0.000000,0.006692,0.000000,0.000000,0.000000,0.000000,0.000000,0.000000,0.562134,1.607220,1.269065,-0.000060,-0.191457,1.330092,-0.464728
0.237000,-0.738725,0.370036,0.813905,0.999669,0.004679,-0.024428,0.006604,-0.738959,0.364728,0.813846,0.999669,0.004674,-0.024443,0.006535,200.000000,100.000000,0.000000,0.006762,0.000000,0.000000,0.000000,0.000000,0.000000,0.000000,0.562136,1.607212,1.269065,-0.000068,-0.191457,1.330088,-0.464719
0.238000,-0.738727,0.370030,0.813904,0.999669,0.004679,-0.024427,0.006605,-0.738959,0.364728,0.813846,0.999669,0.004674,-0.024443,0.006535,200.000000,100.000000,0.000000,0.006841,0.000000,0.000000,0.000000,0.000000,0.000000,0.000000,0.562137,1.607204,1.269064,-0.000076,-0.191457,1.330084,-0.464711
0.239000,-0.738730,0.370023,0.813903,0.999669,0.004679,-0.024427,0.006606,-0.738962,0.364680,0.813845,0.999669,0.004674,-0.024443,0.006535,200.000000,100.000000,0.000000,0.006911,0.000000,0.000000,0.000000,0.000000,0.000000,0.000000,0.562139,1.607197,1.269063,-0.000084,-0.191457,1.330079,-0.464702
0.240000,-0.738732,0.370017,0.813902,0.999669,0.004679,-0.024427,0.006606,-0.738969,0.364584,0.813844,0.999669,0.004674,-0.024443,0.006535,200.000000,100.000000,0.000000,0.006990,0.000000,0.000000,0.000000,0.000000,0.000000,0.000000,0.562140,1.607189,1.269062,-0.000092,-0.191457,1.330075,-0.464693
0.241000,-0.738735,0.370010,0.813901,0.999669,0.004679,-0.024427,0.006607,-0.738973,0.364536,0.813843,0.999669,0.004674,-0.024443,0.006535,200.000000,100.000000,0.000000,0.007062,0.000000,0.000000,0.000000,0.000000,0.000000,0.000000,0.562142,1.607181,1.269062,-0.000100,-0.191458,1.330070,-0.464684
0.242000,-0.738738,0.370004,0.813900,0.999669,0.004679,-0.024426,0.006608,-0.738973,0.364536,0.813843,0.999669,0.004674,-0.024443,0.006535,200.000000,100.000000,0.000000,0.007143,0.000000,0.000000,0.000000,0.000000,0.000000,0.000000,0.562143,1.607173,1.269061,-0.000109,-0.191458,1.330066,-0.464674
0.243000,-0.738741,0.369997,0.813898,0.999669,0.004679,-0.024426,0.006609,-0.738979,0.364439,0.813841,0.999669,0.004674,-0.024443,0.006535,200.000000,100.000000,0.000000,0.007215,0.000000,0.000000,0.000000,0.000000,0.000000,0.000000,0.562145,1.607165,1.269060,-0.000117,-0.191458,1.330061,-0.464665
0.244000,-0.738743,0.369991,0.813897,0.999669,0.004679,-0.024426,0.006610,-0.738983,0.364390,0.813841,0.999669,0.004674,-0.024443,0.006535,200.000000,100.000000,0.000000,0.007297,0.000000,0.000000,0.000000,0.000000,0.000000,0.000000,0.562147,1.607157,1.269060,-0.000125,-0.191458,1.330057,-0.464656
0.245000,-0.738746,0.369984,0.813896,0.999669,0.004679,-0.024426,0.006611,-0.738986,0.364340,0.813840,0.999669,0.004674,-0.024443,0.006535,200.000000,100.000000,0.000000,0.007371,0.000000,0.000000,0.000000,0.000000,0.000000,0.000000,0.562148,1.607148,1.269059,-0.000134,-0.191458,1.330052,-0.464646
0.246000,-0.738749,0.369977,0.813895,0.999669,0.004679,-0.024426,0.006612,-0.738986,0.364340,0.813840,0.999669,0.004674,-0.024443,0.006535,200.000000,100.000000,0.000000,0.007454,0.000000,0.000000,0.000000,0.000000,0.000000,0.000000,0.562150,1.607140,1.269058,-0.000142,-0.191458,1.330047,-0.464637
0.247000,-0.738752,0.369970,0.813894,0.999669,0.004679,-0.024425,0.006613,-0.738993,0.364241,0.813838,0.999669,0.004674,-0.024443,0.006535,200.000000,100.000000,0.000000,0.007528,0.000000,0.000000,0.000000,0.000000,0.000000,0.000000,0.562151,1.607132,1.269057,-0.000151,-0.191458,1.330043,-0.464627
0.248000,-0.738755,0.369963,0.813893,0.999669,0.004680,-0.024425,0.006614,-0.738997,0.364192,0.813837,0.999669,0.004674,-0.024443,0.006535,200.000000,100.000000,0.000000,0.007612,0.000000,0.000000,0.000000,0.000000,0.000000,0.000000,0.562153,1.607123,1.269057,-0.000159,-0.191459,1.330038,-0.464617
0.249000,-0.738758,0.369956,0.813892,0.999669,0.004680,-0.024425,0.006614,-0.739000,0.364142,0.813837,0.999669,0.004674,-0.024443,0.006535,200.000000,100.000000,0.000000,0.007688,0.000000,0.000000,0.000000,0.000000,0.000000,0.000000,0.562155,1.607115,1.269056,-0.000168,-0.191459,1.330033,-0.464607
0.250000,-0.738761,0.369949,0.813891,0.999669,0.004680,-0.024425,0.006615,-0.739004,0.364092,0.813836,0.999669,0.004674,-0.024443,0.006535,200.000000,100.000000,0.000000,0.007772,0.000000,0.000000,0.000000,0.000000,0.000000,0.000000,0.562157,1.607106,1.269055,-0.000177,-0.191459,1.330028,-0.464597
0.251000,-0.738764,0.369942,0.813890,0.999669,0.004680,-0.024424,0.006616,-0.739008,0.364041,0.813835,0.999669,0.004674,-0.024443,0.006535,200.000000,100.000000,0.000000,0.007849,0.000000,0.000000,0.000000,0.000000,0.000000,0.000000,0.562159,1.607097,1.269054,-0.000186,-0.191459,1.330023,-0.464587
0.252000,-0.738767,0.369935,0.813888,0.999669,0.004680,-0.024424,0.006617,-0.739008,0.364041,0.813835,0.999669,0.004674,-0.024443,0.006535,200.000000,100.000000,0.000000,0.007935,0.000000,0.000000,0.000000,0.000000,0.000000,0.000000,0.562160,1.607088,1.269054,-0.000195,-0.191459,1.330018,-0.464577
0.253000,-0.738770,0.369928,0.813887,0.999669,0.004680,-0.024424,0.006618,-0.739015,0.363940,0.813833,0.999669,0.004674,-0.024443,0.006535,200.000000,100.000000,0.000000,0.008012,0.000000,0.000000,0.000000,0.000000,0.000000,0.000000,0.562162,1.607079,1.269053,-0.000204,-0.191459,1.330014,-0.464567
0.254000,-0.738773,0.369920,0.813886,0.999669,0.004680,-0.024424,0.006619,-0.739018,0.363889,0.813833,0.999669,0.004674,-0.024443,0.006535,200.000000,100.000000,0.000000,0.008098,0.000000,0.000000,0.000000,0.000000,0.000000,0.000000,0.562164,1.607070,1.269052,-0.000213,-0.191460,1.330009,-0.464556
0.255000,-0.738776,0.369913,0.813885,0.999669,0.004680,-0.024423,0.006620,-0.739018,0.363889,0.813833,0.999669,0.004674,-0.024443,0.006535,200.000000,100.000000,0.000000,0.008177,0.000000,0.000000,0.000000,0.000000,0.000000,0.000000,0.562166,1.607061,1.269051,-0.000222,-0.191460,1.330004,-0.464546
0.256000,-0.738779,0.369905,0.813884,0.999669,0.004680,-0.024423,0.006621,-0.739026,0.363786,0.813831,0.999669,0.004674,-0.024443,0.006535,200.000000,100.000000,0.000000,0.008263,0.000000,0.000000,0.000000,0.000000,0.000000,0.000000,0.562168,1.607052,1.269050,-0.000231,-0.191460,1.329998,-0.464535
0.257000,-0.738783,0.369898,0.813883,0.999669,0.004680,-0.024423,0.006622,-0.739029,0.363735,0.813830,0.999669,0.004674,-0.024443,0.006535,200.000000,100.000000,0.000000,0.008343,0.000000,0.000000,0.000000,0.000000,0.000000,0.000000,0.562170,1.607043,1.269050,-0.000240,-0.191460,1.329993,-0.464524
0.258000,-0.738786,0.369890,0.813881,0.999669,0.004680,-0.024423,0.006623,-0.739029,0.363735,0.813830,0.999669,0.004674,-0.024443,0.006535,200.000000,100.000000,0.000000,0.008431,0.000000,0.000000,0.000000,0.000000,0.000000,0.000000,0.562172,1.607033,1.269049,-0.000250,-0.191461,1.329988,-0.464514
0.259000,-0.738789,0.369882,0.813880,0.999669,0.004680,-0.024422,0.006624,-0.739036,0.363631,0.813828,0.999669,0.004674,-0.024443,0.006535,200.000000,100.000000,0.000000,0.008511,0.000000,0.000000,0.000000,0.000000,0.000000,0.000000,0.562174,1.607024,1.269048,-0.000259,-0.191461,1.329983,-0.464503
0.260000,-0.738792,0.369874,0.813879,0.999669,0.004680,-0.024422,0.006625,-0.739036,0.363631,0.813828,0.999669,0.004674,-0.024443,0.006535,200.000000,100.000000,0.000000,0.008600,0.000000,0.000000,0.000000,0.000000,0.000000,0.000000,0.562176,1.607014,1.269047,-0.000268,-0.191461,1.329978,-0.464492
0.261000,-0.738796,0.369866,0.813878,0.999669,0.004681,-0.024422,0.006626,-0.739044,0.363526,0.813827,0.999669,0.004674,-0.024443,0.006535,200.000000,100.000000,0.000000,0.008680,0.000000,0.000000,0.000000,0.000000,0.000000,0.000000,0.562178,1.607005,1.269046,-0.000278,-0.191461,1.329972,-0.464480
0.262000,-0.738799,0.369858,0.813876,0.999669,0.004681,-0.024422,0.006627,-0.739048,0.363474,0.813826,0.999669,0.004674,-0.024443,0.006535,200.000000,100.000000,0.000000,0.008770,0.000000,0.000000,0.000000,0.000000,0.000000,0.000000,0.562180,1.606995,1.269045,-0.000287,-0.191462,1.329967,-0.464469
0.262000,-0.738802,0.369850,0.813875,0.999669,0.004681,-0.024421,0.006628,-0.739048,0.363474,0.813826,0.999669,0.004674,-0.024443,0.006535,200.000000,100.000000,0.000000,0.008853,0.000000,0.000000,0.000000,0.000000,0.000000,0.000000,0.562183,1.606985,1.269045,-0.000297,-0.191462,1.329962,-0.464458
0.264000,-0.738806,0.369842,0.813874,0.999669,0.004681,-0.024421,0.006629,-0.739048,0.363474,0.813826,0.999669,0.004674,-0.024443,0.006535,200.000000,100.000000,0.000000,0.008943,0.000000,0.000000,0.000000,0.000000,0.000000,0.000000,0.562185,1.606975,1.269044,-0.000307,-0.191462,1.329956,-0.464446
0.265000,-0.738809,0.369834,0.813873,0.999669,0.004681,-0.024421,0.006630,-0.739059,0.363315,0.813823,0.999669,0.004674,-0.024443,0.006535,200.000000,100.000000,0.000000,0.009024,0.000000,0.000000,0.000000,0.000000,0.000000,0.000000,0.562187,1.606965,1.269043,-0.000317,-0.191463,1.329951,-0.464435
0.266000,-0.738813,0.369826,0.813871,0.999669,0.004681,-0.024421,0.006631,-0.739063,0.363262,0.813823,0.999669,0.004674,-0.024443,0.006535,200.000000,100.000000,0.000000,0.009116,0.000000,0.000000,0.000000,0.000000,0.000000,0.000000,0.562189,1.606955,1.269042,-0.000327,-0.191463,1.329945,-0.464423
0.267000,-0.738816,0.369817,0.813870,0.999669,0.004681,-0.024420,0.006632,-0.739066,0.363208,0.813822,0.999669,0.004674,-0.024443,0.006535,200.000000,100.000000,0.000000,0.009200,0.000000,0.000000,0.000000,0.000000,0.000000,0.000000,0.562192,1.606945,1.269041,-0.000336,-0.191463,1.329940,-0.464411
0.268000,-0.738820,0.369809,0.813869,0.999669,0.004681,-0.024420,0.006633,-0.739070,0.363154,0.813821,0.999669,0.004674,-0.024443,0.006535,200.000000,100.000000,0.000000,0.009293,0.000000,0.000000,0.000000,0.000000,0.000000,0.000000,0.562194,1.606934,1.269040,-0.000347,-0.191463,1.329934,-0.464399
0.269000,-0.738823,0.369800,0.813867,0.999669,0.004681,-0.024420,0.006634,-0.739074,0.363100,0.813820,0.999669,0.004674,-0.024443,0.006535,200.000000,100.000000,0.000000,0.009379,0.000000,0.000000,0.000000,0.000000,0.000000,0.000000,0.562196,1.606924,1.269039,-0.000357,-0.191464,1.329929,-0.464387
0.270000,-0.738827,0.369792,0.813866,0.999669,0.004681,-0.024419,0.006635,-0.739078,0.363046,0.813819,0.999669,0.004674,-0.024443,0.006535,200.000000,100.000000,0.000000,0.009473,0.000000,0.000000,0.000000,0.000000,0.000000,0.000000,0.562199,1.606913,1.269038,-0.000367,-0.191464,1.329923,-0.464375
0.271000,-0.738831,0.369783,0.813865,0.999669,0.004681,-0.024419,0.006636,-0.739082,0.362992,0.813818,0.999669,0.004674,-0.024443,0.006535,200.000000,100.000000,0.000000,0.009559,0.000000,0.000000,0.000000,0.000000,0.000000,0.000000,0.562201,1.606903,1.269037,-0.000377,-0.191465,1.329917,-0.464363
0.272000,-0.738835,0.369774,0.813863,0.999669,0.004682,-0.024419,0.006637,-0.739082,0.362992,0.813818,0.999669,0.004674,-0.024443,0.006535,200.000000,100.000000,0.000000,0.009653,0.000000,0.000000,0.000000,0.000000,0.000000,0.000000,0.562204,1.606892,1.269036,-0.000387,-0.191465,1.329912,-0.464350
0.273000,-0.738838,0.369765,0.813862,0.999669,0.004682,-0.024419,0.006638,-0.739089,0.362883,0.813817,0.999669,0.004674,-0.024443,0.006535,200.000000,100.000000,0.000000,0.009740,0.000000,0.000000,0.000000,0.000000,0.000000,0.000000,0.562206,1.606881,1.269035,-0.000398,-0.191465,1.329906,-0.464338
0.274000,-0.738842,0.369756,0.813860,0.999669,0.004682,-0.024418,0.006639,-0.739093,0.362828,0.813816,0.999669,0.004674,-0.024443,0.006535,200.000000,100.000000,0.000000,0.009835,0.000000,0.000000,0.000000,0.000000,0.000000,0.000000,0.562209,1.606870,1.269034,-0.000408,-0.191466,1.329900,-0.464325
0.275000,-0.738846,0.369747,0.813859,0.999669,0.004682,-0.024418,0.006640,-0.739093,0.362828,0.813816,0.999669,0.004674,-0.024443,0.006535,200.000000,100.000000,0.000000,0.009923,0.000000,0.000000,0.000000,0.000000,0.000000,0.000000,0.562211,1.606859,1.269033,-0.000419,-0.191466,1.329894,-0.464312
0.276000,-0.738850,0.369738,0.813857,0.999669,0.004682,-0.024418,0.006641,-0.739101,0.362717,0.813814,0.999669,0.004674,-0.024443,0.006535,200.000000,100.000000,0.000000,0.010019,0.000000,0.000000,0.000000,0.000000,0.000000,0.000000,0.562214,1.606848,1.269032,-0.000429,-0.191466,1.329888,-0.464299
0.277000,-0.738854,0.369729,0.813856,0.999669,0.004682,-0.024417,0.006643,-0.739101,0.362717,0.813814,0.999669,0.004674,-0.024443,0.006535,200.000000,100.000000,0.000000,0.010108,0.000000,0.000000,0.000000,0.000000,0.000000,0.000000,0.562216,1.606837,1.269031,-0.000440,-0.191467,1.329882,-0.464286
0.278000,-0.738858,0.369719,0.813855,0.999669,0.004682,-0.024417,0.006644,-0.739109,0.362606,0.813812,0.999669,0.004674,-0.024443,0.006535,200.000000,100.000000,0.000000,0.010204,0.000000,0.000000,0.000000,0.000000,0.000000,0.000000,0.562219,1.606826,1.269030,-0.000451,-0.191467,1.329876,-0.464273
0.279000,-0.738861,0.369710,0.813853,0.999669,0.004682,-0.024417,0.006645,-0.739113,0.362550,0.813811,0.999669,0.004674,-0.024443,0.006535,200.000000,100.000000,0.000000,0.010294,0.000000,0.000000,0.000000,0.000000,0.000000,0.000000,0.562222,1.606814,1.269029,-0.000462,-0.191468,1.329870,-0.464260
0.280000,-0.738865,0.369701,0.813852,0.999669,0.004682,-0.024416,0.006646,-0.739117,0.362494,0.813810,0.999669,0.004674,-0.024443,0.006535,200.000000,100.000000,0.000000,0.010392,0.000000,0.000000,0.000000,0.000000,0.000000,0.000000,0.562225,1.606803,1.269028,-0.000472,-0.191468,1.329864,-0.464246
0.280000,-0.738869,0.369691,0.813850,0.999669,0.004682,-0.024416,0.006647,-0.739117,0.362494,0.813810,0.999669,0.004674,-0.024443,0.006535,200.000000,100.000000,0.000000,0.010483,0.000000,0.000000,0.000000,0.000000,0.000000,0.000000,0.562227,1.606791,1.269027,-0.000483,-0.191469,1.329858,-0.464233
0.282000,-0.738874,0.369681,0.813849,0.999669,0.004683,-0.024416,0.006648,-0.739121,0.362437,0.813809,0.999669,0.004674,-0.024443,0.006535,200.000000,100.000000,0.000000,0.010581,0.000000,0.000000,0.000000,0.000000,0.000000,0.000000,0.562230,1.606779,1.269026,-0.000494,-0.191469,1.329852,-0.464219
0.283000,-0.738878,0.369672,0.813847,0.999669,0.004683,-0.024415,0.006649,-0.739129,0.362324,0.813808,0.999669,0.004674,-0.024443,0.006535,200.000000,100.000000,0.000000,0.010672,0.000000,0.000000,0.000000,0.000000,0.000000,0.000000,0.562233,1.606767,1.269025,-0.000506,-0.191470,1.329845,-0.464206
0.284000,-0.738882,0.369662,0.813846,0.999669,0.004683,-0.024415,0.006650,-0.739133,0.362267,0.813807,0.999669,0.004674,-0.024443,0.006535,200.000000,100.000000,0.000000,0.010772,0.000000,0.000000,0.000000,0.000000,0.000000,0.000000,0.562236,1.606755,1.269024,-0.000517,-0.191470,1.329839,-0.464192
0.285000,-0.738886,0.369652,0.813844,0.999669,0.004683,-0.024415,0.006651,-0.739133,0.362267,0.813807,0.999669,0.004674,-0.024443,0.006535,200.000000,100.000000,0.000000,0.010865,0.000000,0.000000,0.000000,0.000000,0.000000,0.000000,0.562239,1.606743,1.269023,-0.000528,-0.191471,1.329833,-0.464178
0.285000,-0.738890,0.369642,0.813843,0.999669,0.004683,-0.024414,0.006653,-0.739137,0.362210,0.813806,0.999669,0.004674,-0.024443,0.006535,200.000000,100.000000,0.000000,0.010965,0.000000,0.000000,0.000000,0.000000,0.000000,0.000000,0.562242,1.606731,1.269022,-0.000539,-0.191471,1.329826,-0.464164
0.287000,-0.738894,0.369632,0.813841,0.999669,0.004683,-0.024414,0.006654,-0.739141,0.362153,0.813805,0.999669,0.004674,-0.024443,0.006535,200.000000,100.000000,0.000000,0.011057,0.000000,0.000000,0.000000,0.000000,0.000000,0.000000,0.562245,1.606719,1.269021,-0.000551,-0.191472,1.329820,-0.464149
0.288000,-0.738899,0.369622,0.813839,0.999669,0.004683,-0.024414,0.006655,-0.739149,0.362037,0.813803,0.999669,0.004674,-0.024443,0.006535,200.000000,100.000000,0.000000,0.011158,0.000000,0.000000,0.000000,0.000000,0.000000,0.000000,0.562248,1.606706,1.269020,-0.000562,-0.191472,1.329813,-0.464135
0.289000,-0.738903,0.369611,0.813838,0.999669,0.004683,-0.024413,0.006656,-0.739153,0.361979,0.813802,0.999669,0.004674,-0.024443,0.006535,200.000000,100.000000,0.000000,0.011253,0.000000,0.000000,0.000000,0.000000,0.000000,0.000000,0.562251,1.606694,1.269019,-0.000574,-0.191473,1.329807,-0.464120
0.290000,-0.738907,0.369601,0.813836,0.999669,0.004683,-0.024413,0.006657,-0.739157,0.361921,0.813801,0.999669,0.004674,-0.024443,0.006535,200.000000,100.000000,0.000000,0.011356,0.000000,0.000000,0.000000,0.000000,0.000000,0.000000,0.562254,1.606681,1.269018,-0.000585,-0.191473,1.329800,-0.464106
0.291000,-0.738912,0.369591,0.813835,0.999669,0.004683,-0.024413,0.006658,-0.739161,0.361863,0.813800,0.999669,0.004674,-0.024443,0.006535,200.000000,100.000000,0.000000,0.011451,0.000000,0.000000,0.000000,0.000000,0.000000,0.000000,0.562257,1.606669,1.269017,-0.000597,-0.191474,1.329794,-0.464091
0.292000,-0.738916,0.369580,0.813833,0.999669,0.004684,-0.024412,0.006660,-0.739165,0.361804,0.813799,0.999669,0.004674,-0.024443,0.006535,200.000000,100.000000,0.000000,0.011555,0.000000,0.000000,0.000000,0.000000,0.000000,0.000000,0.562261,1.606656,1.269015,-0.000609,-0.191474,1.329787,-0.464076
0.293000,-0.738921,0.369569,0.813831,0.999669,0.004684,-0.024412,0.006661,-0.739170,0.361746,0.813798,0.999669,0.004674,-0.024443,0.006535,200.000000,100.000000,0.000000,0.011652,0.000000,0.000000,0.000000,0.000000,0.000000,0.000000,0.562264,1.606643,1.269014,-0.000621,-0.191475,1.329780,-0.464061
0.294000,-0.738925,0.369559,0.813830,0.999669,0.004684,-0.024412,0.006662,-0.739170,0.361746,0.813798,0.999669,0.004674,-0.024443,0.006535,200.000000,100.000000,0.000000,0.011756,0.000000,0.000000,0.000000,0.000000,0.000000,0.000000,0.562267,1.606630,1.269013,-0.000633,-0.191476,1.329774,-0.464046
0.295000,-0.738930,0.369548,0.813828,0.999669,0.004684,-0.024411,0.006663,-0.739178,0.361627,0.813796,0.999669,0.004674,-0.024443,0.006535,200.000000,100.000000,0.000000,0.011853,0.000000,0.000000,0.000000,0.000000,0.000000,0.000000,0.562270,1.606617,1.269012,-0.000645,-0.191476,1.329767,-0.464031
0.296000,-0.738935,0.369537,0.813826,0.999669,0.004684,-0.024411,0.006664,-0.739182,0.361568,0.813795,0.999669,0.004674,-0.024443,0.006535,200.000000,100.000000,0.000000,0.011958,0.000000,0.000000,0.000000,0.000000,0.000000,0.000000,0.562274,1.606604,1.269011,-0.000657,-0.191477,1.329760,-0.464015
0.297000,-0.738939,0.369526,0.813825,0.999669,0.004684,-0.024411,0.006666,-0.739186,0.361509,0.813795,0.999669,0.004674,-0.024443,0.006535,200.000000,100.000000,0.000000,0.012057,0.000000,0.000000,0.000000,0.000000,0.000000,0.000000,0.562277,1.606590,1.269010,-0.000669,-0.191477,1.329753,-0.464000
0.298000,-0.738944,0.369515,0.813823,0.999669,0.004684,-0.024410,0.006667,-0.739186,0.361509,0.813795,0.999669,0.004674,-0.024443,0.006535,200.000000,100.000000,0.000000,0.012163,0.000000,0.000000,0.000000,0.000000,0.000000,0.000000,0.562280,1.606577,1.269008,-0.000682,-0.191478,1.329746,-0.463984
0.299000,-0.738949,0.369504,0.813821,0.999669,0.004684,-0.024410,0.006668,-0.739195,0.361389,0.813793,0.999669,0.004674,-0.024443,0.006535,200.000000,100.000000,0.000000,0.012261,0.000000,0.000000,0.000000,0.000000,0.000000,0.000000,0.562284,1.606563,1.269007,-0.000694,-0.191479,1.329739,-0.463968
0.300000,-0.738953,0.369492,0.813820,0.999669,0.004684,-0.024409,0.006669,-0.739199,0.361329,0.813792,0.999669,0.004674,-0.024443,0.006535,200.000000,100.000000,0.000000,0.012368,0.000000,0.000000,0.000000,0.000000,0.000000,0.000000,0.562287,1.606549,1.269006,-0.000706,-0.191479,1.329732,-0.463952
0.301000,-0.738958,0.369481,0.813818,0.999669,0.004685,-0.024409,0.006670,-0.739203,0.361268,0.813791,0.999669,0.004674,-0.024443,0.006535,200.000000,100.000000,0.000000,0.012469,0.000000,0.000000,0.000000,0.000000,0.000000,0.000000,0.562291,1.606536,1.269005,-0.000719,-0.191480,1.329725,-0.463936
0.302000,-0.738963,0.369470,0.813816,0.999669,0.004685,-0.024409,0.006672,-0.739203,0.361268,0.813791,0.999669,0.004674,-0.024443,0.006535,200.000000,100.000000,0.000000,0.012577,0.000000,0.000000,0.000000,0.000000,0.000000,0.000000,0.562295,1.606522,1.269004,-0.000731,-0.191481,1.329718,-0.463920
0.303000,-0.738968,0.369458,0.813814,0.999669,0.004685,-0.024408,0.006673,-0.739212,0.361147,0.813789,0.999669,0.004674,-0.024443,0.006535,200.000000,100.000000,0.000000,0.012677,0.000000,0.000000,0.000000,0.000000,0.000000,0.000000,0.562298,1.606508,1.269002,-0.000744,-0.191482,1.329711,-0.463904
0.304000,-0.738973,0.369446,0.813813,0.999669,0.004685,-0.024408,0.006674,-0.739216,0.361086,0.813788,0.999669,0.004674,-0.024443,0.006535,200.000000,100.000000,0.000000,0.012786,0.000000,0.000000,0.000000,0.000000,0.000000,0.000000,0.562302,1.606494,1.269001,-0.000757,-0.191482,1.329703,-0.463887
0.305000,-0.738978,0.369435,0.813811,0.999669,0.004685,-0.024408,0.006675,-0.739220,0.361025,0.813787,0.999669,0.004674,-0.024443,0.006535,200.000000,100.000000,0.000000,0.012888,0.000000,0.000000,0.000000,0.000000,0.000000,0.000000,0.562306,1.606479,1.269000,-0.000770,-0.191483,1.329696,-0.463871
0.306000,-0.738983,0.369423,0.813809,0.999669,0.004685,-0.024407,0.006677,-0.739225,0.360964,0.813786,0.999669,0.004674,-0.024443,0.006535,200.000000,100.000000,0.000000,0.012998,0.000000,0.000000,0.000000,0.000000,0.000000,0.000000,0.562309,1.606465,1.268998,-0.000783,-0.191484,1.329689,-0.463854
0.307000,-0.738988,0.369411,0.813807,0.999669,0.004685,-0.024407,0.006678,-0.739229,0.360902,0.813785,0.999669,0.004674,-0.024443,0.006535,200.000000,100.000000,0.000000,0.013101,0.000000,0.000000,0.000000,0.000000,0.000000,0.000000,0.562313,1.606450,1.268997,-0.000796,-0.191485,1.329681,-0.463837
0.308000,-0.738993,0.369399,0.813805,0.999669,0.004685,-0.024406,0.006679,-0.739233,0.360840,0.813784,0.999669,0.004674,-0.024443,0.006535,200.000000,100.000000,0.000000,0.013212,0.000000,0.000000,0.000000,0.000000,0.000000,0.000000,0.562317,1.606436,1.268996,-0.000809,-0.191485,1.329674,-0.463820
0.309000,-0.738998,0.369387,0.813804,0.999669,0.004686,-0.024406,0.006681,-0.739238,0.360778,0.813783,0.999669,0.004674,-0.024443,0.006535,200.000000,100.000000,0.000000,0.013316,0.000000,0.000000,0.000000,0.000000,0.000000,0.000000,0.562321,1.606421,1.268995,-0.000822,-0.191486,1.329666,-0.463803
0.310000,-0.739003,0.369374,0.813802,0.999669,0.004686,-0.024406,0.006682,-0.739242,0.360716,0.813782,0.999669,0.004674,-0.024443,0.006535,200.000000,100.000000,0.000000,0.013428,0.000000,0.000000,0.000000,0.000000,0.000000,0.000000,0.562325,1.606406,1.268993,-0.000835,-0.191487,1.329659,-0.463785
0.311000,-0.739009,0.369362,0.813800,0.999669,0.004686,-0.024405,0.006683,-0.739242,0.360716,0.813782,0.999669,0.004674,-0.024443,0.006535,200.000000,100.000000,0.000000,0.013533,0.000000,0.000000,0.000000,0.000000,0.000000,0.000000,0.562329,1.606391,1.268992,-0.000848,-0.191488,1.329651,-0.463768
0.312000,-0.739014,0.369350,0.813798,0.999669,0.004686,-0.024405,0.006684,-0.739251,0.360591,0.813780,0.999669,0.004674,-0.024443,0.006535,200.000000,100.000000,0.000000,0.013644,0.000000,0.000000,0.000000,0.000000,0.000000,0.000000,0.562333,1.606376,1.268991,-0.000862,-0.191489,1.329644,-0.463750
0.313000,-0.739019,0.369337,0.813796,0.999669,0.004686,-0.024404,0.006686,-0.739255,0.360529,0.813779,0.999669,0.004674,-0.024443,0.006535,200.000000,100.000000,0.000000,0.013750,0.000000,0.000000,0.000000,0.000000,0.000000,0.000000,0.562337,1.606361,1.268989,-0.000875,-0.191489,1.329636,-0.463733
0.314000,-0.739025,0.369324,0.813794,0.999669,0.004686,-0.024404,0.006687,-0.739255,0.360529,0.813779,0.999669,0.004674,-0.024443,0.006535,200.000000,100.000000,0.000000,0.013863,0.000000,0.000000,0.000000,0.000000,0.000000,0.000000,0.562341,1.606345,1.268988,-0.000889,-0.191490,1.329628,-0.463715
0.315000,-0.739030,0.369312,0.813792,0.999669,0.004686,-0.024403,0.006688,-0.739260,0.360466,0.813778,0.999669,0.004674,-0.024443,0.006535,200.000000,100.000000,0.000000,0.013969,0.000000,0.000000,0.000000,0.000000,0.000000,0.000000,0.562345,1.606330,1.268986,-0.000903,-0.191491,1.329620,-0.463697
0.316000,-0.739035,0.369299,0.813790,0.999669,0.004686,-0.024403,0.006690,-0.739269,0.360339,0.813776,0.999669,0.004674,-0.024443,0.006535,200.000000,100.000000,0.000000,0.014082,0.000000,0.000000,0.000000,0.000000,0.000000,0.000000,0.562349,1.606314,1.268985,-0.000916,-0.191492,1.329613,-0.463679
0.317000,-0.739041,0.369286,0.813788,0.999669,0.004687,-0.024403,0.006691,-0.739273,0.360276,0.813775,0.999669,0.004674,-0.024443,0.006535,200.000000,100.000000,0.000000,0.014189,0.000000,0.000000,0.000000,0.000000,0.000000,0.000000,0.562353,1.606299,1.268984,-0.000930,-0.191493,1.329605,-0.463660
0.318000,-0.739046,0.369273,0.813787,0.999669,0.004687,-0.024402,0.006692,-0.739278,0.360212,0.813774,0.999669,0.004674,-0.024443,0.006535,200.000000,100.000000,0.000000,0.014305,0.000000,0.000000,0.000000,0.000000,0.000000,0.000000,0.562358,1.606283,1.268982,-0.000944,-0.191494,1.329597,-0.463642
0.319000,-0.739052,0.369260,0.813785,0.999669,0.004687,-0.024402,0.006694,-0.739278,0.360212,0.813774,0.999669,0.004674,-0.024443,0.006535,200.000000,100.000000,0.000000,0.014413,0.000000,0.000000,0.000000,0.000000,0.000000,0.000000,0.562362,1.606267,1.268981,-0.000958,-0.191495,1.329589,-0.463623
0.320000,-0.739058,0.369246,0.813783,0.999669,0.004687,-0.024401,0.006695,-0.739287,0.360084,0.813772,0.999669,0.004674,-0.024443,0.006535,200.000000,100.000000,0.000000,0.014528,0.000000,0.000000,0.000000,0.000000,0.000000,0.000000,0.562366,1.606251,1.268979,-0.000972,-0.191496,1.329581,-0.463604
0.321000,-0.739063,0.369233,0.813781,0.999669,0.004687,-0.024401,0.006696,-0.739291,0.360020,0.813771,0.999669,0.004674,-0.024443,0.006535,200.000000,100.000000,0.000000,0.014637,0.000000,0.000000,0.000000,0.000000,0.000000,0.000000,0.562371,1.606235,1.268978,-0.000986,-0.191497,1.329573,-0.463586
0.322000,-0.739069,0.369220,0.813779,0.999669,0.004687,-0.024400,0.006698,-0.739296,0.359955,0.813770,0.999669,0.004674,-0.024443,0.006535,200.000000,100.000000,0.000000,0.014754,0.000000,0.000000,0.000000,0.000000,0.000000,0.000000,0.562375,1.606218,1.268976,-0.001000,-0.191498,1.329565,-0.463567
0.323000,-0.739075,0.369206,0.813777,0.999669,0.004687,-0.024400,0.006699,-0.739301,0.359890,0.813769,0.999669,0.004674,-0.024443,0.006535,200.000000,100.000000,0.000000,0.014865,0.000000,0.000000,0.000000,0.000000,0.000000,0.000000,0.562380,1.606202,1.268975,-0.001015,-0.191499,1.329556,-0.463547
0.324000,-0.739080,0.369192,0.813775,0.999669,0.004688,-0.024399,0.006701,-0.739305,0.359825,0.813768,0.999669,0.004674,-0.024443,0.006535,200.000000,100.000000,0.000000,0.014983,0.000000,0.000000,0.000000,0.000000,0.000000,0.000000,0.562384,1.606185,1.268973,-0.001029,-0.191500,1.329548,-0.463528
0.325000,-0.739086,0.369179,0.813772,0.999669,0.004688,-0.024399,0.006702,-0.739305,0.359825,0.813768,0.999669,0.004674,-0.024443,0.006535,200.000000,100.000000,0.000000,0.015094,0.000000,0.000000,0.000000,0.000000,0.000000,0.000000,0.562389,1.606169,1.268972,-0.001044,-0.191501,1.329540,-0.463508
0.326000,-0.739092,0.369165,0.813770,0.999669,0.004688,-0.024399,0.006703,-0.739314,0.359695,0.813765,0.999669,0.004674,-0.024443,0.006535,200.000000,100.000000,0.000000,0.015211,0.000000,0.000000,0.000000,0.000000,0.000000,0.000000,0.562393,1.606152,1.268970,-0.001058,-0.191502,1.329531,-0.463489
0.327000,-0.739098,0.369151,0.813768,0.999669,0.004688,-0.024398,0.006705,-0.739319,0.359629,0.813764,0.999669,0.004674,-0.024443,0.006535,200.000000,100.000000,0.000000,0.015323,0.000000,0.000000,0.000000,0.000000,0.000000,0.000000,0.562398,1.606135,1.268969,-0.001073,-0.191503,1.329523,-0.463469
0.328000,-0.739104,0.369137,0.813766,0.999669,0.004688,-0.024398,0.006706,-0.739324,0.359564,0.813763,0.999669,0.004674,-0.024443,0.006535,200.000000,100.000000,0.000000,0.015443,0.000000,0.000000,0.000000,0.000000,0.000000,0.000000,0.562403,1.606118,1.268967,-0.001088,-0.191504,1.329515,-0.463449
0.329000,-0.739110,0.369122,0.813764,0.999669,0.004688,-0.024397,0.006707,-0.739328,0.359498,0.813762,0.999669,0.004674,-0.024443,0.006535,200.000000,100.000000,0.000000,0.015556,0.000000,0.000000,0.000000,0.000000,0.000000,0.000000,0.562408,1.606101,1.268966,-0.001102,-0.191505,1.329506,-0.463429
0.330000,-0.739116,0.369108,0.813762,0.999669,0.004688,-0.024397,0.006709,-0.739333,0.359432,0.813761,0.999669,0.004674,-0.024443,0.006535,200.000000,100.000000,0.000000,0.015677,0.000000,0.000000,0.000000,0.000000,0.000000,0.000000,0.562412,1.606083,1.268964,-0.001117,-0.191506,1.329498,-0.463409
0.331000,-0.739122,0.369094,0.813760,0.999669,0.004689,-0.024396,0.006710,-0.739333,0.359432,0.813761,0.999669,0.004674,-0.024443,0.006535,200.000000,100.000000,0.000000,0.015790,0.000000,0.000000,0.000000,0.000000,0.000000,0.000000,0.562417,1.606066,1.268963,-0.001132,-0.191507,1.329489,-0.463388
0.332000,-0.739128,0.369079,0.813758,0.999669,0.004689,-0.024396,0.006712,-0.739342,0.359299,0.813759,0.999669,0.004674,-0.024443,0.006535,200.000000,100.000000,0.000000,0.015911,0.000000,0.000000,0.000000,0.000000,0.000000,0.000000,0.562422,1.606048,1.268961,-0.001147,-0.191508,1.329480,-0.463368
0.333000,-0.739135,0.369065,0.813756,0.999669,0.004689,-0.024395,0.006713,-0.739347,0.359232,0.813758,0.999669,0.004674,-0.024443,0.006535,200.000000,100.000000,0.000000,0.016025,0.000000,0.000000,0.000000,0.000000,0.000000,0.000000,0.562427,1.606031,1.268960,-0.001163,-0.191509,1.329472,-0.463347
