matthias-mayr/cartesian_trajectory_generator/generated_logs/trajectory2_stiffness_1000.txt
time,position_x,position_y,position_z,orientation_x,orientation_y,orientation_z,orientation_w,position_d_x,position_d_y,position_d_z,orientation_d_x,orientation_d_y,orientation_d_z,orientation_d_w,translational_stiffness,rotational_stiffness,nullspace_stiffness,velocity,f_x,f_y,f_z,tau_x,tau_x,tau_z,joint1,joint2,joint3,joint4,joint5,joint6,joint7
0.000000,-0.515192,-0.307328,0.856965,0.999923,0.004788,-0.011347,0.001243,-0.515192,-0.307328,0.856965,0.999923,0.004788,-0.011347,0.001243,1000.000000,100.000000,0.000000,0.000022,0.000000,0.000000,0.000000,0.000000,0.000000,0.000000,0.968508,0.128895,0.404370,-1.428521,0.666877,0.735907,0.174451
0.001000,-0.515192,-0.307328,0.856965,0.999923,0.004788,-0.011347,0.001243,-0.515192,-0.307328,0.856965,0.999923,0.004788,-0.011347,0.001243,1000.000000,100.000000,0.000000,0.000020,0.000000,0.000000,0.000000,0.000000,0.000000,0.000000,0.968508,0.128895,0.404370,-1.428521,0.666877,0.735907,0.174451
0.002000,-0.515192,-0.307328,0.856965,0.999923,0.004788,-0.011347,0.001243,-0.515192,-0.307328,0.856965,0.999923,0.004788,-0.011347,0.001243,1000.000000,100.000000,0.000000,0.000019,0.000000,0.000000,0.000000,0.000000,0.000000,0.000000,0.968508,0.128895,0.404370,-1.428521,0.666877,0.735907,0.174451
0.003000,-0.515192,-0.307328,0.856965,0.999923,0.004788,-0.011347,0.001243,-0.515192,-0.307328,0.856965,0.999923,0.004788,-0.011347,0.001243,1000.000000,100.000000,0.000000,0.000022,0.000000,0.000000,0.000000,0.000000,0.000000,0.000000,0.968508,0.128895,0.404370,-1.428521,0.666877,0.735907,0.174451
0.004000,-0.515192,-0.307328,0.856965,0.999923,0.004788,-0.011347,0.001243,-0.515192,-0.307328,0.856965,0.999923,0.004788,-0.011347,0.001243,1000.000000,100.000000,0.000000,0.000020,0.000000,0.000000,0.000000,0.000000,0.000000,0.000000,0.968508,0.128895,0.404370,-1.428521,0.666877,0.735907,0.174451
0.005000,-0.515192,-0.307328,0.856965,0.999923,0.004788,-0.011347,0.001243,-0.515192,-0.307328,0.856965,0.999923,0.004788,-0.011347,0.001243,1000.000000,100.000000,0.000000,0.000020,0.000000,0.000000,0.000000,0.000000,0.000000,0.000000,0.968508,0.128895,0.404370,-1.428521,0.666877,0.735907,0.174451
0.006000,-0.515192,-0.307328,0.856965,0.999923,0.004788,-0.011347,0.001243,-0.515192,-0.307328,0.856965,0.999923,0.004788,-0.011347,0.001243,1000.000000,100.000000,0.000000,0.000022,0.000000,0.000000,0.000000,0.000000,0.000000,0.000000,0.968508,0.128895,0.404370,-1.428521,0.666877,0.735907,0.174451
0.007000,-0.515192,-0.307328,0.856965,0.999923,0.004788,-0.011347,0.001243,-0.515192,-0.307328,0.856965,0.999923,0.004788,-0.011347,0.001243,1000.000000,100.000000,0.000000,0.000020,0.000000,0.000000,0.000000,0.000000,0.000000,0.000000,0.968508,0.128895,0.404370,-1.428521,0.666877,0.735907,0.174451
0.008000,-0.515192,-0.307328,0.856965,0.999923,0.004788,-0.011347,0.001243,-0.515192,-0.307328,0.856965,0.999923,0.004788,-0.011347,0.001243,1000.000000,100.000000,0.000000,0.000020,0.000000,0.000000,0.000000,0.000000,0.000000,0.000000,0.968508,0.128895,0.404370,-1.428521,0.666877,0.735907,0.174451
0.009000,-0.515192,-0.307328,0.856965,0.999923,0.004788,-0.011347,0.001243,-0.515192,-0.307328,0.856965,0.999923,0.004788,-0.011347,0.001243,1000.000000,100.000000,0.000000,0.000021,0.000000,0.000000,0.000000,0.000000,0.000000,0.000000,0.968508,0.128895,0.404370,-1.428521,0.666877,0.735907,0.174451
0.010000,-0.515192,-0.307328,0.856965,0.999923,0.004788,-0.011347,0.001243,-0.515192,-0.307328,0.856965,0.999923,0.004788,-0.011347,0.001243,1000.000000,100.000000,0.000000,0.000020,0.000000,0.000000,0.000000,0.000000,0.000000,0.000000,0.968508,0.128895,0.404370,-1.428521,0.666877,0.735907,0.174451
0.011000,-0.515192,-0.307328,0.856965,0.999923,0.004788,-0.011347,0.001243,-0.515192,-0.307328,0.856965,0.999923,0.004788,-0.011347,0.001243,1000.000000,100.000000,0.000000,0.000020,0.000000,0.000000,0.000000,0.000000,0.000000,0.000000,0.968508,0.128895,0.404370,-1.428521,0.666877,0.735907,0.174451
0.012000,-0.515192,-0.307328,0.856965,0.999923,0.004788,-0.011347,0.001243,-0.515192,-0.307328,0.856965,0.999923,0.004788,-0.011347,0.001243,1000.000000,100.000000,0.000000,0.000022,0.000000,0.000000,0.000000,0.000000,0.000000,0.000000,0.968508,0.128895,0.404370,-1.428521,0.666877,0.735907,0.174451
0.013000,-0.515192,-0.307328,0.856965,0.999923,0.004788,-0.011347,0.001243,-0.515192,-0.307328,0.856965,0.999923,0.004788,-0.011347,0.001243,1000.000000,100.000000,0.000000,0.000020,0.000000,0.000000,0.000000,0.000000,0.000000,0.000000,0.968508,0.128895,0.404370,-1.428521,0.666877,0.735907,0.174451
0.014000,-0.515192,-0.307328,0.856965,0.999923,0.004788,-0.011347,0.001243,-0.515192,-0.307328,0.856965,0.999923,0.004788,-0.011347,0.001243,1000.000000,100.000000,0.000000,0.000020,0.000000,0.000000,0.000000,0.000000,0.000000,0.000000,0.968508,0.128895,0.404370,-1.428521,0.666877,0.735907,0.174451
0.015000,-0.515192,-0.307328,0.856965,0.999923,0.004788,-0.011347,0.001243,-0.515192,-0.307328,0.856965,0.999923,0.004788,-0.011347,0.001243,1000.000000,100.000000,0.000000,0.000021,0.000000,0.000000,0.000000,0.000000,0.000000,0.000000,0.968508,0.128895,0.404370,-1.428521,0.666877,0.735907,0.174451
0.016000,-0.515192,-0.307328,0.856965,0.999923,0.004788,-0.011347,0.001243,-0.515192,-0.307328,0.856965,0.999923,0.004788,-0.011347,0.001243,1000.000000,100.000000,0.000000,0.000020,0.000000,0.000000,0.000000,0.000000,0.000000,0.000000,0.968508,0.128895,0.404370,-1.428521,0.666877,0.735907,0.174451
0.017000,-0.515192,-0.307328,0.856965,0.999923,0.004788,-0.011347,0.001243,-0.515192,-0.307328,0.856965,0.999923,0.004788,-0.011347,0.001243,1000.000000,100.000000,0.000000,0.000020,0.000000,0.000000,0.000000,0.000000,0.000000,0.000000,0.968508,0.128895,0.404370,-1.428521,0.666877,0.735907,0.174451
0.018000,-0.515192,-0.307328,0.856965,0.999923,0.004788,-0.011347,0.001243,-0.515192,-0.307328,0.856965,0.999923,0.004788,-0.011347,0.001243,1000.000000,100.000000,0.000000,0.000022,0.000000,0.000000,0.000000,0.000000,0.000000,0.000000,0.968508,0.128895,0.404370,-1.428521,0.666877,0.735907,0.174451
0.019000,-0.515192,-0.307328,0.856965,0.999923,0.004788,-0.011347,0.001243,-0.515192,-0.307328,0.856965,0.999923,0.004788,-0.011347,0.001243,1000.000000,100.000000,0.000000,0.000019,0.000000,0.000000,0.000000,0.000000,0.000000,0.000000,0.968508,0.128895,0.404370,-1.428521,0.666877,0.735907,0.174451
0.020000,-0.515192,-0.307328,0.856965,0.999923,0.004788,-0.011347,0.001243,-0.515192,-0.307328,0.856965,0.999923,0.004788,-0.011347,0.001243,1000.000000,100.000000,0.000000,0.000021,0.000000,0.000000,0.000000,0.000000,0.000000,0.000000,0.968508,0.128895,0.404370,-1.428521,0.666877,0.735907,0.174451
0.021000,-0.515192,-0.307328,0.856965,0.999923,0.004788,-0.011347,0.001243,-0.515192,-0.307328,0.856965,0.999923,0.004788,-0.011347,0.001243,1000.000000,100.000000,0.000000,0.000021,0.000000,0.000000,0.000000,0.000000,0.000000,0.000000,0.968508,0.128895,0.404370,-1.428521,0.666877,0.735907,0.174451
0.022000,-0.515192,-0.307328,0.856965,0.999923,0.004788,-0.011347,0.001243,-0.515192,-0.307328,0.856965,0.999923,0.004788,-0.011347,0.001243,1000.000000,100.000000,0.000000,0.000019,0.000000,0.000000,0.000000,0.000000,0.000000,0.000000,0.968508,0.128895,0.404370,-1.428521,0.666877,0.735907,0.174451
0.023000,-0.515192,-0.307328,0.856965,0.999923,0.004788,-0.011347,0.001243,-0.515192,-0.307328,0.856965,0.999923,0.004788,-0.011347,0.001243,1000.000000,100.000000,0.000000,0.000022,0.000000,0.000000,0.000000,0.000000,0.000000,0.000000,0.968508,0.128895,0.404370,-1.428521,0.666877,0.735907,0.174451
0.024000,-0.515192,-0.307328,0.856965,0.999923,0.004788,-0.011347,0.001243,-0.515192,-0.307328,0.856965,0.999923,0.004788,-0.011347,0.001243,1000.000000,100.000000,0.000000,0.000020,0.000000,0.000000,0.000000,0.000000,0.000000,0.000000,0.968508,0.128895,0.404370,-1.428521,0.666877,0.735907,0.174451
0.025000,-0.515192,-0.307328,0.856965,0.999923,0.004788,-0.011347,0.001243,-0.515192,-0.307328,0.856965,0.999923,0.004788,-0.011347,0.001243,1000.000000,100.000000,0.000000,0.000020,0.000000,0.000000,0.000000,0.000000,0.000000,0.000000,0.968508,0.128895,0.404370,-1.428521,0.666877,0.735907,0.174451
0.026000,-0.515192,-0.307328,0.856965,0.999923,0.004788,-0.011347,0.001243,-0.515192,-0.307328,0.856965,0.999923,0.004788,-0.011347,0.001243,1000.000000,100.000000,0.000000,0.000022,0.000000,0.000000,0.000000,0.000000,0.000000,0.000000,0.968508,0.128895,0.404370,-1.428521,0.666877,0.735907,0.174451
0.027000,-0.515192,-0.307328,0.856965,0.999923,0.004788,-0.011347,0.001243,-0.515192,-0.307328,0.856965,0.999923,0.004788,-0.011347,0.001243,1000.000000,100.000000,0.000000,0.000020,0.000000,0.000000,0.000000,0.000000,0.000000,0.000000,0.968508,0.128895,0.404370,-1.428521,0.666877,0.735907,0.174451
0.028000,-0.515192,-0.307328,0.856965,0.999923,0.004788,-0.011347,0.001243,-0.515192,-0.307328,0.856965,0.999923,0.004788,-0.011347,0.001243,1000.000000,100.000000,0.000000,0.000019,0.000000,0.000000,0.000000,0.000000,0.000000,0.000000,0.968508,0.128895,0.404370,-1.428521,0.666877,0.735907,0.174451
0.029000,-0.515192,-0.307328,0.856965,0.999923,0.004788,-0.011347,0.001243,-0.515192,-0.307328,0.856965,0.999923,0.004788,-0.011347,0.001243,1000.000000,100.000000,0.000000,0.000022,0.000000,0.000000,0.000000,0.000000,0.000000,0.000000,0.968508,0.128895,0.404370,-1.428521,0.666877,0.735907,0.174451
0.030000,-0.515192,-0.307328,0.856965,0.999923,0.004788,-0.011347,0.001243,-0.515192,-0.307328,0.856965,0.999923,0.004788,-0.011347,0.001243,1000.000000,100.000000,0.000000,0.000020,0.000000,0.000000,0.000000,0.000000,0.000000,0.000000,0.968508,0.128895,0.404370,-1.428521,0.666877,0.735907,0.174451
0.031000,-0.515192,-0.307328,0.856965,0.999923,0.004788,-0.011347,0.001243,-0.515192,-0.307328,0.856965,0.999923,0.004788,-0.011347,0.001243,1000.000000,100.000000,0.000000,0.000020,0.000000,0.000000,0.000000,0.000000,0.000000,0.000000,0.968508,0.128895,0.404370,-1.428521,0.666877,0.735907,0.174451
0.032000,-0.515192,-0.307328,0.856965,0.999923,0.004788,-0.011347,0.001243,-0.515192,-0.307328,0.856965,0.999923,0.004788,-0.011347,0.001243,1000.000000,100.000000,0.000000,0.000022,0.000000,0.000000,0.000000,0.000000,0.000000,0.000000,0.968508,0.128895,0.404370,-1.428521,0.666877,0.735907,0.174451
0.033000,-0.515192,-0.307328,0.856965,0.999923,0.004788,-0.011347,0.001243,-0.515192,-0.307328,0.856965,0.999923,0.004788,-0.011347,0.001243,1000.000000,100.000000,0.000000,0.000020,0.000000,0.000000,0.000000,0.000000,0.000000,0.000000,0.968508,0.128895,0.404370,-1.428521,0.666877,0.735907,0.174451
0.034000,-0.515192,-0.307328,0.856965,0.999923,0.004788,-0.011347,0.001243,-0.515192,-0.307328,0.856965,0.999923,0.004788,-0.011347,0.001243,1000.000000,100.000000,0.000000,0.000019,0.000000,0.000000,0.000000,0.000000,0.000000,0.000000,0.968508,0.128895,0.404370,-1.428521,0.666877,0.735907,0.174451
0.035000,-0.515192,-0.307328,0.856965,0.999923,0.004788,-0.011347,0.001243,-0.515192,-0.307328,0.856965,0.999923,0.004788,-0.011347,0.001243,1000.000000,100.000000,0.000000,0.000022,0.000000,0.000000,0.000000,0.000000,0.000000,0.000000,0.968508,0.128895,0.404370,-1.428521,0.666877,0.735907,0.174451
0.036000,-0.515192,-0.307328,0.856965,0.999923,0.004788,-0.011347,0.001243,-0.515192,-0.307328,0.856965,0.999923,0.004788,-0.011347,0.001243,1000.000000,100.000000,0.000000,0.000020,0.000000,0.000000,0.000000,0.000000,0.000000,0.000000,0.968508,0.128895,0.404370,-1.428521,0.666877,0.735907,0.174451
0.037000,-0.515192,-0.307328,0.856965,0.999923,0.004788,-0.011347,0.001243,-0.515192,-0.307328,0.856965,0.999923,0.004788,-0.011347,0.001243,1000.000000,100.000000,0.000000,0.000020,0.000000,0.000000,0.000000,0.000000,0.000000,0.000000,0.968508,0.128895,0.404370,-1.428521,0.666877,0.735907,0.174451
0.038000,-0.515192,-0.307328,0.856965,0.999923,0.004788,-0.011347,0.001243,-0.515192,-0.307328,0.856965,0.999923,0.004788,-0.011347,0.001243,1000.000000,100.000000,0.000000,0.000022,0.000000,0.000000,0.000000,0.000000,0.000000,0.000000,0.968508,0.128895,0.404370,-1.428521,0.666877,0.735907,0.174451
0.039000,-0.515192,-0.307328,0.856965,0.999923,0.004788,-0.011347,0.001243,-0.515192,-0.307328,0.856965,0.999923,0.004788,-0.011347,0.001243,1000.000000,100.000000,0.000000,0.000020,0.000000,0.000000,0.000000,0.000000,0.000000,0.000000,0.968508,0.128895,0.404370,-1.428521,0.666877,0.735907,0.174451
0.040000,-0.515192,-0.307328,0.856965,0.999923,0.004788,-0.011347,0.001243,-0.515192,-0.307328,0.856965,0.999923,0.004788,-0.011347,0.001243,1000.000000,100.000000,0.000000,0.000020,0.000000,0.000000,0.000000,0.000000,0.000000,0.000000,0.968508,0.128895,0.404370,-1.428521,0.666877,0.735907,0.174451
0.041000,-0.515192,-0.307328,0.856965,0.999923,0.004788,-0.011347,0.001243,-0.515192,-0.307328,0.856965,0.999923,0.004788,-0.011347,0.001243,1000.000000,100.000000,0.000000,0.000021,0.000000,0.000000,0.000000,0.000000,0.000000,0.000000,0.968508,0.128895,0.404370,-1.428521,0.666877,0.735907,0.174451
0.042000,-0.515192,-0.307328,0.856965,0.999923,0.004788,-0.011347,0.001243,-0.515192,-0.307328,0.856965,0.999923,0.004788,-0.011347,0.001243,1000.000000,100.000000,0.000000,0.000019,0.000000,0.000000,0.000000,0.000000,0.000000,0.000000,0.968508,0.128895,0.404370,-1.428521,0.666877,0.735907,0.174451
0.043000,-0.515192,-0.307328,0.856965,0.999923,0.004788,-0.011347,0.001243,-0.515192,-0.307328,0.856965,0.999923,0.004788,-0.011347,0.001243,1000.000000,100.000000,0.000000,0.000020,0.000000,0.000000,0.000000,0.000000,0.000000,0.000000,0.968508,0.128895,0.404370,-1.428521,0.666877,0.735907,0.174451
0.044000,-0.515192,-0.307328,0.856965,0.999923,0.004788,-0.011347,0.001243,-0.515192,-0.307328,0.856965,0.999923,0.004788,-0.011347,0.001243,1000.000000,100.000000,0.000000,0.000022,0.000000,0.000000,0.000000,0.000000,0.000000,0.000000,0.968508,0.128895,0.404370,-1.428521,0.666877,0.735907,0.174451
0.045000,-0.515192,-0.307328,0.856965,0.999923,0.004788,-0.011347,0.001243,-0.515192,-0.307328,0.856965,0.999923,0.004788,-0.011347,0.001243,1000.000000,100.000000,0.000000,0.000020,0.000000,0.000000,0.000000,0.000000,0.000000,0.000000,0.968508,0.128895,0.404370,-1.428521,0.666877,0.735907,0.174451
0.046000,-0.515192,-0.307328,0.856965,0.999923,0.004788,-0.011347,0.001243,-0.515192,-0.307328,0.856965,0.999923,0.004788,-0.011347,0.001243,1000.000000,100.000000,0.000000,0.000020,0.000000,0.000000,0.000000,0.000000,0.000000,0.000000,0.968508,0.128895,0.404370,-1.428521,0.666877,0.735907,0.174451
0.047000,-0.515192,-0.307328,0.856965,0.999923,0.004788,-0.011347,0.001243,-0.515192,-0.307328,0.856965,0.999923,0.004788,-0.011347,0.001243,1000.000000,100.000000,0.000000,0.000022,0.000000,0.000000,0.000000,0.000000,0.000000,0.000000,0.968508,0.128895,0.404370,-1.428521,0.666877,0.735907,0.174451
0.048000,-0.515192,-0.307328,0.856965,0.999923,0.004788,-0.011347,0.001243,-0.515192,-0.307328,0.856965,0.999923,0.004788,-0.011347,0.001243,1000.000000,100.000000,0.000000,0.000020,0.000000,0.000000,0.000000,0.000000,0.000000,0.000000,0.968508,0.128895,0.404370,-1.428521,0.666877,0.735907,0.174451
0.049000,-0.515192,-0.307328,0.856965,0.999923,0.004788,-0.011347,0.001243,-0.515192,-0.307328,0.856965,0.999923,0.004788,-0.011347,0.001243,1000.000000,100.000000,0.000000,0.000020,0.000000,0.000000,0.000000,0.000000,0.000000,0.000000,0.968508,0.128895,0.404370,-1.428521,0.666877,0.735907,0.174451
0.050000,-0.515192,-0.307328,0.856965,0.999923,0.004788,-0.011347,0.001243,-0.515192,-0.307328,0.856965,0.999923,0.004788,-0.011347,0.001243,1000.000000,100.000000,0.000000,0.000022,0.000000,0.000000,0.000000,0.000000,0.000000,0.000000,0.968508,0.128895,0.404370,-1.428521,0.666877,0.735907,0.174451
0.051000,-0.515192,-0.307328,0.856965,0.999923,0.004788,-0.011347,0.001243,-0.515192,-0.307328,0.856965,0.999923,0.004788,-0.011347,0.001243,1000.000000,100.000000,0.000000,0.000020,0.000000,0.000000,0.000000,0.000000,0.000000,0.000000,0.968508,0.128895,0.404370,-1.428521,0.666877,0.735907,0.174451
0.052000,-0.515192,-0.307328,0.856965,0.999923,0.004788,-0.011347,0.001243,-0.515192,-0.307328,0.856965,0.999923,0.004788,-0.011347,0.001243,1000.000000,100.000000,0.000000,0.000020,0.000000,0.000000,0.000000,0.000000,0.000000,0.000000,0.968508,0.128895,0.404370,-1.428521,0.666877,0.735907,0.174451
0.053000,-0.515192,-0.307328,0.856965,0.999923,0.004788,-0.011347,0.001243,-0.515192,-0.307328,0.856965,0.999923,0.004788,-0.011347,0.001243,1000.000000,100.000000,0.000000,0.000022,0.000000,0.000000,0.000000,0.000000,0.000000,0.000000,0.968508,0.128895,0.404370,-1.428521,0.666877,0.735907,0.174451
0.054000,-0.515192,-0.307328,0.856965,0.999923,0.004788,-0.011347,0.001243,-0.515192,-0.307328,0.856965,0.999923,0.004788,-0.011347,0.001243,1000.000000,100.000000,0.000000,0.000020,0.000000,0.000000,0.000000,0.000000,0.000000,0.000000,0.968508,0.128895,0.404370,-1.428521,0.666877,0.735907,0.174451
0.055000,-0.515192,-0.307328,0.856965,0.999923,0.004788,-0.011347,0.001243,-0.515192,-0.307328,0.856965,0.999923,0.004788,-0.011347,0.001243,1000.000000,100.000000,0.000000,0.000020,0.000000,0.000000,0.000000,0.000000,0.000000,0.000000,0.968508,0.128895,0.404370,-1.428521,0.666877,0.735907,0.174451
0.056000,-0.515192,-0.307328,0.856965,0.999923,0.004788,-0.011347,0.001243,-0.515192,-0.307328,0.856965,0.999923,0.004788,-0.011347,0.001243,1000.000000,100.000000,0.000000,0.000022,0.000000,0.000000,0.000000,0.000000,0.000000,0.000000,0.968508,0.128895,0.404370,-1.428521,0.666877,0.735907,0.174451
0.057000,-0.515192,-0.307328,0.856965,0.999923,0.004788,-0.011347,0.001243,-0.515192,-0.307328,0.856965,0.999923,0.004788,-0.011347,0.001243,1000.000000,100.000000,0.000000,0.000020,0.000000,0.000000,0.000000,0.000000,0.000000,0.000000,0.968508,0.128895,0.404370,-1.428521,0.666877,0.735907,0.174451
0.058000,-0.515192,-0.307328,0.856965,0.999923,0.004788,-0.011347,0.001243,-0.515192,-0.307328,0.856965,0.999923,0.004788,-0.011347,0.001243,1000.000000,100.000000,0.000000,0.000019,0.000000,0.000000,0.000000,0.000000,0.000000,0.000000,0.968508,0.128895,0.404370,-1.428521,0.666877,0.735907,0.174451
0.059000,-0.515192,-0.307328,0.856965,0.999923,0.004788,-0.011347,0.001243,-0.515192,-0.307328,0.856965,0.999923,0.004788,-0.011347,0.001243,1000.000000,100.000000,0.000000,0.000022,0.000000,0.000000,0.000000,0.000000,0.000000,0.000000,0.968508,0.128895,0.404370,-1.428521,0.666877,0.735907,0.174451
0.060000,-0.515192,-0.307328,0.856965,0.999923,0.004788,-0.011347,0.001243,-0.515192,-0.307328,0.856965,0.999923,0.004788,-0.011347,0.001243,1000.000000,100.000000,0.000000,0.000020,0.000000,0.000000,0.000000,0.000000,0.000000,0.000000,0.968508,0.128895,0.404370,-1.428521,0.666877,0.735907,0.174451
0.061000,-0.515192,-0.307328,0.856965,0.999923,0.004788,-0.011347,0.001243,-0.515192,-0.307328,0.856965,0.999923,0.004788,-0.011347,0.001243,1000.000000,100.000000,0.000000,0.000020,0.000000,0.000000,0.000000,0.000000,0.000000,0.000000,0.968508,0.128895,0.404370,-1.428521,0.666877,0.735907,0.174451
0.062000,-0.515192,-0.307328,0.856965,0.999923,0.004788,-0.011347,0.001243,-0.515192,-0.307328,0.856965,0.999923,0.004788,-0.011347,0.001243,1000.000000,100.000000,0.000000,0.000022,0.000000,0.000000,0.000000,0.000000,0.000000,0.000000,0.968508,0.128895,0.404370,-1.428521,0.666877,0.735907,0.174451
0.063000,-0.515192,-0.307328,0.856965,0.999923,0.004788,-0.011347,0.001243,-0.515192,-0.307328,0.856965,0.999923,0.004788,-0.011347,0.001243,1000.000000,100.000000,0.000000,0.000020,0.000000,0.000000,0.000000,0.000000,0.000000,0.000000,0.968508,0.128895,0.404370,-1.428521,0.666877,0.735907,0.174451
0.064000,-0.515192,-0.307328,0.856965,0.999923,0.004788,-0.011347,0.001243,-0.515192,-0.307328,0.856965,0.999923,0.004788,-0.011347,0.001243,1000.000000,100.000000,0.000000,0.000021,0.000000,0.000000,0.000000,0.000000,0.000000,0.000000,0.968508,0.128895,0.404370,-1.428521,0.666877,0.735907,0.174451
0.065000,-0.515192,-0.307328,0.856965,0.999923,0.004788,-0.011347,0.001243,-0.515192,-0.307328,0.856965,0.999923,0.004788,-0.011347,0.001243,1000.000000,100.000000,0.000000,0.000021,0.000000,0.000000,0.000000,0.000000,0.000000,0.000000,0.968508,0.128895,0.404370,-1.428521,0.666877,0.735907,0.174451
0.066000,-0.515192,-0.307328,0.856965,0.999923,0.004788,-0.011347,0.001243,-0.515192,-0.307328,0.856965,0.999923,0.004788,-0.011347,0.001243,1000.000000,100.000000,0.000000,0.000019,0.000000,0.000000,0.000000,0.000000,0.000000,0.000000,0.968508,0.128895,0.404370,-1.428521,0.666877,0.735907,0.174451
0.067000,-0.515192,-0.307328,0.856965,0.999923,0.004788,-0.011347,0.001243,-0.515192,-0.307328,0.856965,0.999923,0.004788,-0.011347,0.001243,1000.000000,100.000000,0.000000,0.000022,0.000000,0.000000,0.000000,0.000000,0.000000,0.000000,0.968508,0.128895,0.404370,-1.428521,0.666877,0.735907,0.174451
0.068000,-0.515192,-0.307328,0.856965,0.999923,0.004788,-0.011347,0.001243,-0.515192,-0.307328,0.856965,0.999923,0.004788,-0.011347,0.001243,1000.000000,100.000000,0.000000,0.000019,0.000000,0.000000,0.000000,0.000000,0.000000,0.000000,0.968508,0.128895,0.404370,-1.428521,0.666877,0.735907,0.174451
0.069000,-0.515192,-0.307328,0.856965,0.999923,0.004788,-0.011347,0.001243,-0.515192,-0.307328,0.856965,0.999923,0.004788,-0.011347,0.001243,1000.000000,100.000000,0.000000,0.000020,0.000000,0.000000,0.000000,0.000000,0.000000,0.000000,0.968508,0.128895,0.404370,-1.428521,0.666877,0.735907,0.174451
0.070000,-0.515192,-0.307328,0.856965,0.999923,0.004788,-0.011347,0.001243,-0.515192,-0.307328,0.856965,0.999923,0.004788,-0.011347,0.001243,1000.000000,100.000000,0.000000,0.000022,0.000000,0.000000,0.000000,0.000000,0.000000,0.000000,0.968508,0.128895,0.404370,-1.428521,0.666877,0.735907,0.174451
0.071000,-0.515192,-0.307328,0.856965,0.999923,0.004788,-0.011347,0.001243,-0.515192,-0.307328,0.856965,0.999923,0.004788,-0.011347,0.001243,1000.000000,100.000000,0.000000,0.000020,0.000000,0.000000,0.000000,0.000000,0.000000,0.000000,0.968508,0.128895,0.404370,-1.428521,0.666877,0.735907,0.174451
0.071000,-0.515192,-0.307328,0.856965,0.999923,0.004788,-0.011347,0.001243,-0.515192,-0.307328,0.856965,0.999923,0.004788,-0.011347,0.001243,1000.000000,100.000000,0.000000,0.000019,0.000000,0.000000,0.000000,0.000000,0.000000,0.000000,0.968508,0.128895,0.404370,-1.428521,0.666877,0.735907,0.174451
0.073000,-0.515192,-0.307328,0.856965,0.999923,0.004788,-0.011347,0.001243,-0.515192,-0.307328,0.856965,0.999923,0.004788,-0.011347,0.001243,1000.000000,100.000000,0.000000,0.000022,0.000000,0.000000,0.000000,0.000000,0.000000,0.000000,0.968508,0.128895,0.404370,-1.428521,0.666877,0.735907,0.174451
0.074000,-0.515192,-0.307328,0.856965,0.999923,0.004788,-0.011347,0.001243,-0.515192,-0.307328,0.856965,0.999923,0.004788,-0.011347,0.001243,1000.000000,100.000000,0.000000,0.000020,0.000000,0.000000,0.000000,0.000000,0.000000,0.000000,0.968508,0.128895,0.404370,-1.428521,0.666877,0.735907,0.174451
0.075000,-0.515192,-0.307328,0.856965,0.999923,0.004788,-0.011347,0.001243,-0.515192,-0.307328,0.856965,0.999923,0.004788,-0.011347,0.001243,1000.000000,100.000000,0.000000,0.000020,0.000000,0.000000,0.000000,0.000000,0.000000,0.000000,0.968508,0.128895,0.404370,-1.428521,0.666877,0.735907,0.174451
0.076000,-0.515192,-0.307328,0.856965,0.999923,0.004788,-0.011347,0.001243,-0.515192,-0.307328,0.856965,0.999923,0.004788,-0.011347,0.001243,1000.000000,100.000000,0.000000,0.000022,0.000000,0.000000,0.000000,0.000000,0.000000,0.000000,0.968508,0.128895,0.404370,-1.428521,0.666877,0.735907,0.174451
0.077000,-0.515192,-0.307328,0.856965,0.999923,0.004788,-0.011347,0.001243,-0.515192,-0.307328,0.856965,0.999923,0.004788,-0.011347,0.001243,1000.000000,100.000000,0.000000,0.000020,0.000000,0.000000,0.000000,0.000000,0.000000,0.000000,0.968508,0.128895,0.404370,-1.428521,0.666877,0.735907,0.174451
0.078000,-0.515192,-0.307328,0.856965,0.999923,0.004788,-0.011347,0.001243,-0.515192,-0.307328,0.856965,0.999923,0.004788,-0.011347,0.001243,1000.000000,100.000000,0.000000,0.000020,0.000000,0.000000,0.000000,0.000000,0.000000,0.000000,0.968508,0.128895,0.404370,-1.428521,0.666877,0.735907,0.174451
0.079000,-0.515192,-0.307328,0.856965,0.999923,0.004788,-0.011347,0.001243,-0.515192,-0.307328,0.856965,0.999923,0.004788,-0.011347,0.001243,1000.000000,100.000000,0.000000,0.000021,0.000000,0.000000,0.000000,0.000000,0.000000,0.000000,0.968508,0.128895,0.404370,-1.428521,0.666877,0.735907,0.174451
0.080000,-0.515192,-0.307328,0.856965,0.999923,0.004788,-0.011347,0.001243,-0.515192,-0.307328,0.856965,0.999923,0.004788,-0.011347,0.001243,1000.000000,100.000000,0.000000,0.000020,0.000000,0.000000,0.000000,0.000000,0.000000,0.000000,0.968508,0.128895,0.404370,-1.428521,0.666877,0.735907,0.174451
0.081000,-0.515192,-0.307328,0.856965,0.999923,0.004788,-0.011347,0.001243,-0.515192,-0.307328,0.856965,0.999923,0.004788,-0.011347,0.001243,1000.000000,100.000000,0.000000,0.000020,0.000000,0.000000,0.000000,0.000000,0.000000,0.000000,0.968508,0.128895,0.404370,-1.428521,0.666877,0.735907,0.174451
0.082000,-0.515192,-0.307328,0.856965,0.999923,0.004788,-0.011347,0.001243,-0.515192,-0.307328,0.856965,0.999923,0.004788,-0.011347,0.001243,1000.000000,100.000000,0.000000,0.000022,0.000000,0.000000,0.000000,0.000000,0.000000,0.000000,0.968508,0.128895,0.404370,-1.428521,0.666877,0.735907,0.174451
0.083000,-0.515192,-0.307328,0.856965,0.999923,0.004788,-0.011347,0.001243,-0.515192,-0.307328,0.856965,0.999923,0.004788,-0.011347,0.001243,1000.000000,100.000000,0.000000,0.000020,0.000000,0.000000,0.000000,0.000000,0.000000,0.000000,0.968508,0.128895,0.404370,-1.428521,0.666877,0.735907,0.174451
0.084000,-0.515192,-0.307328,0.856965,0.999923,0.004788,-0.011347,0.001243,-0.515192,-0.307328,0.856965,0.999923,0.004788,-0.011347,0.001243,1000.000000,100.000000,0.000000,0.000020,0.000000,0.000000,0.000000,0.000000,0.000000,0.000000,0.968508,0.128895,0.404370,-1.428521,0.666877,0.735907,0.174451
0.085000,-0.515192,-0.307328,0.856965,0.999923,0.004788,-0.011347,0.001243,-0.515192,-0.307328,0.856965,0.999923,0.004788,-0.011347,0.001243,1000.000000,100.000000,0.000000,0.000022,0.000000,0.000000,0.000000,0.000000,0.000000,0.000000,0.968508,0.128895,0.404370,-1.428521,0.666877,0.735907,0.174451
0.086000,-0.515192,-0.307328,0.856965,0.999923,0.004788,-0.011347,0.001243,-0.515192,-0.307328,0.856965,0.999923,0.004788,-0.011347,0.001243,1000.000000,100.000000,0.000000,0.000020,0.000000,0.000000,0.000000,0.000000,0.000000,0.000000,0.968508,0.128895,0.404370,-1.428521,0.666877,0.735907,0.174451
0.087000,-0.515192,-0.307328,0.856965,0.999923,0.004788,-0.011347,0.001243,-0.515192,-0.307328,0.856965,0.999923,0.004788,-0.011347,0.001243,1000.000000,100.000000,0.000000,0.000020,0.000000,0.000000,0.000000,0.000000,0.000000,0.000000,0.968508,0.128895,0.404370,-1.428521,0.666877,0.735907,0.174451
0.088000,-0.515192,-0.307328,0.856965,0.999923,0.004788,-0.011347,0.001243,-0.515192,-0.307328,0.856965,0.999923,0.004788,-0.011347,0.001243,1000.000000,100.000000,0.000000,0.000022,0.000000,0.000000,0.000000,0.000000,0.000000,0.000000,0.968508,0.128895,0.404370,-1.428521,0.666877,0.735907,0.174451
0.089000,-0.515192,-0.307328,0.856965,0.999923,0.004788,-0.011347,0.001243,-0.515192,-0.307328,0.856965,0.999923,0.004788,-0.011347,0.001243,1000.000000,100.000000,0.000000,0.000020,0.000000,0.000000,0.000000,0.000000,0.000000,0.000000,0.968508,0.128895,0.404370,-1.428521,0.666877,0.735907,0.174451
0.090000,-0.515192,-0.307328,0.856965,0.999923,0.004788,-0.011347,0.001243,-0.515192,-0.307328,0.856965,0.999923,0.004788,-0.011347,0.001243,1000.000000,100.000000,0.000000,0.000020,0.000000,0.000000,0.000000,0.000000,0.000000,0.000000,0.968508,0.128895,0.404370,-1.428521,0.666877,0.735907,0.174451
0.091000,-0.515192,-0.307328,0.856965,0.999923,0.004788,-0.011347,0.001243,-0.515192,-0.307328,0.856965,0.999923,0.004788,-0.011347,0.001243,1000.000000,100.000000,0.000000,0.000022,0.000000,0.000000,0.000000,0.000000,0.000000,0.000000,0.968508,0.128895,0.404370,-1.428521,0.666877,0.735907,0.174451
0.092000,-0.515192,-0.307328,0.856965,0.999923,0.004788,-0.011347,0.001243,-0.515192,-0.307328,0.856965,0.999923,0.004788,-0.011347,0.001243,1000.000000,100.000000,0.000000,0.000020,0.000000,0.000000,0.000000,0.000000,0.000000,0.000000,0.968508,0.128895,0.404370,-1.428521,0.666877,0.735907,0.174451
0.093000,-0.515192,-0.307328,0.856965,0.999923,0.004788,-0.011347,0.001243,-0.515192,-0.307328,0.856965,0.999923,0.004788,-0.011347,0.001243,1000.000000,100.000000,0.000000,0.000020,0.000000,0.000000,0.000000,0.000000,0.000000,0.000000,0.968508,0.128895,0.404370,-1.428521,0.666877,0.735907,0.174451
0.094000,-0.515192,-0.307328,0.856965,0.999923,0.004788,-0.011347,0.001243,-0.515192,-0.307328,0.856965,0.999923,0.004788,-0.011347,0.001243,1000.000000,100.000000,0.000000,0.000022,0.000000,0.000000,0.000000,0.000000,0.000000,0.000000,0.968508,0.128895,0.404370,-1.428521,0.666877,0.735907,0.174451
0.095000,-0.515192,-0.307328,0.856965,0.999923,0.004788,-0.011347,0.001243,-0.515192,-0.307328,0.856965,0.999923,0.004788,-0.011347,0.001243,1000.000000,100.000000,0.000000,0.000020,0.000000,0.000000,0.000000,0.000000,0.000000,0.000000,0.968508,0.128895,0.404370,-1.428521,0.666877,0.735907,0.174451
0.096000,-0.515192,-0.307328,0.856965,0.999923,0.004788,-0.011347,0.001243,-0.515192,-0.307328,0.856965,0.999923,0.004788,-0.011347,0.001243,1000.000000,100.000000,0.000000,0.000019,0.000000,0.000000,0.000000,0.000000,0.000000,0.000000,0.968508,0.128895,0.404370,-1.428521,0.666877,0.735907,0.174451
0.097000,-0.515192,-0.307328,0.856965,0.999923,0.004788,-0.011347,0.001243,-0.515192,-0.307328,0.856965,0.999923,0.004788,-0.011347,0.001243,1000.000000,100.000000,0.000000,0.000021,0.000000,0.000000,0.000000,0.000000,0.000000,0.000000,0.968508,0.128895,0.404370,-1.428521,0.666877,0.735907,0.174451
0.098000,-0.515192,-0.307328,0.856965,0.999923,0.004788,-0.011347,0.001243,-0.515192,-0.307328,0.856965,0.999923,0.004788,-0.011347,0.001243,1000.000000,100.000000,0.000000,0.000019,0.000000,0.000000,0.000000,0.000000,0.000000,0.000000,0.968508,0.128895,0.404370,-1.428521,0.666877,0.735907,0.174451
0.099000,-0.515192,-0.307328,0.856965,0.999923,0.004788,-0.011347,0.001243,-0.515192,-0.307328,0.856965,0.999923,0.004788,-0.011347,0.001243,1000.000000,100.000000,0.000000,0.000020,0.000000,0.000000,0.000000,0.000000,0.000000,0.000000,0.968508,0.128895,0.404370,-1.428521,0.666877,0.735907,0.174451
0.100000,-0.515192,-0.307328,0.856965,0.999923,0.004788,-0.011347,0.001243,-0.515192,-0.307328,0.856965,0.999923,0.004788,-0.011347,0.001243,1000.000000,100.000000,0.000000,0.000022,0.000000,0.000000,0.000000,0.000000,0.000000,0.000000,0.968508,0.128895,0.404370,-1.428521,0.666877,0.735907,0.174451
0.101000,-0.515192,-0.307328,0.856965,0.999923,0.004788,-0.011347,0.001243,-0.515192,-0.307328,0.856965,0.999923,0.004788,-0.011347,0.001243,1000.000000,100.000000,0.000000,0.000020,0.000000,0.000000,0.000000,0.000000,0.000000,0.000000,0.968508,0.128895,0.404370,-1.428521,0.666877,0.735907,0.174451
0.102000,-0.515192,-0.307328,0.856965,0.999923,0.004788,-0.011347,0.001243,-0.515192,-0.307328,0.856965,0.999923,0.004788,-0.011347,0.001243,1000.000000,100.000000,0.000000,0.000019,0.000000,0.000000,0.000000,0.000000,0.000000,0.000000,0.968508,0.128895,0.404370,-1.428521,0.666877,0.735907,0.174451
0.103000,-0.515192,-0.307328,0.856965,0.999923,0.004788,-0.011347,0.001243,-0.515192,-0.307328,0.856965,0.999923,0.004788,-0.011347,0.001243,1000.000000,100.000000,0.000000,0.000022,0.000000,0.000000,0.000000,0.000000,0.000000,0.000000,0.968508,0.128895,0.404370,-1.428521,0.666877,0.735907,0.174451
0.104000,-0.515192,-0.307328,0.856965,0.999923,0.004788,-0.011347,0.001243,-0.515192,-0.307328,0.856965,0.999923,0.004788,-0.011347,0.001243,1000.000000,100.000000,0.000000,0.000020,0.000000,0.000000,0.000000,0.000000,0.000000,0.000000,0.968508,0.128895,0.404370,-1.428521,0.666877,0.735907,0.174451
0.105000,-0.515192,-0.307328,0.856965,0.999923,0.004788,-0.011347,0.001243,-0.515192,-0.307328,0.856965,0.999923,0.004788,-0.011347,0.001243,1000.000000,100.000000,0.000000,0.000020,0.000000,0.000000,0.000000,0.000000,0.000000,0.000000,0.968508,0.128895,0.404370,-1.428521,0.666877,0.735907,0.174451
0.106000,-0.515192,-0.307328,0.856965,0.999923,0.004788,-0.011347,0.001243,-0.515192,-0.307328,0.856965,0.999923,0.004788,-0.011347,0.001243,1000.000000,100.000000,0.000000,0.000022,0.000000,0.000000,0.000000,0.000000,0.000000,0.000000,0.968508,0.128895,0.404370,-1.428521,0.666877,0.735907,0.174451
0.107000,-0.515192,-0.307328,0.856965,0.999923,0.004788,-0.011347,0.001243,-0.515192,-0.307328,0.856965,0.999923,0.004788,-0.011347,0.001243,1000.000000,100.000000,0.000000,0.000020,0.000000,0.000000,0.000000,0.000000,0.000000,0.000000,0.968508,0.128895,0.404370,-1.428521,0.666877,0.735907,0.174451
0.108000,-0.515192,-0.307328,0.856965,0.999923,0.004788,-0.011347,0.001243,-0.515192,-0.307328,0.856965,0.999923,0.004788,-0.011347,0.001243,1000.000000,100.000000,0.000000,0.000020,0.000000,0.000000,0.000000,0.000000,0.000000,0.000000,0.968508,0.128895,0.404370,-1.428521,0.666877,0.735907,0.174451
0.109000,-0.515192,-0.307328,0.856965,0.999923,0.004788,-0.011347,0.001243,-0.515192,-0.307328,0.856965,0.999923,0.004788,-0.011347,0.001243,1000.000000,100.000000,0.000000,0.000021,0.000000,0.000000,0.000000,0.000000,0.000000,0.000000,0.968508,0.128895,0.404370,-1.428521,0.666877,0.735907,0.174451
0.109000,-0.515192,-0.307328,0.856965,0.999923,0.004788,-0.011347,0.001243,-0.515192,-0.307328,0.856965,0.999923,0.004788,-0.011347,0.001243,1000.000000,100.000000,0.000000,0.000020,0.000000,0.000000,0.000000,0.000000,0.000000,0.000000,0.968508,0.128895,0.404370,-1.428521,0.666877,0.735907,0.174451
0.111000,-0.515192,-0.307328,0.856965,0.999923,0.004788,-0.011347,0.001243,-0.515192,-0.307328,0.856965,0.999923,0.004788,-0.011347,0.001243,1000.000000,100.000000,0.000000,0.000020,0.000000,0.000000,0.000000,0.000000,0.000000,0.000000,0.968508,0.128895,0.404370,-1.428521,0.666877,0.735907,0.174451
0.112000,-0.515192,-0.307328,0.856965,0.999923,0.004788,-0.011347,0.001243,-0.515192,-0.307328,0.856965,0.999923,0.004788,-0.011347,0.001243,1000.000000,100.000000,0.000000,0.000022,0.000000,0.000000,0.000000,0.000000,0.000000,0.000000,0.968508,0.128895,0.404370,-1.428521,0.666877,0.735907,0.174451
0.113000,-0.515192,-0.307328,0.856965,0.999923,0.004788,-0.011347,0.001243,-0.515192,-0.307328,0.856965,0.999923,0.004788,-0.011347,0.001243,1000.000000,100.000000,0.000000,0.000020,0.000000,0.000000,0.000000,0.000000,0.000000,0.000000,0.968508,0.128895,0.404370,-1.428521,0.666877,0.735907,0.174451
0.114000,-0.515192,-0.307328,0.856965,0.999923,0.004788,-0.011347,0.001243,-0.515192,-0.307328,0.856965,0.999923,0.004788,-0.011347,0.001243,1000.000000,100.000000,0.000000,0.000020,0.000000,0.000000,0.000000,0.000000,0.000000,0.000000,0.968508,0.128895,0.404370,-1.428521,0.666877,0.735907,0.174451
0.115000,-0.515192,-0.307328,0.856965,0.999923,0.004788,-0.011347,0.001243,-0.515192,-0.307328,0.856965,0.999923,0.004788,-0.011347,0.001243,1000.000000,100.000000,0.000000,0.000022,0.000000,0.000000,0.000000,0.000000,0.000000,0.000000,0.968508,0.128895,0.404370,-1.428521,0.666877,0.735907,0.174451
0.115000,-0.515192,-0.307328,0.856965,0.999923,0.004788,-0.011347,0.001243,-0.515192,-0.307328,0.856965,0.999923,0.004788,-0.011347,0.001243,1000.000000,100.000000,0.000000,0.000020,0.000000,0.000000,0.000000,0.000000,0.000000,0.000000,0.968508,0.128895,0.404370,-1.428521,0.666877,0.735907,0.174451
0.117000,-0.515192,-0.307328,0.856965,0.999923,0.004788,-0.011347,0.001243,-0.515192,-0.307328,0.856965,0.999923,0.004788,-0.011347,0.001243,1000.000000,100.000000,0.000000,0.000020,0.000000,0.000000,0.000000,0.000000,0.000000,0.000000,0.968508,0.128895,0.404370,-1.428521,0.666877,0.735907,0.174451
0.118000,-0.515192,-0.307328,0.856965,0.999923,0.004788,-0.011347,0.001243,-0.515192,-0.307328,0.856965,0.999923,0.004788,-0.011347,0.001243,1000.000000,100.000000,0.000000,0.000022,0.000000,0.000000,0.000000,0.000000,0.000000,0.000000,0.968508,0.128895,0.404370,-1.428521,0.666877,0.735907,0.174451
0.119000,-0.515192,-0.307328,0.856965,0.999923,0.004788,-0.011347,0.001243,-0.515192,-0.307328,0.856965,0.999923,0.004788,-0.011347,0.001243,1000.000000,100.000000,0.000000,0.000020,0.000000,0.000000,0.000000,0.000000,0.000000,0.000000,0.968508,0.128895,0.404370,-1.428521,0.666877,0.735907,0.174451
0.120000,-0.515192,-0.307328,0.856965,0.999923,0.004788,-0.011347,0.001243,-0.515192,-0.307328,0.856965,0.999923,0.004788,-0.011347,0.001243,1000.000000,100.000000,0.000000,0.000019,0.000000,0.000000,0.000000,0.000000,0.000000,0.000000,0.968508,0.128895,0.404370,-1.428521,0.666877,0.735907,0.174451
0.121000,-0.515192,-0.307328,0.856965,0.999923,0.004788,-0.011347,0.001243,-0.515192,-0.307328,0.856965,0.999923,0.004788,-0.011347,0.001243,1000.000000,100.000000,0.000000,0.000022,0.000000,0.000000,0.000000,0.000000,0.000000,0.000000,0.968508,0.128895,0.404370,-1.428521,0.666877,0.735907,0.174451
0.122000,-0.515192,-0.307328,0.856965,0.999923,0.004788,-0.011347,0.001243,-0.515192,-0.307328,0.856965,0.999923,0.004788,-0.011347,0.001243,1000.000000,100.000000,0.000000,0.000020,0.000000,0.000000,0.000000,0.000000,0.000000,0.000000,0.968508,0.128895,0.404370,-1.428521,0.666877,0.735907,0.174451
0.123000,-0.515192,-0.307328,0.856965,0.999923,0.004788,-0.011347,0.001243,-0.515192,-0.307328,0.856965,0.999923,0.004788,-0.011347,0.001243,1000.000000,100.000000,0.000000,0.000019,0.000000,0.000000,0.000000,0.000000,0.000000,0.000000,0.968508,0.128895,0.404370,-1.428521,0.666877,0.735907,0.174451
0.124000,-0.515192,-0.307328,0.856965,0.999923,0.004788,-0.011347,0.001243,-0.515192,-0.307328,0.856965,0.999923,0.004788,-0.011347,0.001243,1000.000000,100.000000,0.000000,0.000021,0.000000,0.000000,0.000000,0.000000,0.000000,0.000000,0.968508,0.128895,0.404370,-1.428521,0.666877,0.735907,0.174451
0.125000,-0.515192,-0.307328,0.856965,0.999923,0.004788,-0.011347,0.001243,-0.515192,-0.307328,0.856965,0.999923,0.004788,-0.011347,0.001243,1000.000000,100.000000,0.000000,0.000012,0.000000,0.000000,0.000000,0.000000,0.000000,0.000000,0.968508,0.128895,0.404370,-1.428521,0.666877,0.735907,0.174451
0.126000,-0.515192,-0.307328,0.856965,0.999923,0.004788,-0.011347,0.001243,-0.515192,-0.307328,0.856965,0.999923,0.004788,-0.011347,0.001243,1000.000000,100.000000,0.000000,0.000007,0.000000,0.000000,0.000000,0.000000,0.000000,0.000000,0.968508,0.128895,0.404370,-1.428521,0.666877,0.735907,0.174451
0.127000,-0.515192,-0.307328,0.856965,0.999923,0.004788,-0.011347,0.001243,-0.515192,-0.307328,0.856965,0.999923,0.004788,-0.011347,0.001243,1000.000000,100.000000,0.000000,0.000010,0.000000,0.000000,0.000000,0.000000,0.000000,0.000000,0.968508,0.128895,0.404370,-1.428521,0.666877,0.735907,0.174451
0.128000,-0.515192,-0.307328,0.856965,0.999923,0.004788,-0.011347,0.001243,-0.515192,-0.307328,0.856965,0.999923,0.004788,-0.011347,0.001243,1000.000000,100.000000,0.000000,0.000010,0.000000,0.000000,0.000000,0.000000,0.000000,0.000000,0.968508,0.128895,0.404370,-1.428521,0.666877,0.735907,0.174451
0.129000,-0.515192,-0.307328,0.856965,0.999923,0.004788,-0.011347,0.001243,-0.515192,-0.307328,0.856965,0.999923,0.004788,-0.011347,0.001243,1000.000000,100.000000,0.000000,0.000009,0.000000,0.000000,0.000000,0.000000,0.000000,0.000000,0.968508,0.128895,0.404370,-1.428521,0.666877,0.735907,0.174451
0.130000,-0.515192,-0.307328,0.856965,0.999923,0.004788,-0.011347,0.001243,-0.515192,-0.307328,0.856965,0.999923,0.004788,-0.011347,0.001243,1000.000000,100.000000,0.000000,0.000004,0.000000,0.000000,0.000000,0.000000,0.000000,0.000000,0.968508,0.128895,0.404370,-1.428521,0.666877,0.735907,0.174451
0.131000,-0.515192,-0.307328,0.856965,0.999923,0.004788,-0.011347,0.001243,-0.515192,-0.307328,0.856965,0.999923,0.004788,-0.011347,0.001243,1000.000000,100.000000,0.000000,0.000008,0.000000,0.000000,0.000000,0.000000,0.000000,0.000000,0.968508,0.128895,0.404370,-1.428521,0.666877,0.735907,0.174451
0.132000,-0.515192,-0.307328,0.856965,0.999923,0.004788,-0.011347,0.001243,-0.515192,-0.307328,0.856965,0.999923,0.004788,-0.011347,0.001243,1000.000000,100.000000,0.000000,0.000030,0.000000,0.000000,0.000000,0.000000,0.000000,0.000000,0.968508,0.128895,0.404370,-1.428521,0.666877,0.735907,0.174451
0.133000,-0.515192,-0.307328,0.856965,0.999923,0.004788,-0.011347,0.001243,-0.515192,-0.307328,0.856965,0.999923,0.004788,-0.011347,0.001243,1000.000000,100.000000,0.000000,0.000014,0.000000,0.000000,0.000000,0.000000,0.000000,0.000000,0.968508,0.128895,0.404370,-1.428521,0.666877,0.735907,0.174451
0.134000,-0.515192,-0.307328,0.856965,0.999923,0.004788,-0.011347,0.001243,-0.515192,-0.307328,0.856965,0.999923,0.004788,-0.011347,0.001243,1000.000000,100.000000,0.000000,0.000029,0.000000,0.000000,0.000000,0.000000,0.000000,0.000000,0.968508,0.128895,0.404370,-1.428521,0.666877,0.735907,0.174451
0.135000,-0.515192,-0.307328,0.856965,0.999923,0.004788,-0.011347,0.001243,-0.515192,-0.307328,0.856965,0.999923,0.004788,-0.011347,0.001243,1000.000000,100.000000,0.000000,0.000016,0.000000,0.000000,0.000000,0.000000,0.000000,0.000000,0.968508,0.128895,0.404370,-1.428521,0.666877,0.735907,0.174451
0.136000,-0.515192,-0.307328,0.856965,0.999923,0.004788,-0.011347,0.001243,-0.515192,-0.307328,0.856965,0.999923,0.004788,-0.011347,0.001243,1000.000000,100.000000,0.000000,0.000025,0.000000,0.000000,0.000000,0.000000,0.000000,0.000000,0.968508,0.128895,0.404370,-1.428521,0.666876,0.735907,0.174451
0.137000,-0.515192,-0.307328,0.856965,0.999923,0.004788,-0.011347,0.001243,-0.515192,-0.307328,0.856965,0.999923,0.004788,-0.011347,0.001243,1000.000000,100.000000,0.000000,0.000019,0.000000,0.000000,0.000000,0.000000,0.000000,0.000000,0.968508,0.128895,0.404370,-1.428521,0.666877,0.735907,0.174451
0.138000,-0.515192,-0.307328,0.856965,0.999923,0.004788,-0.011347,0.001243,-0.515192,-0.307328,0.856965,0.999923,0.004788,-0.011347,0.001243,1000.000000,100.000000,0.000000,0.000022,0.000000,0.000000,0.000000,0.000000,0.000000,0.000000,0.968508,0.128895,0.404370,-1.428521,0.666876,0.735907,0.174451
0.139000,-0.515192,-0.307328,0.856965,0.999923,0.004788,-0.011347,0.001243,-0.515192,-0.307328,0.856965,0.999923,0.004788,-0.011347,0.001243,1000.000000,100.000000,0.000000,0.000019,0.000000,0.000000,0.000000,0.000000,0.000000,0.000000,0.968508,0.128895,0.404370,-1.428521,0.666877,0.735907,0.174451
0.140000,-0.515192,-0.307328,0.856965,0.999923,0.004788,-0.011347,0.001243,-0.515192,-0.307328,0.856965,0.999923,0.004788,-0.011347,0.001243,1000.000000,100.000000,0.000000,0.000023,0.000000,0.000000,0.000000,0.000000,0.000000,0.000000,0.968508,0.128895,0.404370,-1.428521,0.666876,0.735907,0.174451
0.141000,-0.515192,-0.307328,0.856965,0.999923,0.004788,-0.011347,0.001243,-0.515192,-0.307328,0.856965,0.999923,0.004788,-0.011347,0.001243,1000.000000,100.000000,0.000000,0.000019,0.000000,0.000000,0.000000,0.000000,0.000000,0.000000,0.968508,0.128895,0.404370,-1.428521,0.666877,0.735907,0.174451
0.142000,-0.515192,-0.307328,0.856965,0.999923,0.004788,-0.011347,0.001243,-0.515192,-0.307328,0.856965,0.999923,0.004788,-0.011347,0.001243,1000.000000,100.000000,0.000000,0.000021,0.000000,0.000000,0.000000,0.000000,0.000000,0.000000,0.968508,0.128895,0.404370,-1.428521,0.666876,0.735907,0.174451
0.143000,-0.515192,-0.307328,0.856965,0.999923,0.004788,-0.011347,0.001243,-0.515192,-0.307328,0.856965,0.999923,0.004788,-0.011347,0.001243,1000.000000,100.000000,0.000000,0.000021,0.000000,0.000000,0.000000,0.000000,0.000000,0.000000,0.968508,0.128895,0.404370,-1.428521,0.666877,0.735907,0.174451
0.144000,-0.515192,-0.307328,0.856965,0.999923,0.004788,-0.011347,0.001243,-0.515192,-0.307328,0.856965,0.999923,0.004788,-0.011347,0.001243,1000.000000,100.000000,0.000000,0.000019,0.000000,0.000000,0.000000,0.000000,0.000000,0.000000,0.968508,0.128895,0.404370,-1.428521,0.666876,0.735907,0.174451
0.145000,-0.515192,-0.307328,0.856965,0.999923,0.004788,-0.011347,0.001243,-0.515192,-0.307328,0.856965,0.999923,0.004788,-0.011347,0.001243,1000.000000,100.000000,0.000000,0.000022,0.000000,0.000000,0.000000,0.000000,0.000000,0.000000,0.968508,0.128895,0.404370,-1.428521,0.666877,0.735907,0.174451
0.146000,-0.515192,-0.307328,0.856965,0.999923,0.004788,-0.011347,0.001243,-0.515192,-0.307328,0.856965,0.999923,0.004788,-0.011347,0.001243,1000.000000,100.000000,0.000000,0.000019,0.000000,0.000000,0.000000,0.000000,0.000000,0.000000,0.968508,0.128895,0.404370,-1.428521,0.666876,0.735907,0.174451
0.147000,-0.515192,-0.307328,0.856965,0.999923,0.004788,-0.011347,0.001243,-0.515192,-0.307328,0.856965,0.999923,0.004788,-0.011347,0.001243,1000.000000,100.000000,0.000000,0.000023,0.000000,0.000000,0.000000,0.000000,0.000000,0.000000,0.968508,0.128895,0.404370,-1.428521,0.666877,0.735907,0.174451
0.148000,-0.515192,-0.307328,0.856965,0.999923,0.004788,-0.011347,0.001243,-0.515192,-0.307328,0.856965,0.999923,0.004788,-0.011347,0.001243,1000.000000,100.000000,0.000000,0.000019,0.000000,0.000000,0.000000,0.000000,0.000000,0.000000,0.968508,0.128895,0.404370,-1.428521,0.666877,0.735907,0.174451
0.149000,-0.515192,-0.307328,0.856965,0.999923,0.004788,-0.011347,0.001243,-0.515192,-0.307328,0.856965,0.999923,0.004788,-0.011347,0.001243,1000.000000,100.000000,0.000000,0.000022,0.000000,0.000000,0.000000,0.000000,0.000000,0.000000,0.968508,0.128895,0.404370,-1.428521,0.666877,0.735907,0.174451
0.150000,-0.515192,-0.307328,0.856965,0.999923,0.004788,-0.011347,0.001243,-0.515192,-0.307328,0.856965,0.999923,0.004788,-0.011347,0.001243,1000.000000,100.000000,0.000000,0.000020,0.000000,0.000000,0.000000,0.000000,0.000000,0.000000,0.968508,0.128895,0.404370,-1.428521,0.666877,0.735907,0.174451
0.151000,-0.515192,-0.307328,0.856965,0.999923,0.004788,-0.011347,0.001243,-0.515192,-0.307328,0.856965,0.999923,0.004788,-0.011347,0.001243,1000.000000,100.000000,0.000000,0.000020,0.000000,0.000000,0.000000,0.000000,0.000000,0.000000,0.968508,0.128895,0.404370,-1.428521,0.666877,0.735907,0.174451
0.152000,-0.515192,-0.307328,0.856965,0.999923,0.004788,-0.011347,0.001243,-0.515192,-0.307328,0.856965,0.999923,0.004788,-0.011347,0.001243,1000.000000,100.000000,0.000000,0.000020,0.000000,0.000000,0.000000,0.000000,0.000000,0.000000,0.968508,0.128895,0.404370,-1.428521,0.666877,0.735907,0.174451
0.153000,-0.515192,-0.307328,0.856965,0.999923,0.004788,-0.011347,0.001243,-0.515192,-0.307328,0.856965,0.999923,0.004788,-0.011347,0.001243,1000.000000,100.000000,0.000000,0.000022,0.000000,0.000000,0.000000,0.000000,0.000000,0.000000,0.968508,0.128895,0.404370,-1.428521,0.666877,0.735907,0.174451
0.154000,-0.515192,-0.307328,0.856965,0.999923,0.004788,-0.011347,0.001243,-0.515192,-0.307328,0.856965,0.999923,0.004788,-0.011347,0.001243,1000.000000,100.000000,0.000000,0.000020,0.000000,0.000000,0.000000,0.000000,0.000000,0.000000,0.968508,0.128895,0.404370,-1.428521,0.666877,0.735907,0.174451
0.155000,-0.515192,-0.307328,0.856965,0.999923,0.004788,-0.011347,0.001243,-0.515192,-0.307328,0.856965,0.999923,0.004788,-0.011347,0.001243,1000.000000,100.000000,0.000000,0.000020,0.000000,0.000000,0.000000,0.000000,0.000000,0.000000,0.968508,0.128895,0.404370,-1.428521,0.666877,0.735907,0.174451
0.156000,-0.515192,-0.307328,0.856965,0.999923,0.004788,-0.011347,0.001243,-0.515192,-0.307328,0.856965,0.999923,0.004788,-0.011347,0.001243,1000.000000,100.000000,0.000000,0.000020,0.000000,0.000000,0.000000,0.000000,0.000000,0.000000,0.968508,0.128895,0.404370,-1.428521,0.666877,0.735907,0.174451
0.157000,-0.515192,-0.307328,0.856965,0.999923,0.004788,-0.011347,0.001243,-0.515192,-0.307328,0.856965,0.999923,0.004788,-0.011347,0.001243,1000.000000,100.000000,0.000000,0.000022,0.000000,0.000000,0.000000,0.000000,0.000000,0.000000,0.968508,0.128895,0.404370,-1.428521,0.666877,0.735907,0.174451
0.158000,-0.515192,-0.307328,0.856965,0.999923,0.004788,-0.011347,0.001243,-0.515192,-0.307328,0.856965,0.999923,0.004788,-0.011347,0.001243,1000.000000,100.000000,0.000000,0.000020,0.000000,0.000000,0.000000,0.000000,0.000000,0.000000,0.968508,0.128895,0.404370,-1.428521,0.666877,0.735907,0.174451
0.159000,-0.515192,-0.307328,0.856965,0.999923,0.004788,-0.011347,0.001243,-0.515192,-0.307328,0.856965,0.999923,0.004788,-0.011347,0.001243,1000.000000,100.000000,0.000000,0.000020,0.000000,0.000000,0.000000,0.000000,0.000000,0.000000,0.968508,0.128895,0.404370,-1.428521,0.666877,0.735907,0.174451
0.160000,-0.515192,-0.307328,0.856965,0.999923,0.004788,-0.011347,0.001243,-0.515192,-0.307328,0.856965,0.999923,0.004788,-0.011347,0.001243,1000.000000,100.000000,0.000000,0.000021,0.000000,0.000000,0.000000,0.000000,0.000000,0.000000,0.968508,0.128895,0.404370,-1.428521,0.666877,0.735907,0.174451
0.161000,-0.515192,-0.307328,0.856965,0.999923,0.004788,-0.011347,0.001243,-0.515192,-0.307328,0.856965,0.999923,0.004788,-0.011347,0.001243,1000.000000,100.000000,0.000000,0.000019,0.000000,0.000000,0.000000,0.000000,0.000000,0.000000,0.968508,0.128895,0.404370,-1.428521,0.666877,0.735907,0.174451
0.162000,-0.515192,-0.307328,0.856965,0.999923,0.004788,-0.011347,0.001243,-0.515192,-0.307328,0.856965,0.999923,0.004788,-0.011347,0.001243,1000.000000,100.000000,0.000000,0.000020,0.000000,0.000000,0.000000,0.000000,0.000000,0.000000,0.968508,0.128895,0.404370,-1.428521,0.666877,0.735907,0.174451
0.163000,-0.515192,-0.307328,0.856965,0.999923,0.004788,-0.011347,0.001243,-0.515192,-0.307328,0.856965,0.999923,0.004788,-0.011347,0.001243,1000.000000,100.000000,0.000000,0.000021,0.000000,0.000000,0.000000,0.000000,0.000000,0.000000,0.968508,0.128895,0.404370,-1.428521,0.666877,0.735907,0.174451
0.164000,-0.515192,-0.307328,0.856965,0.999923,0.004788,-0.011347,0.001243,-0.515192,-0.307328,0.856965,0.999923,0.004788,-0.011347,0.001243,1000.000000,100.000000,0.000000,0.000020,0.000000,0.000000,0.000000,0.000000,0.000000,0.000000,0.968508,0.128895,0.404370,-1.428521,0.666877,0.735907,0.174451
0.165000,-0.515192,-0.307328,0.856965,0.999923,0.004788,-0.011347,0.001243,-0.515192,-0.307328,0.856965,0.999923,0.004788,-0.011347,0.001243,1000.000000,100.000000,0.000000,0.000020,0.000000,0.000000,0.000000,0.000000,0.000000,0.000000,0.968508,0.128895,0.404370,-1.428521,0.666877,0.735907,0.174451
0.166000,-0.515192,-0.307328,0.856965,0.999923,0.004788,-0.011347,0.001243,-0.515192,-0.307328,0.856965,0.999923,0.004788,-0.011347,0.001243,1000.000000,100.000000,0.000000,0.000020,0.000000,0.000000,0.000000,0.000000,0.000000,0.000000,0.968508,0.128895,0.404370,-1.428521,0.666877,0.735907,0.174451
0.167000,-0.515192,-0.307328,0.856965,0.999923,0.004788,-0.011347,0.001243,-0.515192,-0.307328,0.856965,0.999923,0.004788,-0.011347,0.001243,1000.000000,100.000000,0.000000,0.000021,0.000000,0.000000,0.000000,0.000000,0.000000,0.000000,0.968508,0.128895,0.404370,-1.428521,0.666877,0.735907,0.174451
0.168000,-0.515192,-0.307328,0.856965,0.999923,0.004788,-0.011347,0.001243,-0.515192,-0.307328,0.856965,0.999923,0.004788,-0.011347,0.001243,1000.000000,100.000000,0.000000,0.000020,0.000000,0.000000,0.000000,0.000000,0.000000,0.000000,0.968508,0.128895,0.404370,-1.428521,0.666877,0.735907,0.174451
0.169000,-0.515192,-0.307328,0.856965,0.999923,0.004788,-0.011347,0.001243,-0.515192,-0.307328,0.856965,0.999923,0.004788,-0.011347,0.001243,1000.000000,100.000000,0.000000,0.000021,0.000000,0.000000,0.000000,0.000000,0.000000,0.000000,0.968508,0.128895,0.404370,-1.428521,0.666877,0.735907,0.174451
0.170000,-0.515192,-0.307328,0.856965,0.999923,0.004788,-0.011347,0.001243,-0.515192,-0.307328,0.856965,0.999923,0.004788,-0.011347,0.001243,1000.000000,100.000000,0.000000,0.000019,0.000000,0.000000,0.000000,0.000000,0.000000,0.000000,0.968508,0.128895,0.404370,-1.428521,0.666877,0.735907,0.174451
0.171000,-0.515192,-0.307328,0.856965,0.999923,0.004788,-0.011347,0.001243,-0.515192,-0.307328,0.856965,0.999923,0.004788,-0.011347,0.001243,1000.000000,100.000000,0.000000,0.000022,0.000000,0.000000,0.000000,0.000000,0.000000,0.000000,0.968508,0.128895,0.404370,-1.428521,0.666877,0.735907,0.174451
0.172000,-0.515192,-0.307328,0.856965,0.999923,0.004788,-0.011347,0.001243,-0.515192,-0.307328,0.856965,0.999923,0.004788,-0.011347,0.001243,1000.000000,100.000000,0.000000,0.000020,0.000000,0.000000,0.000000,0.000000,0.000000,0.000000,0.968508,0.128895,0.404370,-1.428521,0.666877,0.735907,0.174451
0.173000,-0.515192,-0.307328,0.856965,0.999923,0.004788,-0.011347,0.001243,-0.515192,-0.307328,0.856965,0.999923,0.004788,-0.011347,0.001243,1000.000000,100.000000,0.000000,0.000020,0.000000,0.000000,0.000000,0.000000,0.000000,0.000000,0.968508,0.128895,0.404370,-1.428521,0.666877,0.735907,0.174451
0.174000,-0.515192,-0.307328,0.856965,0.999923,0.004788,-0.011347,0.001243,-0.515192,-0.307328,0.856965,0.999923,0.004788,-0.011347,0.001243,1000.000000,100.000000,0.000000,0.000021,0.000000,0.000000,0.000000,0.000000,0.000000,0.000000,0.968508,0.128895,0.404370,-1.428521,0.666877,0.735907,0.174451
0.175000,-0.515192,-0.307328,0.856965,0.999923,0.004788,-0.011347,0.001243,-0.515192,-0.307328,0.856965,0.999923,0.004788,-0.011347,0.001243,1000.000000,100.000000,0.000000,0.000020,0.000000,0.000000,0.000000,0.000000,0.000000,0.000000,0.968508,0.128895,0.404370,-1.428521,0.666877,0.735907,0.174451
0.176000,-0.515192,-0.307328,0.856965,0.999923,0.004788,-0.011347,0.001243,-0.515192,-0.307328,0.856965,0.999923,0.004788,-0.011347,0.001243,1000.000000,100.000000,0.000000,0.000020,0.000000,0.000000,0.000000,0.000000,0.000000,0.000000,0.968508,0.128895,0.404370,-1.428521,0.666877,0.735907,0.174451
0.177000,-0.515192,-0.307328,0.856965,0.999923,0.004788,-0.011347,0.001243,-0.515192,-0.307328,0.856965,0.999923,0.004788,-0.011347,0.001243,1000.000000,100.000000,0.000000,0.000023,0.000000,0.000000,0.000000,0.000000,0.000000,0.000000,0.968508,0.128895,0.404370,-1.428521,0.666877,0.735907,0.174451
0.178000,-0.515192,-0.307328,0.856965,0.999923,0.004788,-0.011347,0.001243,-0.515192,-0.307328,0.856965,0.999923,0.004788,-0.011347,0.001243,1000.000000,100.000000,0.000000,0.000019,0.000000,0.000000,0.000000,0.000000,0.000000,0.000000,0.968508,0.128895,0.404370,-1.428521,0.666877,0.735907,0.174451
0.179000,-0.515192,-0.307328,0.856965,0.999923,0.004788,-0.011347,0.001243,-0.515192,-0.307328,0.856965,0.999923,0.004788,-0.011347,0.001243,1000.000000,100.000000,0.000000,0.000021,0.000000,0.000000,0.000000,0.000000,0.000000,0.000000,0.968508,0.128895,0.404370,-1.428521,0.666877,0.735907,0.174451
0.180000,-0.515192,-0.307328,0.856965,0.999923,0.004788,-0.011347,0.001243,-0.515192,-0.307328,0.856965,0.999923,0.004788,-0.011347,0.001243,1000.000000,100.000000,0.000000,0.000021,0.000000,0.000000,0.000000,0.000000,0.000000,0.000000,0.968508,0.128895,0.404370,-1.428521,0.666877,0.735907,0.174451
0.181000,-0.515192,-0.307328,0.856965,0.999923,0.004788,-0.011347,0.001243,-0.515192,-0.307328,0.856965,0.999923,0.004788,-0.011347,0.001243,1000.000000,100.000000,0.000000,0.000019,0.000000,0.000000,0.000000,0.000000,0.000000,0.000000,0.968508,0.128895,0.404370,-1.428521,0.666877,0.735907,0.174451
0.182000,-0.515192,-0.307328,0.856965,0.999923,0.004788,-0.011347,0.001243,-0.515192,-0.307328,0.856965,0.999923,0.004788,-0.011347,0.001243,1000.000000,100.000000,0.000000,0.000022,0.000000,0.000000,0.000000,0.000000,0.000000,0.000000,0.968508,0.128895,0.404370,-1.428521,0.666877,0.735907,0.174451
0.183000,-0.515192,-0.307328,0.856965,0.999923,0.004788,-0.011347,0.001243,-0.515192,-0.307328,0.856965,0.999923,0.004788,-0.011347,0.001243,1000.000000,100.000000,0.000000,0.000020,0.000000,0.000000,0.000000,0.000000,0.000000,0.000000,0.968508,0.128895,0.404370,-1.428521,0.666877,0.735907,0.174451
0.184000,-0.515192,-0.307328,0.856965,0.999923,0.004788,-0.011347,0.001243,-0.515192,-0.307328,0.856965,0.999923,0.004788,-0.011347,0.001243,1000.000000,100.000000,0.000000,0.000020,0.000000,0.000000,0.000000,0.000000,0.000000,0.000000,0.968508,0.128895,0.404370,-1.428521,0.666877,0.735907,0.174451
0.185000,-0.515192,-0.307328,0.856965,0.999923,0.004788,-0.011347,0.001243,-0.515192,-0.307328,0.856965,0.999923,0.004788,-0.011347,0.001243,1000.000000,100.000000,0.000000,0.000022,0.000000,0.000000,0.000000,0.000000,0.000000,0.000000,0.968508,0.128895,0.404370,-1.428521,0.666877,0.735907,0.174451
0.186000,-0.515192,-0.307328,0.856965,0.999923,0.004788,-0.011347,0.001243,-0.515192,-0.307328,0.856965,0.999923,0.004788,-0.011347,0.001243,1000.000000,100.000000,0.000000,0.000020,0.000000,0.000000,0.000000,0.000000,0.000000,0.000000,0.968508,0.128895,0.404370,-1.428521,0.666877,0.735907,0.174451
0.187000,-0.515192,-0.307328,0.856965,0.999923,0.004788,-0.011347,0.001243,-0.515192,-0.307328,0.856965,0.999923,0.004788,-0.011347,0.001243,1000.000000,100.000000,0.000000,0.000020,0.000000,0.000000,0.000000,0.000000,0.000000,0.000000,0.968508,0.128895,0.404370,-1.428521,0.666877,0.735907,0.174451
0.188000,-0.515192,-0.307328,0.856965,0.999923,0.004788,-0.011347,0.001243,-0.515192,-0.307328,0.856965,0.999923,0.004788,-0.011347,0.001243,1000.000000,100.000000,0.000000,0.000021,0.000000,0.000000,0.000000,0.000000,0.000000,0.000000,0.968508,0.128895,0.404370,-1.428521,0.666877,0.735907,0.174451
0.189000,-0.515192,-0.307328,0.856965,0.999923,0.004788,-0.011347,0.001243,-0.515192,-0.307328,0.856965,0.999923,0.004788,-0.011347,0.001243,1000.000000,100.000000,0.000000,0.000020,0.000000,0.000000,0.000000,0.000000,0.000000,0.000000,0.968508,0.128895,0.404370,-1.428521,0.666877,0.735907,0.174451
0.190000,-0.515192,-0.307328,0.856965,0.999923,0.004788,-0.011347,0.001243,-0.515192,-0.307328,0.856965,0.999923,0.004788,-0.011347,0.001243,1000.000000,100.000000,0.000000,0.000020,0.000000,0.000000,0.000000,0.000000,0.000000,0.000000,0.968508,0.128895,0.404370,-1.428521,0.666877,0.735907,0.174451
0.191000,-0.515192,-0.307328,0.856965,0.999923,0.004788,-0.011347,0.001243,-0.515192,-0.307328,0.856965,0.999923,0.004788,-0.011347,0.001243,1000.000000,100.000000,0.000000,0.000022,0.000000,0.000000,0.000000,0.000000,0.000000,0.000000,0.968508,0.128895,0.404370,-1.428521,0.666877,0.735907,0.174451
0.192000,-0.515192,-0.307328,0.856965,0.999923,0.004788,-0.011347,0.001243,-0.515192,-0.307328,0.856965,0.999923,0.004788,-0.011347,0.001243,1000.000000,100.000000,0.000000,0.000020,0.000000,0.000000,0.000000,0.000000,0.000000,0.000000,0.968508,0.128895,0.404370,-1.428521,0.666877,0.735907,0.174451
0.193000,-0.515192,-0.307328,0.856965,0.999923,0.004788,-0.011347,0.001243,-0.515192,-0.307328,0.856965,0.999923,0.004788,-0.011347,0.001243,1000.000000,100.000000,0.000000,0.000020,0.000000,0.000000,0.000000,0.000000,0.000000,0.000000,0.968508,0.128895,0.404370,-1.428521,0.666877,0.735907,0.174451
0.194000,-0.515192,-0.307328,0.856965,0.999923,0.004788,-0.011347,0.001243,-0.515192,-0.307328,0.856965,0.999923,0.004788,-0.011347,0.001243,1000.000000,100.000000,0.000000,0.000022,0.000000,0.000000,0.000000,0.000000,0.000000,0.000000,0.968508,0.128895,0.404370,-1.428521,0.666877,0.735907,0.174451
0.195000,-0.515192,-0.307328,0.856965,0.999923,0.004788,-0.011347,0.001243,-0.515192,-0.307328,0.856965,0.999923,0.004788,-0.011347,0.001243,1000.000000,100.000000,0.000000,0.000020,0.000000,0.000000,0.000000,0.000000,0.000000,0.000000,0.968508,0.128895,0.404370,-1.428521,0.666877,0.735907,0.174451
0.196000,-0.515192,-0.307328,0.856965,0.999923,0.004788,-0.011347,0.001243,-0.515192,-0.307328,0.856965,0.999923,0.004788,-0.011347,0.001243,1000.000000,100.000000,0.000000,0.000020,0.000000,0.000000,0.000000,0.000000,0.000000,0.000000,0.968508,0.128895,0.404370,-1.428521,0.666877,0.735907,0.174451
0.197000,-0.515192,-0.307328,0.856965,0.999923,0.004788,-0.011347,0.001243,-0.515192,-0.307328,0.856965,0.999923,0.004788,-0.011347,0.001243,1000.000000,100.000000,0.000000,0.000022,0.000000,0.000000,0.000000,0.000000,0.000000,0.000000,0.968508,0.128895,0.404370,-1.428521,0.666877,0.735907,0.174451
0.198000,-0.515192,-0.307328,0.856965,0.999923,0.004788,-0.011347,0.001243,-0.515192,-0.307328,0.856965,0.999923,0.004788,-0.011347,0.001243,1000.000000,100.000000,0.000000,0.000020,0.000000,0.000000,0.000000,0.000000,0.000000,0.000000,0.968508,0.128895,0.404370,-1.428521,0.666877,0.735907,0.174451
0.199000,-0.515192,-0.307328,0.856965,0.999923,0.004788,-0.011347,0.001243,-0.515192,-0.307328,0.856965,0.999923,0.004788,-0.011347,0.001243,1000.000000,100.000000,0.000000,0.000020,0.000000,0.000000,0.000000,0.000000,0.000000,0.000000,0.968508,0.128895,0.404370,-1.428521,0.666877,0.735907,0.174451
0.200000,-0.515192,-0.307328,0.856965,0.999923,0.004788,-0.011347,0.001243,-0.515192,-0.307328,0.856965,0.999923,0.004788,-0.011347,0.001243,1000.000000,100.000000,0.000000,0.000022,0.000000,0.000000,0.000000,0.000000,0.000000,0.000000,0.968508,0.128895,0.404370,-1.428521,0.666877,0.735907,0.174451
0.201000,-0.515192,-0.307328,0.856965,0.999923,0.004788,-0.011347,0.001243,-0.515192,-0.307328,0.856965,0.999923,0.004788,-0.011347,0.001243,1000.000000,100.000000,0.000000,0.000020,0.000000,0.000000,0.000000,0.000000,0.000000,0.000000,0.968508,0.128895,0.404370,-1.428521,0.666877,0.735907,0.174451
0.202000,-0.515192,-0.307328,0.856965,0.999923,0.004788,-0.011347,0.001243,-0.515192,-0.307328,0.856965,0.999923,0.004788,-0.011347,0.001243,1000.000000,100.000000,0.000000,0.000020,0.000000,0.000000,0.000000,0.000000,0.000000,0.000000,0.968508,0.128895,0.404370,-1.428521,0.666877,0.735907,0.174451
0.203000,-0.515192,-0.307328,0.856965,0.999923,0.004788,-0.011347,0.001243,-0.515192,-0.307328,0.856965,0.999923,0.004788,-0.011347,0.001243,1000.000000,100.000000,0.000000,0.000022,0.000000,0.000000,0.000000,0.000000,0.000000,0.000000,0.968508,0.128895,0.404370,-1.428521,0.666877,0.735907,0.174451
0.204000,-0.515192,-0.307328,0.856965,0.999923,0.004788,-0.011347,0.001243,-0.515192,-0.307328,0.856965,0.999923,0.004788,-0.011347,0.001243,1000.000000,100.000000,0.000000,0.000020,0.000000,0.000000,0.000000,0.000000,0.000000,0.000000,0.968508,0.128895,0.404370,-1.428521,0.666877,0.735907,0.174451
0.205000,-0.515192,-0.307328,0.856965,0.999923,0.004788,-0.011347,0.001243,-0.515192,-0.307328,0.856965,0.999923,0.004788,-0.011347,0.001243,1000.000000,100.000000,0.000000,0.000020,0.000000,0.000000,0.000000,0.000000,0.000000,0.000000,0.968508,0.128895,0.404370,-1.428521,0.666877,0.735907,0.174451
0.206000,-0.515192,-0.307328,0.856965,0.999923,0.004788,-0.011347,0.001243,-0.515192,-0.307328,0.856965,0.999923,0.004788,-0.011347,0.001243,1000.000000,100.000000,0.000000,0.000022,0.000000,0.000000,0.000000,0.000000,0.000000,0.000000,0.968508,0.128895,0.404370,-1.428521,0.666877,0.735907,0.174451
0.207000,-0.515192,-0.307328,0.856965,0.999923,0.004788,-0.011347,0.001243,-0.515192,-0.307328,0.856965,0.999923,0.004788,-0.011347,0.001243,1000.000000,100.000000,0.000000,0.000020,0.000000,0.000000,0.000000,0.000000,0.000000,0.000000,0.968508,0.128895,0.404370,-1.428521,0.666877,0.735907,0.174451
0.208000,-0.515192,-0.307328,0.856965,0.999923,0.004788,-0.011347,0.001243,-0.515192,-0.307328,0.856965,0.999923,0.004788,-0.011347,0.001243,1000.000000,100.000000,0.000000,0.000020,0.000000,0.000000,0.000000,0.000000,0.000000,0.000000,0.968508,0.128895,0.404370,-1.428521,0.666877,0.735907,0.174451
0.209000,-0.515192,-0.307328,0.856965,0.999923,0.004788,-0.011347,0.001243,-0.515192,-0.307328,0.856965,0.999923,0.004788,-0.011347,0.001243,1000.000000,100.000000,0.000000,0.000022,0.000000,0.000000,0.000000,0.000000,0.000000,0.000000,0.968508,0.128895,0.404370,-1.428521,0.666877,0.735907,0.174451
0.210000,-0.515192,-0.307328,0.856965,0.999923,0.004788,-0.011347,0.001243,-0.515192,-0.307328,0.856965,0.999923,0.004788,-0.011347,0.001243,1000.000000,100.000000,0.000000,0.000020,0.000000,0.000000,0.000000,0.000000,0.000000,0.000000,0.968508,0.128895,0.404370,-1.428521,0.666877,0.735907,0.174451
0.211000,-0.515192,-0.307328,0.856965,0.999923,0.004788,-0.011347,0.001243,-0.515192,-0.307328,0.856965,0.999923,0.004788,-0.011347,0.001243,1000.000000,100.000000,0.000000,0.000021,0.000000,0.000000,0.000000,0.000000,0.000000,0.000000,0.968508,0.128895,0.404370,-1.428521,0.666877,0.735907,0.174451
0.212000,-0.515192,-0.307328,0.856965,0.999923,0.004788,-0.011347,0.001243,-0.515192,-0.307328,0.856965,0.999923,0.004788,-0.011347,0.001243,1000.000000,100.000000,0.000000,0.000021,0.000000,0.000000,0.000000,0.000000,0.000000,0.000000,0.968508,0.128895,0.404370,-1.428521,0.666877,0.735907,0.174451
0.213000,-0.515192,-0.307328,0.856965,0.999923,0.004788,-0.011347,0.001243,-0.515192,-0.307328,0.856965,0.999923,0.004788,-0.011347,0.001243,1000.000000,100.000000,0.000000,0.000019,0.000000,0.000000,0.000000,0.000000,0.000000,0.000000,0.968508,0.128895,0.404370,-1.428521,0.666877,0.735907,0.174451
0.214000,-0.515192,-0.307328,0.856965,0.999923,0.004788,-0.011347,0.001243,-0.515192,-0.307328,0.856965,0.999923,0.004788,-0.011347,0.001243,1000.000000,100.000000,0.000000,0.000022,0.000000,0.000000,0.000000,0.000000,0.000000,0.000000,0.968508,0.128895,0.404370,-1.428521,0.666877,0.735907,0.174451
0.215000,-0.515192,-0.307328,0.856965,0.999923,0.004788,-0.011347,0.001243,-0.515192,-0.307328,0.856965,0.999923,0.004788,-0.011347,0.001243,1000.000000,100.000000,0.000000,0.000019,0.000000,0.000000,0.000000,0.000000,0.000000,0.000000,0.968508,0.128895,0.404370,-1.428521,0.666877,0.735907,0.174451
0.215000,-0.515192,-0.307328,0.856965,0.999923,0.004788,-0.011347,0.001243,-0.515192,-0.307328,0.856965,0.999923,0.004788,-0.011347,0.001243,1000.000000,100.000000,0.000000,0.000020,0.000000,0.000000,0.000000,0.000000,0.000000,0.000000,0.968508,0.128895,0.404370,-1.428521,0.666877,0.735907,0.174451
0.217000,-0.515192,-0.307328,0.856965,0.999923,0.004788,-0.011347,0.001243,-0.515192,-0.307328,0.856965,0.999923,0.004788,-0.011347,0.001243,1000.000000,100.000000,0.000000,0.000022,0.000000,0.000000,0.000000,0.000000,0.000000,0.000000,0.968508,0.128895,0.404370,-1.428521,0.666877,0.735907,0.174451
0.218000,-0.515192,-0.307328,0.856965,0.999923,0.004788,-0.011347,0.001243,-0.515192,-0.307328,0.856965,0.999923,0.004788,-0.011347,0.001243,1000.000000,100.000000,0.000000,0.000020,0.000000,0.000000,0.000000,0.000000,0.000000,0.000000,0.968508,0.128895,0.404370,-1.428521,0.666877,0.735907,0.174451
0.219000,-0.515192,-0.307328,0.856965,0.999923,0.004788,-0.011347,0.001243,-0.515192,-0.307328,0.856965,0.999923,0.004788,-0.011347,0.001243,1000.000000,100.000000,0.000000,0.000019,0.000000,0.000000,0.000000,0.000000,0.000000,0.000000,0.968508,0.128895,0.404370,-1.428521,0.666877,0.735907,0.174451
0.220000,-0.515192,-0.307328,0.856965,0.999923,0.004788,-0.011347,0.001243,-0.515192,-0.307328,0.856965,0.999923,0.004788,-0.011347,0.001243,1000.000000,100.000000,0.000000,0.000022,0.000000,0.000000,0.000000,0.000000,0.000000,0.000000,0.968508,0.128895,0.404370,-1.428521,0.666877,0.735907,0.174451
0.221000,-0.515192,-0.307328,0.856965,0.999923,0.004788,-0.011347,0.001243,-0.515192,-0.307328,0.856965,0.999923,0.004788,-0.011347,0.001243,1000.000000,100.000000,0.000000,0.000020,0.000000,0.000000,0.000000,0.000000,0.000000,0.000000,0.968508,0.128895,0.404370,-1.428521,0.666877,0.735907,0.174451
0.221000,-0.515192,-0.307328,0.856965,0.999923,0.004788,-0.011347,0.001243,-0.515192,-0.307328,0.856965,0.999923,0.004788,-0.011347,0.001243,1000.000000,100.000000,0.000000,0.000020,0.000000,0.000000,0.000000,0.000000,0.000000,0.000000,0.968508,0.128895,0.404370,-1.428521,0.666877,0.735907,0.174451
0.223000,-0.515192,-0.307328,0.856965,0.999923,0.004788,-0.011347,0.001243,-0.515192,-0.307328,0.856965,0.999923,0.004788,-0.011347,0.001243,1000.000000,100.000000,0.000000,0.000022,0.000000,0.000000,0.000000,0.000000,0.000000,0.000000,0.968508,0.128895,0.404370,-1.428521,0.666877,0.735907,0.174451
0.224000,-0.515192,-0.307328,0.856965,0.999923,0.004788,-0.011347,0.001243,-0.515192,-0.307328,0.856965,0.999923,0.004788,-0.011347,0.001243,1000.000000,100.000000,0.000000,0.000020,0.000000,0.000000,0.000000,0.000000,0.000000,0.000000,0.968508,0.128895,0.404370,-1.428521,0.666877,0.735907,0.174451
0.225000,-0.515192,-0.307328,0.856965,0.999923,0.004788,-0.011347,0.001243,-0.515192,-0.307328,0.856965,0.999923,0.004788,-0.011347,0.001243,1000.000000,100.000000,0.000000,0.000021,0.000000,0.000000,0.000000,0.000000,0.000000,0.000000,0.968508,0.128895,0.404370,-1.428521,0.666877,0.735907,0.174451
0.226000,-0.515192,-0.307328,0.856965,0.999923,0.004788,-0.011347,0.001243,-0.515192,-0.307328,0.856965,0.999923,0.004788,-0.011347,0.001243,1000.000000,100.000000,0.000000,0.000021,0.000000,0.000000,0.000000,0.000000,0.000000,0.000000,0.968508,0.128895,0.404370,-1.428521,0.666877,0.735907,0.174451
0.227000,-0.515192,-0.307328,0.856965,0.999923,0.004788,-0.011347,0.001243,-0.515192,-0.307328,0.856965,0.999923,0.004788,-0.011347,0.001243,1000.000000,100.000000,0.000000,0.000019,0.000000,0.000000,0.000000,0.000000,0.000000,0.000000,0.968508,0.128895,0.404370,-1.428521,0.666877,0.735907,0.174451
0.228000,-0.515192,-0.307328,0.856965,0.999923,0.004788,-0.011347,0.001243,-0.515192,-0.307328,0.856965,0.999923,0.004788,-0.011347,0.001243,1000.000000,100.000000,0.000000,0.000022,0.000000,0.000000,0.000000,0.000000,0.000000,0.000000,0.968508,0.128895,0.404370,-1.428521,0.666877,0.735907,0.174451
0.229000,-0.515192,-0.307328,0.856965,0.999923,0.004788,-0.011347,0.001243,-0.515192,-0.307328,0.856965,0.999923,0.004788,-0.011347,0.001243,1000.000000,100.000000,0.000000,0.000019,0.000000,0.000000,0.000000,0.000000,0.000000,0.000000,0.968508,0.128895,0.404370,-1.428521,0.666877,0.735907,0.174451
0.230000,-0.515192,-0.307328,0.856965,0.999923,0.004788,-0.011347,0.001243,-0.515192,-0.307328,0.856965,0.999923,0.004788,-0.011347,0.001243,1000.000000,100.000000,0.000000,0.000020,0.000000,0.000000,0.000000,0.000000,0.000000,0.000000,0.968508,0.128895,0.404370,-1.428521,0.666877,0.735907,0.174451
0.231000,-0.515192,-0.307328,0.856965,0.999923,0.004788,-0.011347,0.001243,-0.515192,-0.307328,0.856965,0.999923,0.004788,-0.011347,0.001243,1000.000000,100.000000,0.000000,0.000022,0.000000,0.000000,0.000000,0.000000,0.000000,0.000000,0.968508,0.128895,0.404370,-1.428521,0.666877,0.735907,0.174451
0.232000,-0.515192,-0.307328,0.856965,0.999923,0.004788,-0.011347,0.001243,-0.515192,-0.307328,0.856965,0.999923,0.004788,-0.011347,0.001243,1000.000000,100.000000,0.000000,0.000020,0.000000,0.000000,0.000000,0.000000,0.000000,0.000000,0.968508,0.128895,0.404370,-1.428521,0.666877,0.735907,0.174451
0.233000,-0.515192,-0.307328,0.856965,0.999923,0.004788,-0.011347,0.001243,-0.515192,-0.307328,0.856965,0.999923,0.004788,-0.011347,0.001243,1000.000000,100.000000,0.000000,0.000019,0.000000,0.000000,0.000000,0.000000,0.000000,0.000000,0.968508,0.128895,0.404370,-1.428521,0.666877,0.735907,0.174451
0.234000,-0.515192,-0.307328,0.856965,0.999923,0.004788,-0.011347,0.001243,-0.515192,-0.307328,0.856965,0.999923,0.004788,-0.011347,0.001243,1000.000000,100.000000,0.000000,0.000022,0.000000,0.000000,0.000000,0.000000,0.000000,0.000000,0.968508,0.128895,0.404370,-1.428521,0.666877,0.735907,0.174451
0.235000,-0.515192,-0.307328,0.856965,0.999923,0.004788,-0.011347,0.001243,-0.515192,-0.307328,0.856965,0.999923,0.004788,-0.011347,0.001243,1000.000000,100.000000,0.000000,0.000020,0.000000,0.000000,0.000000,0.000000,0.000000,0.000000,0.968508,0.128895,0.404370,-1.428521,0.666877,0.735907,0.174451
0.236000,-0.515192,-0.307328,0.856965,0.999923,0.004788,-0.011347,0.001243,-0.515192,-0.307328,0.856965,0.999923,0.004788,-0.011347,0.001243,1000.000000,100.000000,0.000000,0.000020,0.000000,0.000000,0.000000,0.000000,0.000000,0.000000,0.968508,0.128895,0.404370,-1.428521,0.666877,0.735907,0.174451
0.237000,-0.515192,-0.307328,0.856965,0.999923,0.004788,-0.011347,0.001243,-0.515192,-0.307328,0.856965,0.999923,0.004788,-0.011347,0.001243,1000.000000,100.000000,0.000000,0.000022,0.000000,0.000000,0.000000,0.000000,0.000000,0.000000,0.968508,0.128895,0.404370,-1.428521,0.666877,0.735907,0.174451
0.238000,-0.515192,-0.307328,0.856965,0.999923,0.004788,-0.011347,0.001243,-0.515192,-0.307328,0.856965,0.999923,0.004788,-0.011347,0.001243,1000.000000,100.000000,0.000000,0.000020,0.000000,0.000000,0.000000,0.000000,0.000000,0.000000,0.968508,0.128895,0.404370,-1.428521,0.666877,0.735907,0.174451
0.239000,-0.515192,-0.307328,0.856965,0.999923,0.004788,-0.011347,0.001243,-0.515192,-0.307328,0.856965,0.999923,0.004788,-0.011347,0.001243,1000.000000,100.000000,0.000000,0.000020,0.000000,0.000000,0.000000,0.000000,0.000000,0.000000,0.968508,0.128895,0.404370,-1.428521,0.666877,0.735907,0.174451
0.240000,-0.515192,-0.307328,0.856965,0.999923,0.004788,-0.011347,0.001243,-0.515192,-0.307328,0.856965,0.999923,0.004788,-0.011347,0.001243,1000.000000,100.000000,0.000000,0.000022,0.000000,0.000000,0.000000,0.000000,0.000000,0.000000,0.968508,0.128895,0.404370,-1.428521,0.666877,0.735907,0.174451
0.241000,-0.515192,-0.307328,0.856965,0.999923,0.004788,-0.011347,0.001243,-0.515192,-0.307328,0.856965,0.999923,0.004788,-0.011347,0.001243,1000.000000,100.000000,0.000000,0.000020,0.000000,0.000000,0.000000,0.000000,0.000000,0.000000,0.968508,0.128895,0.404370,-1.428521,0.666877,0.735907,0.174451
0.242000,-0.515192,-0.307328,0.856965,0.999923,0.004788,-0.011347,0.001243,-0.515192,-0.307328,0.856965,0.999923,0.004788,-0.011347,0.001243,1000.000000,100.000000,0.000000,0.000020,0.000000,0.000000,0.000000,0.000000,0.000000,0.000000,0.968508,0.128895,0.404370,-1.428521,0.666877,0.735907,0.174451
0.243000,-0.515192,-0.307328,0.856965,0.999923,0.004788,-0.011347,0.001243,-0.515192,-0.307328,0.856965,0.999923,0.004788,-0.011347,0.001243,1000.000000,100.000000,0.000000,0.000022,0.000000,0.000000,0.000000,0.000000,0.000000,0.000000,0.968508,0.128895,0.404370,-1.428521,0.666877,0.735907,0.174451
0.244000,-0.515192,-0.307328,0.856965,0.999923,0.004788,-0.011347,0.001243,-0.515192,-0.307328,0.856965,0.999923,0.004788,-0.011347,0.001243,1000.000000,100.000000,0.000000,0.000020,0.000000,0.000000,0.000000,0.000000,0.000000,0.000000,0.968508,0.128895,0.404370,-1.428521,0.666877,0.735907,0.174451
0.245000,-0.515192,-0.307328,0.856965,0.999923,0.004788,-0.011347,0.001243,-0.515192,-0.307328,0.856965,0.999923,0.004788,-0.011347,0.001243,1000.000000,100.000000,0.000000,0.000021,0.000000,0.000000,0.000000,0.000000,0.000000,0.000000,0.968508,0.128895,0.404370,-1.428521,0.666877,0.735907,0.174451
0.246000,-0.515192,-0.307328,0.856965,0.999923,0.004788,-0.011347,0.001243,-0.515192,-0.307328,0.856965,0.999923,0.004788,-0.011347,0.001243,1000.000000,100.000000,0.000000,0.000021,0.000000,0.000000,0.000000,0.000000,0.000000,0.000000,0.968508,0.128895,0.404370,-1.428521,0.666877,0.735907,0.174451
0.247000,-0.515192,-0.307328,0.856965,0.999923,0.004788,-0.011347,0.001243,-0.515192,-0.307328,0.856965,0.999923,0.004788,-0.011347,0.001243,1000.000000,100.000000,0.000000,0.000019,0.000000,0.000000,0.000000,0.000000,0.000000,0.000000,0.968508,0.128895,0.404370,-1.428521,0.666877,0.735907,0.174451
0.248000,-0.515192,-0.307328,0.856965,0.999923,0.004788,-0.011347,0.001243,-0.515192,-0.307328,0.856965,0.999923,0.004788,-0.011347,0.001243,1000.000000,100.000000,0.000000,0.000022,0.000000,0.000000,0.000000,0.000000,0.000000,0.000000,0.968508,0.128895,0.404370,-1.428521,0.666877,0.735907,0.174451
0.249000,-0.515192,-0.307328,0.856965,0.999923,0.004788,-0.011347,0.001243,-0.515192,-0.307328,0.856965,0.999923,0.004788,-0.011347,0.001243,1000.000000,100.000000,0.000000,0.000020,0.000000,0.000000,0.000000,0.000000,0.000000,0.000000,0.968508,0.128895,0.404370,-1.428521,0.666877,0.735907,0.174451
0.250000,-0.515192,-0.307328,0.856965,0.999923,0.004788,-0.011347,0.001243,-0.515192,-0.307328,0.856965,0.999923,0.004788,-0.011347,0.001243,1000.000000,100.000000,0.000000,0.000020,0.000000,0.000000,0.000000,0.000000,0.000000,0.000000,0.968508,0.128895,0.404370,-1.428521,0.666877,0.735907,0.174451
0.251000,-0.515192,-0.307328,0.856965,0.999923,0.004788,-0.011347,0.001243,-0.515192,-0.307328,0.856965,0.999923,0.004788,-0.011347,0.001243,1000.000000,100.000000,0.000000,0.000022,0.000000,0.000000,0.000000,0.000000,0.000000,0.000000,0.968508,0.128895,0.404370,-1.428521,0.666877,0.735907,0.174451
0.252000,-0.515192,-0.307328,0.856965,0.999923,0.004788,-0.011347,0.001243,-0.515192,-0.307328,0.856965,0.999923,0.004788,-0.011347,0.001243,1000.000000,100.000000,0.000000,0.000020,0.000000,0.000000,0.000000,0.000000,0.000000,0.000000,0.968508,0.128895,0.404370,-1.428521,0.666877,0.735907,0.174451
0.253000,-0.515192,-0.307328,0.856965,0.999923,0.004788,-0.011347,0.001243,-0.515192,-0.307328,0.856965,0.999923,0.004788,-0.011347,0.001243,1000.000000,100.000000,0.000000,0.000020,0.000000,0.000000,0.000000,0.000000,0.000000,0.000000,0.968508,0.128895,0.404370,-1.428521,0.666877,0.735907,0.174451
0.254000,-0.515192,-0.307328,0.856965,0.999923,0.004788,-0.011347,0.001243,-0.515192,-0.307328,0.856965,0.999923,0.004788,-0.011347,0.001243,1000.000000,100.000000,0.000000,0.000022,0.000000,0.000000,0.000000,0.000000,0.000000,0.000000,0.968508,0.128895,0.404370,-1.428521,0.666877,0.735907,0.174451
0.255000,-0.515192,-0.307328,0.856965,0.999923,0.004788,-0.011347,0.001243,-0.515192,-0.307328,0.856965,0.999923,0.004788,-0.011347,0.001243,1000.000000,100.000000,0.000000,0.000020,0.000000,0.000000,0.000000,0.000000,0.000000,0.000000,0.968508,0.128895,0.404370,-1.428521,0.666877,0.735907,0.174451
0.256000,-0.515192,-0.307328,0.856965,0.999923,0.004788,-0.011347,0.001243,-0.515192,-0.307328,0.856965,0.999923,0.004788,-0.011347,0.001243,1000.000000,100.000000,0.000000,0.000020,0.000000,0.000000,0.000000,0.000000,0.000000,0.000000,0.968508,0.128895,0.404370,-1.428521,0.666877,0.735907,0.174451
0.257000,-0.515192,-0.307328,0.856965,0.999923,0.004788,-0.011347,0.001243,-0.515192,-0.307328,0.856965,0.999923,0.004788,-0.011347,0.001243,1000.000000,100.000000,0.000000,0.000023,0.000000,0.000000,0.000000,0.000000,0.000000,0.000000,0.968508,0.128895,0.404370,-1.428521,0.666877,0.735907,0.174451
0.258000,-0.515192,-0.307328,0.856965,0.999923,0.004788,-0.011347,0.001243,-0.515192,-0.307328,0.856965,0.999923,0.004788,-0.011347,0.001243,1000.000000,100.000000,0.000000,0.000020,0.000000,0.000000,0.000000,0.000000,0.000000,0.000000,0.968508,0.128895,0.404370,-1.428521,0.666877,0.735907,0.174451
0.259000,-0.515192,-0.307328,0.856965,0.999923,0.004788,-0.011347,0.001243,-0.515192,-0.307328,0.856965,0.999923,0.004788,-0.011347,0.001243,1000.000000,100.000000,0.000000,0.000021,0.000000,0.000000,0.000000,0.000000,0.000000,0.000000,0.968508,0.128895,0.404370,-1.428521,0.666877,0.735907,0.174451
0.260000,-0.515192,-0.307328,0.856965,0.999923,0.004788,-0.011347,0.001243,-0.515192,-0.307328,0.856965,0.999923,0.004788,-0.011347,0.001243,1000.000000,100.000000,0.000000,0.000021,0.000000,0.000000,0.000000,0.000000,0.000000,0.000000,0.968508,0.128895,0.404370,-1.428521,0.666877,0.735907,0.174451
0.261000,-0.515192,-0.307328,0.856965,0.999923,0.004788,-0.011347,0.001243,-0.515192,-0.307328,0.856965,0.999923,0.004788,-0.011347,0.001243,1000.000000,100.000000,0.000000,0.000019,0.000000,0.000000,0.000000,0.000000,0.000000,0.000000,0.968508,0.128895,0.404370,-1.428521,0.666877,0.735907,0.174451
0.262000,-0.515192,-0.307328,0.856965,0.999923,0.004788,-0.011347,0.001243,-0.515192,-0.307328,0.856965,0.999923,0.004788,-0.011347,0.001243,1000.000000,100.000000,0.000000,0.000022,0.000000,0.000000,0.000000,0.000000,0.000000,0.000000,0.968508,0.128895,0.404370,-1.428521,0.666877,0.735907,0.174451
0.263000,-0.515192,-0.307328,0.856965,0.999923,0.004788,-0.011347,0.001243,-0.515192,-0.307328,0.856965,0.999923,0.004788,-0.011347,0.001243,1000.000000,100.000000,0.000000,0.000020,0.000000,0.000000,0.000000,0.000000,0.000000,0.000000,0.968508,0.128895,0.404370,-1.428521,0.666877,0.735907,0.174451
0.264000,-0.515192,-0.307328,0.856965,0.999923,0.004788,-0.011347,0.001243,-0.515192,-0.307328,0.856965,0.999923,0.004788,-0.011347,0.001243,1000.000000,100.000000,0.000000,0.000020,0.000000,0.000000,0.000000,0.000000,0.000000,0.000000,0.968508,0.128895,0.404370,-1.428521,0.666877,0.735907,0.174451
0.265000,-0.515192,-0.307328,0.856965,0.999923,0.004788,-0.011347,0.001243,-0.515192,-0.307328,0.856965,0.999923,0.004788,-0.011347,0.001243,1000.000000,100.000000,0.000000,0.000022,0.000000,0.000000,0.000000,0.000000,0.000000,0.000000,0.968508,0.128895,0.404370,-1.428521,0.666877,0.735907,0.174451
0.265000,-0.515192,-0.307328,0.856965,0.999923,0.004788,-0.011347,0.001243,-0.515192,-0.307328,0.856965,0.999923,0.004788,-0.011347,0.001243,1000.000000,100.000000,0.000000,0.000020,0.000000,0.000000,0.000000,0.000000,0.000000,0.000000,0.968508,0.128895,0.404370,-1.428521,0.666877,0.735907,0.174451
0.267000,-0.515192,-0.307328,0.856965,0.999923,0.004788,-0.011347,0.001243,-0.515192,-0.307328,0.856965,0.999923,0.004788,-0.011347,0.001243,1000.000000,100.000000,0.000000,0.000019,0.000000,0.000000,0.000000,0.000000,0.000000,0.000000,0.968508,0.128895,0.404370,-1.428521,0.666877,0.735907,0.174451
0.268000,-0.515192,-0.307328,0.856965,0.999923,0.004788,-0.011347,0.001243,-0.515192,-0.307328,0.856965,0.999923,0.004788,-0.011347,0.001243,1000.000000,100.000000,0.000000,0.000022,0.000000,0.000000,0.000000,0.000000,0.000000,0.000000,0.968508,0.128895,0.404370,-1.428521,0.666877,0.735907,0.174451
0.269000,-0.515192,-0.307328,0.856965,0.999923,0.004788,-0.011347,0.001243,-0.515192,-0.307328,0.856965,0.999923,0.004788,-0.011347,0.001243,1000.000000,100.000000,0.000000,0.000020,0.000000,0.000000,0.000000,0.000000,0.000000,0.000000,0.968508,0.128895,0.404370,-1.428521,0.666877,0.735907,0.174451
0.270000,-0.515192,-0.307328,0.856965,0.999923,0.004788,-0.011347,0.001243,-0.515192,-0.307328,0.856965,0.999923,0.004788,-0.011347,0.001243,1000.000000,100.000000,0.000000,0.000020,0.000000,0.000000,0.000000,0.000000,0.000000,0.000000,0.968508,0.128895,0.404370,-1.428521,0.666877,0.735907,0.174451
0.271000,-0.515192,-0.307328,0.856965,0.999923,0.004788,-0.011347,0.001243,-0.515192,-0.307328,0.856965,0.999923,0.004788,-0.011347,0.001243,1000.000000,100.000000,0.000000,0.000022,0.000000,0.000000,0.000000,0.000000,0.000000,0.000000,0.968508,0.128895,0.404370,-1.428521,0.666877,0.735907,0.174451
0.272000,-0.515192,-0.307328,0.856965,0.999923,0.004788,-0.011347,0.001243,-0.515192,-0.307328,0.856965,0.999923,0.004788,-0.011347,0.001243,1000.000000,100.000000,0.000000,0.000020,0.000000,0.000000,0.000000,0.000000,0.000000,0.000000,0.968508,0.128895,0.404370,-1.428521,0.666877,0.735907,0.174451
0.273000,-0.515192,-0.307328,0.856965,0.999923,0.004788,-0.011347,0.001243,-0.515192,-0.307328,0.856965,0.999923,0.004788,-0.011347,0.001243,1000.000000,100.000000,0.000000,0.000020,0.000000,0.000000,0.000000,0.000000,0.000000,0.000000,0.968508,0.128895,0.404370,-1.428521,0.666877,0.735907,0.174451
0.274000,-0.515192,-0.307328,0.856965,0.999923,0.004788,-0.011347,0.001243,-0.515192,-0.307328,0.856965,0.999923,0.004788,-0.011347,0.001243,1000.000000,100.000000,0.000000,0.000022,0.000000,0.000000,0.000000,0.000000,0.000000,0.000000,0.968508,0.128895,0.404370,-1.428521,0.666877,0.735907,0.174451
0.275000,-0.515192,-0.307328,0.856965,0.999923,0.004788,-0.011347,0.001243,-0.515192,-0.307328,0.856965,0.999923,0.004788,-0.011347,0.001243,1000.000000,100.000000,0.000000,0.000020,0.000000,0.000000,0.000000,0.000000,0.000000,0.000000,0.968508,0.128895,0.404370,-1.428521,0.666877,0.735907,0.174451
0.276000,-0.515192,-0.307328,0.856965,0.999923,0.004788,-0.011347,0.001243,-0.515192,-0.307328,0.856965,0.999923,0.004788,-0.011347,0.001243,1000.000000,100.000000,0.000000,0.000020,0.000000,0.000000,0.000000,0.000000,0.000000,0.000000,0.968508,0.128895,0.404370,-1.428521,0.666877,0.735907,0.174451
0.277000,-0.515192,-0.307328,0.856965,0.999923,0.004788,-0.011347,0.001243,-0.515192,-0.307328,0.856965,0.999923,0.004788,-0.011347,0.001243,1000.000000,100.000000,0.000000,0.000022,0.000000,0.000000,0.000000,0.000000,0.000000,0.000000,0.968508,0.128895,0.404370,-1.428521,0.666877,0.735907,0.174451
0.278000,-0.515192,-0.307328,0.856965,0.999923,0.004788,-0.011347,0.001243,-0.515192,-0.307328,0.856965,0.999923,0.004788,-0.011347,0.001243,1000.000000,100.000000,0.000000,0.000020,0.000000,0.000000,0.000000,0.000000,0.000000,0.000000,0.968508,0.128895,0.404370,-1.428521,0.666877,0.735907,0.174451
0.279000,-0.515192,-0.307328,0.856965,0.999923,0.004788,-0.011347,0.001243,-0.515192,-0.307328,0.856965,0.999923,0.004788,-0.011347,0.001243,1000.000000,100.000000,0.000000,0.000020,0.000000,0.000000,0.000000,0.000000,0.000000,0.000000,0.968508,0.128895,0.404370,-1.428521,0.666877,0.735907,0.174451
0.280000,-0.515192,-0.307328,0.856965,0.999923,0.004788,-0.011347,0.001243,-0.515192,-0.307328,0.856965,0.999923,0.004788,-0.011347,0.001243,1000.000000,100.000000,0.000000,0.000022,0.000000,0.000000,0.000000,0.000000,0.000000,0.000000,0.968508,0.128895,0.404370,-1.428521,0.666877,0.735907,0.174451
0.281000,-0.515192,-0.307328,0.856965,0.999923,0.004788,-0.011347,0.001243,-0.515192,-0.307328,0.856965,0.999923,0.004788,-0.011347,0.001243,1000.000000,100.000000,0.000000,0.000020,0.000000,0.000000,0.000000,0.000000,0.000000,0.000000,0.968508,0.128895,0.404370,-1.428521,0.666877,0.735907,0.174451
0.282000,-0.515192,-0.307328,0.856965,0.999923,0.004788,-0.011347,0.001243,-0.515192,-0.307328,0.856965,0.999923,0.004788,-0.011347,0.001243,1000.000000,100.000000,0.000000,0.000020,0.000000,0.000000,0.000000,0.000000,0.000000,0.000000,0.968508,0.128895,0.404370,-1.428521,0.666877,0.735907,0.174451
0.283000,-0.515192,-0.307328,0.856965,0.999923,0.004788,-0.011347,0.001243,-0.515192,-0.307328,0.856965,0.999923,0.004788,-0.011347,0.001243,1000.000000,100.000000,0.000000,0.000022,0.000000,0.000000,0.000000,0.000000,0.000000,0.000000,0.968508,0.128895,0.404370,-1.428521,0.666877,0.735907,0.174451
0.284000,-0.515192,-0.307328,0.856965,0.999923,0.004788,-0.011347,0.001243,-0.515192,-0.307328,0.856965,0.999923,0.004788,-0.011347,0.001243,1000.000000,100.000000,0.000000,0.000020,0.000000,0.000000,0.000000,0.000000,0.000000,0.000000,0.968508,0.128895,0.404370,-1.428521,0.666877,0.735907,0.174451
0.285000,-0.515192,-0.307328,0.856965,0.999923,0.004788,-0.011347,0.001243,-0.515192,-0.307328,0.856965,0.999923,0.004788,-0.011347,0.001243,1000.000000,100.000000,0.000000,0.000020,0.000000,0.000000,0.000000,0.000000,0.000000,0.000000,0.968508,0.128895,0.404370,-1.428521,0.666877,0.735907,0.174451
0.286000,-0.515192,-0.307328,0.856965,0.999923,0.004788,-0.011347,0.001243,-0.515192,-0.307328,0.856965,0.999923,0.004788,-0.011347,0.001243,1000.000000,100.000000,0.000000,0.000021,0.000000,0.000000,0.000000,0.000000,0.000000,0.000000,0.968508,0.128895,0.404370,-1.428521,0.666877,0.735907,0.174451
0.287000,-0.515192,-0.307328,0.856965,0.999923,0.004788,-0.011347,0.001243,-0.515192,-0.307328,0.856965,0.999923,0.004788,-0.011347,0.001243,1000.000000,100.000000,0.000000,0.000020,0.000000,0.000000,0.000000,0.000000,0.000000,0.000000,0.968508,0.128895,0.404370,-1.428521,0.666877,0.735907,0.174451
0.288000,-0.515192,-0.307328,0.856965,0.999923,0.004788,-0.011347,0.001243,-0.515192,-0.307328,0.856965,0.999923,0.004788,-0.011347,0.001243,1000.000000,100.000000,0.000000,0.000020,0.000000,0.000000,0.000000,0.000000,0.000000,0.000000,0.968508,0.128895,0.404370,-1.428521,0.666877,0.735907,0.174451
0.289000,-0.515192,-0.307328,0.856965,0.999923,0.004788,-0.011347,0.001243,-0.515192,-0.307328,0.856965,0.999923,0.004788,-0.011347,0.001243,1000.000000,100.000000,0.000000,0.000022,0.000000,0.000000,0.000000,0.000000,0.000000,0.000000,0.968508,0.128895,0.404370,-1.428521,0.666877,0.735907,0.174451
0.290000,-0.515192,-0.307328,0.856965,0.999923,0.004788,-0.011347,0.001243,-0.515192,-0.307328,0.856965,0.999923,0.004788,-0.011347,0.001243,1000.000000,100.000000,0.000000,0.000019,0.000000,0.000000,0.000000,0.000000,0.000000,0.000000,0.968508,0.128895,0.404370,-1.428521,0.666877,0.735907,0.174451
0.291000,-0.515192,-0.307328,0.856965,0.999923,0.004788,-0.011347,0.001243,-0.515192,-0.307328,0.856965,0.999923,0.004788,-0.011347,0.001243,1000.000000,100.000000,0.000000,0.000021,0.000000,0.000000,0.000000,0.000000,0.000000,0.000000,0.968508,0.128895,0.404370,-1.428521,0.666877,0.735907,0.174451
0.292000,-0.515192,-0.307328,0.856965,0.999923,0.004788,-0.011347,0.001243,-0.515192,-0.307328,0.856965,0.999923,0.004788,-0.011347,0.001243,1000.000000,100.000000,0.000000,0.000021,0.000000,0.000000,0.000000,0.000000,0.000000,0.000000,0.968508,0.128895,0.404370,-1.428521,0.666877,0.735907,0.174451
0.293000,-0.515192,-0.307328,0.856965,0.999923,0.004788,-0.011347,0.001243,-0.515192,-0.307328,0.856965,0.999923,0.004788,-0.011347,0.001243,1000.000000,100.000000,0.000000,0.000019,0.000000,0.000000,0.000000,0.000000,0.000000,0.000000,0.968508,0.128895,0.404370,-1.428521,0.666877,0.735907,0.174451
0.294000,-0.515192,-0.307328,0.856965,0.999923,0.004788,-0.011347,0.001243,-0.515192,-0.307328,0.856965,0.999923,0.004788,-0.011347,0.001243,1000.000000,100.000000,0.000000,0.000022,0.000000,0.000000,0.000000,0.000000,0.000000,0.000000,0.968508,0.128895,0.404370,-1.428521,0.666877,0.735907,0.174451
0.295000,-0.515192,-0.307328,0.856965,0.999923,0.004788,-0.011347,0.001243,-0.515192,-0.307328,0.856965,0.999923,0.004788,-0.011347,0.001243,1000.000000,100.000000,0.000000,0.000020,0.000000,0.000000,0.000000,0.000000,0.000000,0.000000,0.968508,0.128895,0.404370,-1.428521,0.666877,0.735907,0.174451
0.296000,-0.515192,-0.307328,0.856965,0.999923,0.004788,-0.011347,0.001243,-0.515192,-0.307328,0.856965,0.999923,0.004788,-0.011347,0.001243,1000.000000,100.000000,0.000000,0.000020,0.000000,0.000000,0.000000,0.000000,0.000000,0.000000,0.968508,0.128895,0.404370,-1.428521,0.666877,0.735907,0.174451
0.297000,-0.515192,-0.307328,0.856965,0.999923,0.004788,-0.011347,0.001243,-0.515192,-0.307328,0.856965,0.999923,0.004788,-0.011347,0.001243,1000.000000,100.000000,0.000000,0.000022,0.000000,0.000000,0.000000,0.000000,0.000000,0.000000,0.968508,0.128895,0.404370,-1.428521,0.666877,0.735907,0.174451
0.298000,-0.515192,-0.307328,0.856965,0.999923,0.004788,-0.011347,0.001243,-0.515192,-0.307328,0.856965,0.999923,0.004788,-0.011347,0.001243,1000.000000,100.000000,0.000000,0.000020,0.000000,0.000000,0.000000,0.000000,0.000000,0.000000,0.968508,0.128895,0.404370,-1.428521,0.666877,0.735907,0.174451
0.299000,-0.515192,-0.307328,0.856965,0.999923,0.004788,-0.011347,0.001243,-0.515192,-0.307328,0.856965,0.999923,0.004788,-0.011347,0.001243,1000.000000,100.000000,0.000000,0.000020,0.000000,0.000000,0.000000,0.000000,0.000000,0.000000,0.968508,0.128895,0.404370,-1.428521,0.666877,0.735907,0.174451
0.300000,-0.515192,-0.307328,0.856965,0.999923,0.004788,-0.011347,0.001243,-0.515192,-0.307328,0.856965,0.999923,0.004788,-0.011347,0.001243,1000.000000,100.000000,0.000000,0.000021,0.000000,0.000000,0.000000,0.000000,0.000000,0.000000,0.968508,0.128895,0.404370,-1.428521,0.666877,0.735907,0.174451
0.301000,-0.515192,-0.307328,0.856965,0.999923,0.004788,-0.011347,0.001243,-0.515192,-0.307328,0.856965,0.999923,0.004788,-0.011347,0.001243,1000.000000,100.000000,0.000000,0.000020,0.000000,0.000000,0.000000,0.000000,0.000000,0.000000,0.968508,0.128895,0.404370,-1.428521,0.666877,0.735907,0.174451
0.302000,-0.515192,-0.307328,0.856965,0.999923,0.004788,-0.011347,0.001243,-0.515192,-0.307328,0.856965,0.999923,0.004788,-0.011347,0.001243,1000.000000,100.000000,0.000000,0.000020,0.000000,0.000000,0.000000,0.000000,0.000000,0.000000,0.968508,0.128895,0.404370,-1.428521,0.666877,0.735907,0.174451
0.303000,-0.515192,-0.307328,0.856965,0.999923,0.004788,-0.011347,0.001243,-0.515192,-0.307328,0.856965,0.999923,0.004788,-0.011347,0.001243,1000.000000,100.000000,0.000000,0.000022,0.000000,0.000000,0.000000,0.000000,0.000000,0.000000,0.968508,0.128895,0.404370,-1.428521,0.666877,0.735907,0.174451
0.304000,-0.515192,-0.307328,0.856965,0.999923,0.004788,-0.011347,0.001243,-0.515192,-0.307328,0.856965,0.999923,0.004788,-0.011347,0.001243,1000.000000,100.000000,0.000000,0.000020,0.000000,0.000000,0.000000,0.000000,0.000000,0.000000,0.968508,0.128895,0.404370,-1.428521,0.666877,0.735907,0.174451
0.305000,-0.515192,-0.307328,0.856965,0.999923,0.004788,-0.011347,0.001243,-0.515192,-0.307328,0.856965,0.999923,0.004788,-0.011347,0.001243,1000.000000,100.000000,0.000000,0.000020,0.000000,0.000000,0.000000,0.000000,0.000000,0.000000,0.968508,0.128895,0.404370,-1.428521,0.666877,0.735907,0.174451
0.306000,-0.515192,-0.307328,0.856965,0.999923,0.004788,-0.011347,0.001243,-0.515192,-0.307328,0.856965,0.999923,0.004788,-0.011347,0.001243,1000.000000,100.000000,0.000000,0.000021,0.000000,0.000000,0.000000,0.000000,0.000000,0.000000,0.968508,0.128895,0.404370,-1.428521,0.666877,0.735907,0.174451
0.307000,-0.515192,-0.307328,0.856965,0.999923,0.004788,-0.011347,0.001243,-0.515192,-0.307328,0.856965,0.999923,0.004788,-0.011347,0.001243,1000.000000,100.000000,0.000000,0.000020,0.000000,0.000000,0.000000,0.000000,0.000000,0.000000,0.968508,0.128895,0.404370,-1.428521,0.666877,0.735907,0.174451
0.308000,-0.515192,-0.307328,0.856965,0.999923,0.004788,-0.011347,0.001243,-0.515192,-0.307328,0.856965,0.999923,0.004788,-0.011347,0.001243,1000.000000,100.000000,0.000000,0.000020,0.000000,0.000000,0.000000,0.000000,0.000000,0.000000,0.968508,0.128895,0.404370,-1.428521,0.666877,0.735907,0.174451
0.309000,-0.515192,-0.307328,0.856965,0.999923,0.004788,-0.011347,0.001243,-0.527251,-0.283205,0.849977,0.999977,0.002911,-0.004273,-0.004317,1000.000000,100.000000,0.000000,0.000022,0.000000,0.000000,0.000000,0.000000,0.000000,0.000000,0.968508,0.128895,0.404370,-1.428521,0.666877,0.735907,0.174451
0.310000,-0.515192,-0.307328,0.856965,0.999923,0.004788,-0.011347,0.001242,-0.527251,-0.283205,0.849977,0.999977,0.002911,-0.004273,-0.004317,1000.000000,100.000000,0.000000,0.000107,0.000000,0.000000,0.000000,0.000000,0.000000,0.000000,0.968506,0.128895,0.404372,-1.428520,0.666873,0.735908,0.174455
0.311000,-0.515192,-0.307327,0.856965,0.999923,0.004788,-0.011346,0.001239,-0.527251,-0.283205,0.849977,0.999977,0.002911,-0.004273,-0.004317,1000.000000,100.000000,0.000000,0.000441,0.000000,0.000000,0.000000,0.000000,0.000000,0.000000,0.968500,0.128896,0.404381,-1.428520,0.666862,0.735908,0.174463
0.312000,-0.515192,-0.307327,0.856964,0.999923,0.004787,-0.011346,0.001235,-0.527251,-0.283205,0.849977,0.999977,0.002911,-0.004273,-0.004317,1000.000000,100.000000,0.000000,0.000966,0.000000,0.000000,0.000000,0.000000,0.000000,0.000000,0.968489,0.128897,0.404395,-1.428519,0.666845,0.735909,0.174476
0.313000,-0.515192,-0.307325,0.856964,0.999923,0.004786,-0.011346,0.001229,-0.527251,-0.283205,0.849977,0.999977,0.002911,-0.004273,-0.004317,1000.000000,100.000000,0.000000,0.001897,0.000000,0.000000,0.000000,0.000000,0.000000,0.000000,0.968472,0.128898,0.404412,-1.428520,0.666826,0.735909,0.174491
0.314000,-0.515192,-0.307321,0.856965,0.999923,0.004785,-0.011346,0.001223,-0.527251,-0.283205,0.849977,0.999977,0.002911,-0.004273,-0.004317,1000.000000,100.000000,0.000000,0.003405,0.000000,0.000000,0.000000,0.000000,0.000000,0.000000,0.968452,0.128898,0.404431,-1.428523,0.666806,0.735910,0.174504
0.315000,-0.515193,-0.307316,0.856966,0.999923,0.004784,-0.011347,0.001215,-0.527251,-0.283205,0.849977,0.999977,0.002911,-0.004273,-0.004317,1000.000000,100.000000,0.000000,0.005385,0.000000,0.000000,0.000000,0.000000,0.000000,0.000000,0.968431,0.128898,0.404448,-1.428529,0.666788,0.735912,0.174514
0.316000,-0.515194,-0.307308,0.856967,0.999923,0.004783,-0.011347,0.001205,-0.527251,-0.283205,0.849977,0.999977,0.002911,-0.004273,-0.004317,1000.000000,100.000000,0.000000,0.007860,0.000000,0.000000,0.000000,0.000000,0.000000,0.000000,0.968409,0.128896,0.404461,-1.428539,0.666774,0.735914,0.174518
0.317000,-0.515195,-0.307298,0.856968,0.999923,0.004781,-0.011348,0.001195,-0.527251,-0.283205,0.849977,0.999977,0.002911,-0.004273,-0.004317,1000.000000,100.000000,0.000000,0.010799,0.000000,0.000000,0.000000,0.000000,0.000000,0.000000,0.968389,0.128894,0.404465,-1.428555,0.666765,0.735916,0.174515
0.318000,-0.515196,-0.307284,0.856969,0.999923,0.004780,-0.011348,0.001184,-0.527251,-0.283205,0.849977,0.999977,0.002911,-0.004273,-0.004317,1000.000000,100.000000,0.000000,0.014043,0.000000,0.000000,0.000000,0.000000,0.000000,0.000000,0.968373,0.128890,0.404459,-1.428576,0.666764,0.735920,0.174502
0.319000,-0.515198,-0.307266,0.856971,0.999923,0.004778,-0.011349,0.001171,-0.527251,-0.283205,0.849977,0.999977,0.002911,-0.004273,-0.004317,1000.000000,100.000000,0.000000,0.017441,0.000000,0.000000,0.000000,0.000000,0.000000,0.000000,0.968360,0.128886,0.404442,-1.428601,0.666772,0.735925,0.174479
0.320000,-0.515201,-0.307246,0.856973,0.999924,0.004776,-0.011349,0.001157,-0.527251,-0.283205,0.849977,0.999977,0.002911,-0.004273,-0.004317,1000.000000,100.000000,0.000000,0.020825,0.000000,0.000000,0.000000,0.000000,0.000000,0.000000,0.968351,0.128883,0.404415,-1.428630,0.666785,0.735931,0.174447
0.321000,-0.515205,-0.307222,0.856974,0.999924,0.004774,-0.011349,0.001143,-0.527251,-0.283205,0.849977,0.999977,0.002911,-0.004273,-0.004317,1000.000000,100.000000,0.000000,0.024150,0.000000,0.000000,0.000000,0.000000,0.000000,0.000000,0.968347,0.128880,0.404377,-1.428663,0.666805,0.735938,0.174407
0.322000,-0.515210,-0.307195,0.856975,0.999924,0.004771,-0.011349,0.001126,-0.527251,-0.283205,0.849977,0.999977,0.002911,-0.004273,-0.004317,1000.000000,100.000000,0.000000,0.027461,0.000000,0.000000,0.000000,0.000000,0.000000,0.000000,0.968346,0.128879,0.404330,-1.428698,0.666829,0.735946,0.174359
0.323000,-0.515215,-0.307165,0.856975,0.999924,0.004769,-0.011349,0.001109,-0.527251,-0.283205,0.849977,0.999977,0.002911,-0.004273,-0.004317,1000.000000,100.000000,0.000000,0.030702,0.000000,0.000000,0.000000,0.000000,0.000000,0.000000,0.968348,0.128881,0.404274,-1.428736,0.666859,0.735954,0.174302
0.324000,-0.515222,-0.307132,0.856975,0.999924,0.004767,-0.011349,0.001091,-0.527251,-0.283205,0.849977,0.999977,0.002911,-0.004273,-0.004317,1000.000000,100.000000,0.000000,0.033965,0.000000,0.000000,0.000000,0.000000,0.000000,0.000000,0.968353,0.128885,0.404211,-1.428776,0.666892,0.735964,0.174239
0.325000,-0.515230,-0.307095,0.856973,0.999924,0.004764,-0.011348,0.001071,-0.527251,-0.283205,0.849977,0.999977,0.002911,-0.004273,-0.004317,1000.000000,100.000000,0.000000,0.037148,0.000000,0.000000,0.000000,0.000000,0.000000,0.000000,0.968362,0.128891,0.404139,-1.428818,0.666931,0.735973,0.174168
0.326000,-0.515239,-0.307056,0.856971,0.999924,0.004761,-0.011347,0.001051,-0.527251,-0.283205,0.849977,0.999977,0.002911,-0.004273,-0.004317,1000.000000,100.000000,0.000000,0.040309,0.000000,0.000000,0.000000,0.000000,0.000000,0.000000,0.968373,0.128899,0.404060,-1.428862,0.666973,0.735984,0.174089
0.327000,-0.515248,-0.307014,0.856969,0.999924,0.004758,-0.011345,0.001029,-0.527251,-0.283205,0.849977,0.999977,0.002911,-0.004273,-0.004317,1000.000000,100.000000,0.000000,0.043375,0.000000,0.000000,0.000000,0.000000,0.000000,0.000000,0.968386,0.128910,0.403973,-1.428908,0.667021,0.735995,0.174003
0.328000,-0.515259,-0.306969,0.856966,0.999924,0.004755,-0.011344,0.001007,-0.527251,-0.283205,0.849977,0.999977,0.002911,-0.004273,-0.004317,1000.000000,100.000000,0.000000,0.046417,0.000000,0.000000,0.000000,0.000000,0.000000,0.000000,0.968402,0.128922,0.403879,-1.428956,0.667073,0.736006,0.173910
0.329000,-0.515271,-0.306921,0.856962,0.999924,0.004752,-0.011342,0.000984,-0.527251,-0.283205,0.849977,0.999977,0.002911,-0.004273,-0.004317,1000.000000,100.000000,0.000000,0.049367,0.000000,0.000000,0.000000,0.000000,0.000000,0.000000,0.968419,0.128936,0.403779,-1.429006,0.667130,0.736019,0.173809
0.330000,-0.515284,-0.306870,0.856958,0.999924,0.004749,-0.011341,0.000960,-0.527251,-0.283205,0.849977,0.999977,0.002911,-0.004273,-0.004317,1000.000000,100.000000,0.000000,0.052300,0.000000,0.000000,0.000000,0.000000,0.000000,0.000000,0.968438,0.128953,0.403672,-1.429057,0.667192,0.736032,0.173701
0.331000,-0.515298,-0.306817,0.856954,0.999924,0.004746,-0.011339,0.000936,-0.527251,-0.283205,0.849977,0.999977,0.002911,-0.004273,-0.004317,1000.000000,100.000000,0.000000,0.055143,0.000000,0.000000,0.000000,0.000000,0.000000,0.000000,0.968458,0.128971,0.403559,-1.429111,0.667258,0.736046,0.173586
